;TIME:381.63
;Filament used:0.36390m
;Layer height:0.200
; HEADER_BLOCK_START
; generated by Creality_Print V6.2.2.3134 on 2025-08-30 at 02:03:58
; total layer number: 50
; filament_density: 1.24
; filament_diameter: 1.75
; max_z_height: 10.00
; creality_uuid: 487045ed-f9e9-4299-abd3-c6c3ec090745
; HEADER_BLOCK_END

; MINX = 87.43
; MINY = 106.91
; MINZ = 0.00
; MAXX = 102.43
; MAXY = 121.90
; MAXZ = 10.00

; THUMBNAIL_BLOCK_START

;
; THUMBNAIL_BLOCK_END

; THUMBNAIL_BLOCK_START

;
; THUMBNAIL_BLOCK_END

; external perimeters extrusion width = 0.42mm
; perimeters extrusion width = 0.45mm
; infill extrusion width = 0.45mm
; solid infill extrusion width = 0.42mm
; top infill extrusion width = 0.42mm
; first layer extrusion width = 0.50mm

; EXECUTABLE_BLOCK_START
M73 P0 R6
M201 X5000 Y5000 Z500 E5000
M203 X500 Y500 Z30 E100
M204 P5000 R2500 T5000 ; sets acceleration (P, T) and retract acceleration (R), mm/sec^2
M205 X10.00 Y10.00 Z0.40 E5.00 ; sets the jerk limits, mm/sec
;TYPE:Custom
M220 S100 ;Reset Feedrate 
M221 S100 ;Reset Flowrate 
 
M140 S50 ;Set final bed temp 
G28 ;Home 
 
G92 E0 ;Reset Extruder 
G1 Z2.0 F3000 ;Move Z Axis up 
M104 S190 ;Set final nozzle temp 
G1 X-2.1 Y20 Z0.28 F5000.0 ;Move to start position 
M190 S50 ;Wait for bed temp to stabilize 
M109 S190 ;Wait for nozzle temp to stabilize 
G1 X-2.1 Y145.0 Z0.28 F1500.0 E15 ;Draw the first line 
G1 X-2.4 Y145.0 Z0.28 F5000.0 ;Move to side a little 
M73 P1 R6
G1 X-2.4 Y20 Z0.28 F1500.0 E30 ;Draw the second line 
G92 E0  ;Reset Extruder 
G1 E-1.0000 F1800 ;Retract a bit 
M73 P2 R6
G1 Z2.0 F3000 ;Move Z Axis up 
G1 E0.0000 F1800
G90
G21
M83 ; use relative distances for extrusion
;filament start gcode
G1 E-1.2 F2400
M106 S0
;LAYER_CHANGE
;Z:0.2
;HEIGHT:0.2
;BEFORE_LAYER_CHANGE
;0.2
G92 E0

;_SET_FAN_SPEED_CHANGING_LAYER
M204 P500
M205 X10 Y10
; printing object Object_1 id:0 copy 0
M204 T500
G1 X88.369 Y113.49 Z.2 F9000
G1 E1.2 F1800
;TYPE:Inner wall
;WIDTH:0.499999
M73 P3 R6
G1 X88.486 Y112.846 E.02364
G3 X101.547 Y114.012 I6.443 J1.559 E.68095
G1 X101.547 Y114.797 E.02836
G3 X88.348 Y113.612 I-6.617 J-.393 E.76643
G1 X88.362 Y113.529 E.00303
G1 X87.844 Y113.967 F9000
;TYPE:Outer wall
G1 F1800
G1 X87.942 Y113.149 E.02976
G1 X88.139 Y112.331 E.03036
G1 X88.432 Y111.543 E.03037
G1 X88.816 Y110.795 E.03036
G1 X89.292 Y110.09 E.03069
G1 X89.835 Y109.46 E.03006
G1 X90.456 Y108.892 E.03036
G1 X91.147 Y108.397 E.03069
G1 X91.876 Y107.995 E.03006
G1 X92.655 Y107.679 E.03037
G1 X93.467 Y107.458 E.03037
G1 X94.299 Y107.333 E.03037
G1 X95.139 Y107.308 E.03037
G1 X95.969 Y107.382 E.03006
G1 X96.8 Y107.556 E.03069
G3 X98.712 Y108.412 I-2.631 J8.442 E.07581
G1 X99.394 Y108.902 E.03031
G1 X100.014 Y109.468 E.03031
G1 X100.562 Y110.104 E.03032
G1 X101.031 Y110.801 E.03031
G1 X101.414 Y111.548 E.03032
G1 X101.707 Y112.335 E.03032
G1 X101.904 Y113.151 E.03032
G1 X102.003 Y113.985 E.03032
G1 X101.978 Y115.244 E.04548
G1 X101.83 Y116.072 E.03037
G1 X101.584 Y116.877 E.03037
G1 X101.245 Y117.646 E.03037
G1 X100.817 Y118.371 E.03037
G1 X100.307 Y119.039 E.03037
G1 X99.721 Y119.643 E.03037
G1 X99.068 Y120.173 E.03037
G1 X98.356 Y120.622 E.03037
G1 X97.597 Y120.983 E.03037
G1 X96.8 Y121.253 E.03037
G1 X95.977 Y121.426 E.03037
G1 X95.139 Y121.501 E.03037
G1 X94.299 Y121.476 E.03037
G1 X93.467 Y121.352 E.03037
G1 X92.655 Y121.13 E.03037
G1 X91.876 Y120.814 E.03037
G1 X91.139 Y120.408 E.03037
G1 X90.456 Y119.917 E.03037
G1 X89.835 Y119.35 E.03037
G1 X89.286 Y118.712 E.03037
G1 X88.816 Y118.015 E.03037
G1 X88.432 Y117.266 E.03037
G1 X88.139 Y116.478 E.03037
G1 X87.941 Y115.659 E.03041
G1 X87.843 Y114.837 E.0299
G1 X87.843 Y114.007 E.02997
G1 E-1.2 F2400
;WIPE_START
G1 F9000
G1 X87.942 Y113.149
G1 X88.139 Y112.331
G1 X88.242 Y112.055
;WIPE_END
G1 X100.52 Y111.104 Z.4
G1 Z.4
M73 P4 R6
G1 Z.2
G1 E1.2 F1800
;TYPE:Bottom surface
;WIDTH:0.508873
G1 F4800
G1 X99.148 Y109.731 E.07143
G2 X97.352 Y108.595 I-4.552 J5.205 E.07851
G1 X100.726 Y111.969 E.17559
G1 X100.833 Y112.212 E.00978
G1 X101.057 Y112.958 E.0287
G1 X96.385 Y108.287 E.24318
G2 X95.591 Y108.152 I-.969 J3.299 E.02971
G1 X101.188 Y113.749 E.29134
G1 X101.225 Y114.444 E.02564
G1 X94.896 Y108.116 E.32941
G1 X94.268 Y108.147 E.02315
G1 X101.188 Y115.066 E.36019
G1 X101.096 Y115.633 E.02114
G1 X93.695 Y108.232 E.38525
G1 X93.171 Y108.368 E.01991
G1 X100.966 Y116.162 E.40574
G3 X100.805 Y116.661 I-2.172 J-.425 E.01932
G1 X92.678 Y108.533 E.42305
G1 X92.21 Y108.724 E.0186
G1 X100.604 Y117.118 E.43691
G3 X100.374 Y117.548 I-1.918 J-.748 E.01797
G1 X91.785 Y108.959 E.44708
G2 X91.381 Y109.213 I.878 J1.842 E.01763
G1 X100.126 Y117.958 E.45519
G1 X99.84 Y118.332 E.0173
G1 X90.997 Y109.488 E.46033
G2 X90.649 Y109.799 I1.119 J1.602 E.01722
G1 X99.535 Y118.686 E.46256
G1 X99.211 Y119.02 E.01715
M73 P5 R6
G1 X90.317 Y110.126 E.46295
G1 X90.012 Y110.48 E.0172
G1 X98.851 Y119.319 E.46009
G3 X98.474 Y119.601 I-1.374 J-1.438 E.01736
G1 X89.735 Y110.862 E.45488
G2 X89.475 Y111.262 I1.529 J1.28 E.01757
G1 X98.07 Y119.856 E.44739
G3 X97.635 Y120.08 I-1.155 J-1.718 E.01806
G1 X89.252 Y111.697 E.43634
G2 X89.056 Y112.16 I1.846 J1.054 E.01855
G1 X97.177 Y120.281 E.42272
G1 X96.685 Y120.448 E.01913
G1 X88.885 Y112.648 E.40597
G1 X88.757 Y113.179 E.0201
G1 X96.15 Y120.572 E.38483
G3 X95.578 Y120.659 I-.649 J-2.36 E.02136
G1 X88.675 Y113.755 E.35933
G2 X88.643 Y114.383 I2.614 J.446 E.02318
G1 X94.955 Y120.695 E.32856
G1 X94.263 Y120.662 E.02551
G1 X88.677 Y115.076 E.29075
M73 P5 R5
G2 X88.816 Y115.874 I3.434 J-.187 E.02988
G1 X93.464 Y120.522 E.24193
G3 X92.478 Y120.195 I.878 J-4.301 E.03831
G1 X89.129 Y116.846 E.17434
G1 X89.165 Y116.943 E.00384
G2 X90.374 Y118.75 I6.345 J-2.938 E.08034
G1 X91.617 Y119.993 E.06467
G1 X91.984 Y120.064 F9000
;TYPE:Gap infill
;WIDTH:0.113626
M73 P6 R5
G1 F1800
G1 X91.859 Y119.97 E.00087
;WIDTH:0.129483
G1 X91.734 Y119.876 E.00107
G1 E-1.2 F2400
;WIPE_START
G1 F9000
G1 X91.859 Y119.97
;WIPE_END
G1 X89.394 Y117.056 Z.4
G1 X89.034 Y116.63 Z.4
G1 Z.2
G1 E1.2 F1800
;WIDTH:0.113567
G1 X88.802 Y116.218 E.00264
G1 E-1.2 F2400
;WIPE_START
G1 F9000
G1 X89.034 Y116.63
;WIPE_END
G1 X92.523 Y115.085 Z.4
G1 X100.619 Y111.498 Z.4
G1 Z.2
G1 E1.2 F1800
;WIDTH:0.114314
G1 X100.511 Y111.359 E.00099
;WIDTH:0.130858
G1 X100.403 Y111.22 E.00122
; stop printing object Object_1 id:0 copy 0
;TIME_ELAPSED:23.933079

M106 S255
;LAYER_CHANGE
;Z:0.4
;HEIGHT:0.2
;BEFORE_LAYER_CHANGE
;0.4
G92 E0

G1 E-1.2 F2400
;WIPE_START
G1 F9000
G1 X100.511 Y111.359
;WIPE_END
;_SET_FAN_SPEED_CHANGING_LAYER
M204 P2500
; printing object Object_1 id:0 copy 0
M204 T2500
G1 X96.754 Y112.031 Z.4
G1 X88.096 Y113.579 Z.4
G1 E1.2 F1800
M204 P2000
;TYPE:Inner wall
;WIDTH:0.449999
G1 F5208
G1 X88.141 Y113.182 E.01284
G1 X88.333 Y112.39 E.02621
G1 X88.617 Y111.624 E.02628
G1 X88.99 Y110.898 E.02625
G1 X89.463 Y110.201 E.02709
G1 X89.98 Y109.601 E.02549
G1 X90.583 Y109.05 E.02625
G3 X92.343 Y108.024 I5.224 J6.943 E.06568
G1 X93.115 Y107.763 E.0262
G1 X93.913 Y107.595 E.02622
G1 X94.725 Y107.523 E.02622
G1 X95.541 Y107.547 E.02623
G1 X96.347 Y107.668 E.02623
G1 X97.134 Y107.883 E.02623
G1 X97.89 Y108.189 E.02623
G1 X98.604 Y108.583 E.02623
G1 X99.267 Y109.059 E.02623
G1 X99.869 Y109.609 E.02623
G1 X100.401 Y110.227 E.02623
G1 X100.857 Y110.904 E.02623
G1 X101.23 Y111.629 E.02623
G1 X101.514 Y112.394 E.02624
G1 X101.705 Y113.187 E.02624
G1 X101.802 Y113.998 E.02624
G1 X101.777 Y115.22 E.03932
G1 X101.633 Y116.025 E.02628
G1 X101.394 Y116.805 E.02625
G1 X101.052 Y117.575 E.02709
G1 X100.649 Y118.257 E.02549
G1 X100.153 Y118.907 E.02628
G1 X99.584 Y119.493 E.02628
G1 X98.95 Y120.008 E.02628
G1 X98.259 Y120.444 E.02628
G1 X97.521 Y120.796 E.02628
G1 X96.747 Y121.058 E.02628
G1 X95.947 Y121.226 E.02628
G1 X95.133 Y121.298 E.02628
G1 X94.317 Y121.274 E.02628
G1 X93.508 Y121.154 E.02628
G1 X92.72 Y120.938 E.02628
G1 X91.963 Y120.631 E.02628
G1 X91.247 Y120.237 E.02628
G1 X90.583 Y119.76 E.02628
G1 X89.98 Y119.209 E.02628
G1 X89.447 Y118.59 E.02628
G1 X88.99 Y117.912 E.02628
G1 X88.617 Y117.185 E.02628
G1 X88.333 Y116.419 E.02627
G1 X88.14 Y115.621 E.02639
G3 X88.053 Y114.039 I7.696 J-1.216 E.05104
G1 X88.092 Y113.619 E.01357
G1 X87.655 Y113.981 F9000
M204 P1000
;TYPE:Outer wall
;WIDTH:0.419999
G1 F3600
G1 X87.755 Y113.114 E.02602
G1 X87.957 Y112.276 E.02568
G1 X88.258 Y111.466 E.02573
G1 X88.652 Y110.698 E.02572
G1 X89.151 Y109.962 E.02648
G1 X89.699 Y109.327 E.02498
G1 X90.336 Y108.744 E.02572
G1 X91.06 Y108.228 E.02648
G1 X91.794 Y107.824 E.02498
G1 X92.594 Y107.499 E.02573
G1 X93.427 Y107.271 E.02573
G1 X94.282 Y107.144 E.02573
G1 X95.145 Y107.118 E.02573
G1 X96.005 Y107.195 E.02573
G1 X96.85 Y107.373 E.02573
G1 X97.669 Y107.649 E.02573
G1 X98.448 Y108.021 E.02573
G1 X99.179 Y108.482 E.02573
G1 X99.849 Y109.026 E.02573
G1 X100.451 Y109.646 E.02573
G1 X100.975 Y110.332 E.02573
G1 X101.414 Y111.076 E.02573
G1 X101.762 Y111.866 E.02573
G1 X102.015 Y112.692 E.02573
G1 X102.167 Y113.542 E.02573
G1 X102.219 Y114.405 E.02573
G1 X102.167 Y115.267 E.02573
G1 X102.015 Y116.117 E.02573
G1 X101.762 Y116.943 E.02572
G1 X101.401 Y117.755 E.02648
G1 X100.975 Y118.477 E.02498
G1 X100.451 Y119.163 E.02573
G1 X99.849 Y119.783 E.02573
G1 X99.179 Y120.327 E.02573
G1 X98.448 Y120.788 E.02573
G1 X97.669 Y121.16 E.02573
G1 X96.85 Y121.436 E.02573
G1 X96.005 Y121.614 E.02573
G1 X95.145 Y121.691 E.02573
G1 X94.282 Y121.665 E.02573
G1 X93.427 Y121.538 E.02573
G1 X92.594 Y121.31 E.02573
G1 X91.794 Y120.986 E.02573
G1 X91.038 Y120.569 E.02573
G1 X90.336 Y120.065 E.02573
G1 X89.699 Y119.482 E.02573
G1 X89.135 Y118.828 E.02573
G1 X88.652 Y118.112 E.02573
G1 X88.258 Y117.343 E.02573
G1 X87.957 Y116.534 E.02573
G1 X87.754 Y115.691 E.02582
G1 X87.655 Y114.871 E.0246
G1 X87.651 Y114.021 E.02531
G1 E-1.2 F2400
;WIPE_START
G1 F9000
G1 X87.755 Y113.114
G1 X87.957 Y112.276
G1 X88.035 Y112.065
;WIPE_END
G1 X98.711 Y119.675 Z.6
G1 Z.6
G1 Z.4
G1 E1.2 F1800
M204 P2500
;TYPE:Internal solid infill
;WIDTH:0.474743
G1 F5208
G1 X98.995 Y119.418 E.01309
;WIDTH:0.523989
G2 X99.817 Y118.617 I-6.34 J-7.321 E.04363
;WIDTH:0.505997
G1 X99.977 Y118.434 E.00889
;WIDTH:0.471823
G1 X100.137 Y118.251 E.00824
;WIDTH:0.454736
G1 X100.297 Y118.068 E.00791
G1 X101.386 Y116.49 F9000
;WIDTH:0.426653
G1 F5208
G1 X97.286 Y120.59 E.17577
G1 X96.676 Y120.797 E.01952
G1 X96.5 Y120.834 E.00545
G1 X101.369 Y115.964 E.20874
G1 X101.488 Y115.302 E.02039
G1 X95.825 Y120.966 E.24278
G1 X95.229 Y121.019 E.01813
G1 X101.537 Y114.711 E.27041
G2 X101.541 Y114.164 I-2.293 J-.29 E.01661
G1 X94.69 Y121.015 E.29369
G3 X94.182 Y120.981 I-.111 J-2.152 E.01549
G1 X101.511 Y113.652 E.31419
G1 X101.431 Y113.189 E.01425
M73 P7 R5
G1 X93.709 Y120.911 E.33102
G3 X93.269 Y120.808 I.209 J-1.9 E.01374
G1 X101.337 Y112.74 E.34586
G1 X101.21 Y112.325 E.01318
G1 X92.843 Y120.692 E.35869
G3 X92.453 Y120.539 I.448 J-1.712 E.01272
G1 X101.065 Y111.926 E.36919
G1 X100.9 Y111.55 E.01248
G1 X92.068 Y120.381 E.37857
G1 X91.718 Y120.188 E.01211
G1 X100.714 Y111.192 E.38562
G1 X100.513 Y110.851 E.01201
G1 X91.371 Y119.993 E.39189
G1 X91.055 Y119.766 E.01179
G1 X100.292 Y110.529 E.39599
G1 X100.057 Y110.221 E.01174
G1 X90.74 Y119.538 E.39939
G1 X90.457 Y119.279 E.01164
G1 X99.805 Y109.931 E.40073
G1 X99.538 Y109.655 E.01163
G1 X90.174 Y119.019 E.40141
G1 X89.923 Y118.728 E.01166
G1 X99.255 Y109.396 E.40004
G1 X98.955 Y109.153 E.01169
G1 X89.671 Y118.436 E.39797
G3 X89.452 Y118.113 I1.246 J-1.084 E.01187
G1 X98.64 Y108.925 E.39389
G1 X98.308 Y108.715 E.01193
G1 X89.233 Y117.789 E.389
G3 X89.048 Y117.432 I1.407 J-.958 E.01223
G1 X97.959 Y108.521 E.382
G1 X97.591 Y108.346 E.01234
G1 X88.864 Y117.073 E.37413
G1 X88.717 Y116.678 E.0128
G1 X97.203 Y108.191 E.3638
G1 X96.798 Y108.054 E.01298
G1 X88.576 Y116.276 E.35246
G1 X88.47 Y115.839 E.01363
G1 X96.362 Y107.947 E.33832
G1 X95.914 Y107.852 E.01389
M73 P8 R5
G1 X88.383 Y115.383 E.32283
G1 X88.325 Y114.899 E.01479
G1 X95.417 Y107.807 E.304
G2 X94.893 Y107.788 I-.342 J2.188 E.01592
G1 X88.314 Y114.367 E.28201
G3 X88.342 Y113.796 I2.391 J-.168 E.01736
G1 X94.333 Y107.805 E.25679
G1 X93.695 Y107.901 E.01955
G1 X88.421 Y113.175 E.22609
G1 X88.596 Y112.457 E.0224
G1 X92.971 Y108.082 E.18753
G1 X92.807 Y108.127 E.00515
G1 X92.094 Y108.416 E.02331
G1 X88.957 Y111.553 E.13446
G1 X89.223 Y111.036 E.01761
G1 X89.678 Y110.366 E.02456
G1 X90.148 Y109.82 E.02185
G1 X91.321 Y108.647 E.05028
G1 X91.552 Y108.659 F9000
;TYPE:Gap infill
;WIDTH:0.0881694
G1 F3000
G1 X91.427 Y108.753 E.00056
; stop printing object Object_1 id:0 copy 0
;TIME_ELAPSED:31.709776

;LAYER_CHANGE
;Z:0.6
;HEIGHT:0.2
;BEFORE_LAYER_CHANGE
;0.6
G92 E0

G1 E-1.2 F2400
;WIPE_START
G1 F9000
G1 X91.552 Y108.659
;WIPE_END
;_SET_FAN_SPEED_CHANGING_LAYER
; printing object Object_1 id:0 copy 0
G1 X89.369 Y111.789 Z.6
G1 X88.092 Y113.619 Z.6
G1 E1.2 F1800
M204 P2000
;TYPE:Inner wall
;WIDTH:0.449999
G1 F5148
G1 X88.142 Y113.181 E.01418
G3 X88.805 Y111.259 I8.33 J1.799 E.06555
G1 X89.219 Y110.557 E.0262
G1 X89.714 Y109.909 E.02622
G1 X90.282 Y109.324 E.02622
G1 X90.916 Y108.811 E.02623
G1 X91.605 Y108.375 E.02623
G1 X92.342 Y108.024 E.02623
G1 X93.115 Y107.763 E.02623
G1 X93.913 Y107.595 E.02623
G1 X94.725 Y107.523 E.02623
G1 X95.541 Y107.547 E.02623
G1 X96.347 Y107.667 E.02623
G1 X97.134 Y107.883 E.02623
G1 X97.89 Y108.189 E.02623
G1 X98.604 Y108.583 E.02623
G1 X99.267 Y109.059 E.02623
G1 X99.869 Y109.609 E.02623
G1 X100.401 Y110.227 E.02623
G1 X100.857 Y110.904 E.02623
G1 X101.23 Y111.629 E.02623
G1 X101.514 Y112.394 E.02623
G1 X101.705 Y113.187 E.02623
G1 X101.802 Y113.997 E.02623
G1 X101.777 Y115.22 E.03935
G1 X101.633 Y116.025 E.02628
G1 X101.394 Y116.806 E.02628
G1 X101.065 Y117.554 E.02628
G1 X100.649 Y118.257 E.02628
G1 X100.153 Y118.907 E.02628
G1 X99.584 Y119.493 E.02628
G1 X98.95 Y120.008 E.02628
G1 X98.259 Y120.444 E.02628
G1 X97.521 Y120.796 E.02628
G1 X96.747 Y121.058 E.02628
G1 X95.947 Y121.226 E.02628
G1 X95.133 Y121.298 E.02628
G1 X94.317 Y121.274 E.02628
G1 X93.508 Y121.154 E.02628
G1 X92.72 Y120.938 E.02628
G1 X91.963 Y120.631 E.02628
G1 X91.247 Y120.237 E.02628
G1 X90.583 Y119.76 E.02628
G1 X89.98 Y119.209 E.02628
G1 X89.447 Y118.59 E.02628
G1 X88.99 Y117.912 E.02628
G1 X88.617 Y117.185 E.02628
G1 X88.333 Y116.419 E.02628
G3 X88.042 Y114.068 I7.371 J-2.105 E.07648
G1 X88.088 Y113.659 E.01322
G1 X87.652 Y114.023 F9000
M204 P1000
;TYPE:Outer wall
;WIDTH:0.419999
G1 F3600
G1 X87.755 Y113.113 E.02727
G1 X87.957 Y112.276 E.02566
G1 X88.258 Y111.466 E.02573
G1 X88.652 Y110.698 E.02573
G1 X89.135 Y109.981 E.02573
G1 X89.699 Y109.327 E.02573
G1 X90.336 Y108.744 E.02573
G1 X91.038 Y108.241 E.02573
G1 X91.794 Y107.824 E.02573
G1 X92.594 Y107.499 E.02573
G1 X93.427 Y107.271 E.02573
G1 X94.282 Y107.144 E.02573
G1 X95.145 Y107.118 E.02573
G1 X96.005 Y107.195 E.02573
G1 X96.85 Y107.373 E.02573
G1 X97.669 Y107.649 E.02573
G1 X98.448 Y108.021 E.02573
G1 X99.179 Y108.482 E.02573
G1 X99.849 Y109.026 E.02573
G1 X100.451 Y109.646 E.02573
G1 X100.975 Y110.332 E.02573
G1 X101.414 Y111.076 E.02573
G1 X101.762 Y111.866 E.02573
G1 X102.015 Y112.692 E.02573
G1 X102.167 Y113.542 E.02573
G1 X102.219 Y114.405 E.02573
G1 X102.167 Y115.267 E.02573
G1 X102.015 Y116.117 E.02573
G1 X101.762 Y116.943 E.02573
G1 X101.414 Y117.733 E.02573
G1 X100.975 Y118.477 E.02573
G1 X100.451 Y119.163 E.02573
G1 X99.849 Y119.783 E.02573
G1 X99.179 Y120.327 E.02573
G1 X98.448 Y120.788 E.02573
G1 X97.669 Y121.16 E.02573
G1 X96.85 Y121.436 E.02573
G1 X96.005 Y121.614 E.02573
G1 X95.145 Y121.691 E.02573
G1 X94.282 Y121.665 E.02573
G1 X93.427 Y121.538 E.02573
G1 X92.594 Y121.31 E.02573
G1 X91.794 Y120.986 E.02573
G1 X91.038 Y120.569 E.02573
G1 X90.336 Y120.065 E.02573
G1 X89.699 Y119.482 E.02573
G1 X89.135 Y118.828 E.02573
G1 X88.652 Y118.112 E.02573
G1 X88.258 Y117.343 E.02573
G1 X87.957 Y116.534 E.02573
G1 X87.756 Y115.703 E.02545
G1 X87.657 Y114.894 E.02427
G1 X87.65 Y114.063 E.02477
G1 E-1.2 F2400
;WIPE_START
G1 F9000
G1 X87.755 Y113.113
G1 X87.957 Y112.276
G1 X88.021 Y112.104
;WIPE_END
G1 X98.711 Y109.134 Z.8
G1 Z.8
G1 Z.6
G1 E1.2 F1800
M204 P2500
;TYPE:Internal solid infill
;WIDTH:0.474741
G1 F5148
