;TIME:263.92
;Filament used:0.14887m
;Layer height:0.200
; HEADER_BLOCK_START
; generated by Creality_Print V6.2.2.3134 on 2025-08-30 at 02:16:02
; total layer number: 50
; filament_density: 1.24
; filament_diameter: 1.75
; max_z_height: 10.00
; creality_uuid: 8ec0089c-8ddc-4f8d-af2d-1a95c1412297
; HEADER_BLOCK_END

; MINX = 100.27
; MINY = 119.45
; MINZ = 0.00
; MAXX = 108.27
; MAXY = 127.45
; MAXZ = 10.00

; THUMBNAIL_BLOCK_START

;
; THUMBNAIL_BLOCK_END

; THUMBNAIL_BLOCK_START

;
; THUMBNAIL_BLOCK_END

; external perimeters extrusion width = 0.42mm
; perimeters extrusion width = 0.45mm
; infill extrusion width = 0.45mm
; solid infill extrusion width = 0.42mm
; top infill extrusion width = 0.42mm
; first layer extrusion width = 0.50mm

; EXECUTABLE_BLOCK_START
M73 P0 R4
M201 X5000 Y5000 Z500 E5000
M203 X500 Y500 Z30 E100
M204 P5000 R2500 T5000 ; sets acceleration (P, T) and retract acceleration (R), mm/sec^2
M205 X10.00 Y10.00 Z0.40 E5.00 ; sets the jerk limits, mm/sec
;TYPE:Custom
M220 S100 ;Reset Feedrate 
M221 S100 ;Reset Flowrate 
 
M140 S50 ;Set final bed temp 
G28 ;Home 
 
G92 E0 ;Reset Extruder 
G1 Z2.0 F3000 ;Move Z Axis up 
M104 S190 ;Set final nozzle temp 
G1 X-2.1 Y20 Z0.28 F5000.0 ;Move to start position 
M190 S50 ;Wait for bed temp to stabilize 
M109 S190 ;Wait for nozzle temp to stabilize 
G1 X-2.1 Y145.0 Z0.28 F1500.0 E15 ;Draw the first line 
G1 X-2.4 Y145.0 Z0.28 F5000.0 ;Move to side a little 
M73 P2 R4
G1 X-2.4 Y20 Z0.28 F1500.0 E30 ;Draw the second line 
G92 E0  ;Reset Extruder 
G1 E-1.0000 F1800 ;Retract a bit 
M73 P3 R4
G1 Z2.0 F3000 ;Move Z Axis up 
G1 E0.0000 F1800
G90
G21
M83 ; use relative distances for extrusion
;filament start gcode
G1 E-1.2 F2400
M106 S0
;LAYER_CHANGE
;Z:0.2
;HEIGHT:0.2
;BEFORE_LAYER_CHANGE
;0.2
G92 E0

;_SET_FAN_SPEED_CHANGING_LAYER
M204 P500
M205 X10 Y10
; printing object Object_2 id:25 copy 0
M204 T500
M73 P4 R4
G1 X106.273 Y125.851 Z.2 F9000
G1 E1.2 F1800
;TYPE:Inner wall
;WIDTH:0.499999
G1 F1358
G1 X105.838 Y126.17 E.01948
G1 X105.275 Y126.418 E.02221
G1 X104.677 Y126.564 E.02221
G1 X104.062 Y126.577 E.02222
G1 X103.454 Y126.484 E.02219
G1 X102.881 Y126.261 E.0222
G1 X102.355 Y125.942 E.02222
G1 X101.91 Y125.516 E.02222
G1 X101.547 Y125.02 E.02219
G1 X101.299 Y124.458 E.02219
G1 X101.152 Y123.847 E.02268
G1 X101.139 Y123.247 E.02168
G1 X101.235 Y122.629 E.02257
G1 X101.456 Y122.063 E.02194
G1 X101.775 Y121.538 E.0222
G1 X102.201 Y121.093 E.02222
G1 X102.697 Y120.73 E.0222
G1 X103.26 Y120.482 E.0222
G1 X103.857 Y120.336 E.02222
G1 X104.471 Y120.322 E.02216
G1 X105.081 Y120.416 E.02228
G1 X105.654 Y120.639 E.02221
G1 X106.179 Y120.958 E.02219
G1 X106.624 Y121.383 E.02222
G1 X106.987 Y121.879 E.0222
G1 X107.235 Y122.442 E.0222
G1 X107.381 Y123.04 E.02222
G1 X107.395 Y123.655 E.02222
G1 X107.301 Y124.263 E.0222
G1 X107.078 Y124.836 E.02221
G1 X106.759 Y125.362 E.02221
G1 X106.334 Y125.806 E.02221
G1 X106.305 Y125.827 E.00129
G1 X106.956 Y125.815 F9000
;TYPE:Outer wall
G1 F1358
G1 X106.635 Y126.15 E.01676
G1 X106.067 Y126.567 E.02545
G1 X105.421 Y126.851 E.02545
G1 X104.737 Y127.018 E.02544
G1 X104.032 Y127.034 E.02546
G1 X103.336 Y126.926 E.02543
G1 X102.68 Y126.671 E.02542
G1 X102.076 Y126.305 E.02548
G1 X101.567 Y125.817 E.02546
G1 X101.15 Y125.249 E.02543
G1 X100.867 Y124.605 E.02543
M73 P5 R4
G1 X100.698 Y123.906 E.02595
G1 X100.683 Y123.217 E.02488
G1 X100.793 Y122.51 E.02582
G1 X101.046 Y121.861 E.02516
G1 X101.412 Y121.259 E.02544
G1 X101.899 Y120.749 E.02546
G1 X102.468 Y120.333 E.02543
G1 X103.112 Y120.05 E.02542
G1 X103.797 Y119.881 E.02548
G1 X104.501 Y119.866 E.0254
G1 X105.199 Y119.973 E.02551
G1 X105.856 Y120.229 E.02546
G1 X106.458 Y120.594 E.02543
G1 X106.968 Y121.082 E.02546
G1 X107.384 Y121.65 E.02543
G1 X107.667 Y122.295 E.02542
G1 X107.836 Y122.98 E.02548
G1 X107.851 Y123.685 E.02546
G1 X107.744 Y124.381 E.02544
G1 X107.488 Y125.038 E.02545
G1 X107.123 Y125.641 E.02545
G1 X106.984 Y125.786 E.00724
G1 E-1.2 F2400
;WIPE_START
G1 F9000
G1 X106.635 Y126.15
G1 X106.067 Y126.567
G1 X105.421 Y126.851
G1 X105.338 Y126.871
;WIPE_END
G1 X105.469 Y120.7 Z.4
G1 Z.4
G1 Z.2
G1 E1.2 F1800
;TYPE:Bottom surface
;WIDTH:0.508546
G1 F1358
G1 X106.284 Y121.516 E.0424
G3 X107.003 Y122.893 I-2.048 J1.945 E.05788
G1 X104.825 Y120.715 E.1133
G2 X104.114 Y120.662 I-.559 J2.728 E.02629
G1 X107.055 Y123.603 E.15298
G3 X106.969 Y124.176 I-4.023 J-.311 E.02131
G1 X103.541 Y120.748 E.17829
G2 X103.065 Y120.93 I.46 J1.919 E.01881
G1 X106.787 Y124.652 E.19361
G3 X106.543 Y125.068 I-1.699 J-.716 E.01775
G1 X102.649 Y121.173 E.20256
G2 X102.289 Y121.472 I2.99 J3.98 E.01721
G1 X106.245 Y125.428 E.20579
G3 X105.885 Y125.726 I-1.313 J-1.219 E.01725
M73 P6 R4
G1 X101.991 Y121.832 E.20256
G2 X101.748 Y122.247 I1.454 J1.13 E.01775
G1 X105.47 Y125.969 E.1936
G3 X104.993 Y126.151 I-.929 J-1.718 E.01881
G1 X101.566 Y122.724 E.17827
G2 X101.479 Y123.296 I2.114 J.613 E.02134
G1 X104.421 Y126.237 E.15299
G3 X103.71 Y126.185 I-.152 J-2.799 E.02628
G1 X101.533 Y124.008 E.11326
G2 X102.251 Y125.385 I2.76 J-.564 E.05789
G1 X103.064 Y126.198 E.04228
; stop printing object Object_2 id:25 copy 0
;TIME_ELAPSED:17.407438

M106 S255
;LAYER_CHANGE
;Z:0.4
;HEIGHT:0.2
;BEFORE_LAYER_CHANGE
;0.4
G92 E0

G1 E-1.2 F2400
;WIPE_START
G1 F9000
G1 X102.251 Y125.385
G1 X102.048 Y125.153
G1 X101.844 Y124.849
G1 X101.767 Y124.691
;WIPE_END
;_SET_FAN_SPEED_CHANGING_LAYER
M204 P2500
; printing object Object_2 id:25 copy 0
M204 T2500
G1 X105.442 Y125.717 Z.4
G1 X106.487 Y126.009 Z.4
G1 E1.2 F1800
M204 P2000
;TYPE:Inner wall
;WIDTH:0.449999
G1 F1422
G1 X105.965 Y126.391 E.02078
G1 X105.356 Y126.659 E.02139
G1 X104.71 Y126.817 E.02139
G1 X104.045 Y126.832 E.02139
G1 X103.388 Y126.731 E.02138
G1 X102.768 Y126.489 E.0214
G1 X102.199 Y126.145 E.02138
G1 X101.718 Y125.684 E.02143
G1 X101.326 Y125.148 E.02135
G1 X101.058 Y124.54 E.02136
G1 X100.896 Y123.855 E.02264
G1 X100.884 Y123.234 E.01996
G1 X100.993 Y122.548 E.02235
G1 X101.228 Y121.95 E.02066
G1 X101.572 Y121.382 E.02136
G1 X102.033 Y120.901 E.02143
G1 X102.569 Y120.508 E.02135
G1 X103.177 Y120.242 E.02134
G1 X103.824 Y120.082 E.02143
G1 X104.485 Y120.067 E.02126
G1 X105.147 Y120.169 E.02156
G1 X105.767 Y120.411 E.02139
G1 X106.335 Y120.755 E.02135
G1 X106.816 Y121.215 E.0214
G1 X107.209 Y121.751 E.02138
G1 X107.477 Y122.36 E.02139
G1 X107.635 Y123.006 E.02139
G1 X107.649 Y123.672 E.02139
M73 P7 R4
G1 X107.548 Y124.329 E.02139
G1 X107.307 Y124.949 E.02139
G1 X106.962 Y125.518 E.02139
G1 X106.517 Y125.983 E.02071
G1 X107.082 Y125.957 F9000
M204 P1000
;TYPE:Outer wall
;WIDTH:0.419999
G1 F1422
G1 X106.76 Y126.293 E.01386
G1 X106.162 Y126.732 E.0221
G1 X105.483 Y127.031 E.02211
G1 X104.762 Y127.207 E.0221
G1 X104.02 Y127.223 E.02211
G1 X103.286 Y127.11 E.0221
G1 X102.594 Y126.841 E.02212
G1 X101.96 Y126.456 E.02209
G1 X101.423 Y125.942 E.02214
G1 X100.985 Y125.345 E.02207
G1 X100.687 Y124.666 E.0221
G3 X101.124 Y121.348 I3.615 J-1.211 E.10319
G1 X101.588 Y120.77 E.02207
G1 X102.17 Y120.303 E.02223
G1 X102.803 Y119.955 E.02153
G1 X103.287 Y119.789 E.01523
G1 X104.024 Y119.676 E.02222
G1 X104.747 Y119.692 E.02153
G1 X105.248 Y119.79 E.01523
G1 X105.941 Y120.059 E.02213
G1 X106.574 Y120.443 E.02207
G1 X107.11 Y120.957 E.02211
G1 X107.549 Y121.555 E.0221
G1 X107.848 Y122.234 E.02211
G1 X108.024 Y122.955 E.0221
G1 X108.04 Y123.697 E.02211
G1 X107.928 Y124.431 E.0221
G1 X107.659 Y125.122 E.02211
G1 X107.274 Y125.757 E.0221
G1 X107.11 Y125.928 E.00705
G1 E-1.2 F2400
;WIPE_START
G1 F9000
G1 X106.76 Y126.293
G1 X106.162 Y126.732
G1 X105.483 Y127.031
G1 X105.473 Y127.033
;WIPE_END
G1 X107.21 Y124.92 Z.6
G1 Z.6
G1 Z.4
G1 E1.2 F1800
M204 P2500
;TYPE:Internal solid infill
;WIDTH:0.432924
G1 F1422
G1 X106.407 Y125.722 E.03495
G3 X105.125 Y126.453 I-2.067 J-2.136 E.04596
G1 X107.27 Y124.308 E.09347
G2 X107.38 Y123.646 I-3.494 J-.922 E.0207
G1 X104.463 Y126.563 E.1271
G3 X103.921 Y126.553 I-.234 J-2.062 E.01674
G1 X107.371 Y123.104 E.15028
G2 X107.286 Y122.637 I-7.169 J1.064 E.01461
G1 X103.455 Y126.468 E.1669
G1 X103.046 Y126.326 E.01334
G1 X107.143 Y122.229 E.1785
G2 X106.958 Y121.862 I-1.484 J.52 E.01268
M73 P8 R4
G1 X102.679 Y126.141 E.18641
G3 X102.35 Y125.918 I.681 J-1.36 E.01227
G1 X106.735 Y121.533 E.19104
G1 X106.478 Y121.239 E.01204
G1 X102.057 Y125.66 E.19261
G1 X101.799 Y125.366 E.01204
G1 X106.184 Y120.982 E.19104
G2 X105.855 Y120.759 I-5.833 J8.265 E.01224
G1 X101.576 Y125.037 E.18641
G3 X101.391 Y124.671 I1.295 J-.883 E.01269
G1 X105.488 Y120.574 E.1785
G1 X105.079 Y120.431 E.01334
G1 X101.249 Y124.262 E.16688
G1 X101.163 Y123.796 E.01459
G1 X104.613 Y120.346 E.15029
G1 X104.467 Y120.337 E.0045
G2 X104.071 Y120.337 I-.199 J1.504 E.01224
G1 X101.153 Y123.254 E.12713
G3 X101.263 Y122.593 I4.377 J.387 E.02068
G1 X103.409 Y120.447 E.09348
G2 X102.126 Y121.179 I.797 J2.889 E.04596
G1 X101.325 Y121.979 E.03489
; stop printing object Object_2 id:25 copy 0
;TIME_ELAPSED:23.756615

;LAYER_CHANGE
;Z:0.6
;HEIGHT:0.2
;BEFORE_LAYER_CHANGE
;0.6
G92 E0

G1 E-1.2 F2400
;WIPE_START
M73 P9 R4
G1 F9000
G1 X102.126 Y121.179
G1 X102.364 Y120.97
G1 X102.704 Y120.743
G1 X102.831 Y120.68
;WIPE_END
;_SET_FAN_SPEED_CHANGING_LAYER
; printing object Object_2 id:25 copy 0
G1 X104.98 Y123.834 Z.6
G1 X106.471 Y126.021 Z.6
G1 E1.2 F1800
M204 P2000
;TYPE:Inner wall
;WIDTH:0.449999
G1 F1431
G1 X105.965 Y126.391 E.02014
G1 X105.356 Y126.659 E.02139
G1 X104.71 Y126.817 E.02139
G1 X104.045 Y126.832 E.0214
G1 X103.388 Y126.731 E.02138
G1 X102.768 Y126.489 E.02141
G1 X102.199 Y126.145 E.02137
G1 X101.717 Y125.683 E.02147
G1 X101.326 Y125.148 E.0213
G1 X101.044 Y124.491 E.023
G1 X100.897 Y123.869 E.02055
G1 X100.887 Y123.209 E.02122
G1 X100.997 Y122.534 E.022
G1 X101.227 Y121.951 E.02015
G1 X101.572 Y121.382 E.0214
M73 P9 R3
G1 X102.033 Y120.901 E.0214
G1 X102.569 Y120.508 E.02138
G1 X103.178 Y120.24 E.0214
G1 X103.824 Y120.082 E.02138
G1 X104.489 Y120.068 E.02139
G1 X105.146 Y120.169 E.02139
G1 X105.766 Y120.41 E.02139
G1 X106.335 Y120.755 E.02139
G1 X106.815 Y121.215 E.02139
G1 X107.209 Y121.751 E.02139
G1 X107.477 Y122.36 E.02139
G1 X107.635 Y123.006 E.02139
G1 X107.649 Y123.672 E.02139
G1 X107.548 Y124.329 E.02139
G1 X107.307 Y124.949 E.02139
G1 X106.962 Y125.518 E.02139
G1 X106.503 Y125.997 E.02135
G1 X107.065 Y125.986 F9000
M204 P1000
;TYPE:Outer wall
;WIDTH:0.419999
G1 F1431
G1 X106.574 Y126.456 E.02024
G1 X105.94 Y126.841 E.02211
G1 X105.248 Y127.11 E.0221
G1 X104.514 Y127.223 E.02211
G1 X103.773 Y127.207 E.0221
G1 X103.051 Y127.03 E.02212
G1 X102.372 Y126.732 E.02209
G1 X101.773 Y126.292 E.02214
G1 X101.261 Y125.757 E.02207
G1 X100.878 Y125.126 E.02197
G3 X100.478 Y123.428 I3.921 J-1.82 E.05232
G3 X100.876 Y121.778 I4.014 J.094 E.05094
G1 X101.261 Y121.143 E.02213
G1 X101.774 Y120.607 E.02212
G1 X102.372 Y120.168 E.0221
G1 X103.052 Y119.869 E.02211
G1 X103.773 Y119.693 E.0221
G1 X104.515 Y119.676 E.02211
G1 X105.248 Y119.789 E.0221
G1 X105.94 Y120.058 E.02211
G1 X106.574 Y120.443 E.0221
G1 X107.11 Y120.957 E.02211
G1 X107.549 Y121.555 E.0221
G1 X107.848 Y122.234 E.02211
G1 X108.024 Y122.955 E.0221
G1 X108.024 Y123.944 E.02947
G1 X107.848 Y124.665 E.02211
G1 X107.549 Y125.345 E.0221
G1 X107.11 Y125.943 E.02211
G1 X107.094 Y125.959 E.00067
G1 E-1.2 F2400
;WIPE_START
G1 F9000
G1 X106.574 Y126.456
G1 X105.94 Y126.841
G1 X105.438 Y127.036
;WIPE_END
G1 X105.737 Y120.507 Z.8
G1 Z.8
G1 Z.6
G1 E1.2 F1800
M204 P2500
;TYPE:Internal solid infill
;WIDTH:0.432924
G1 F1431
G1 X106.539 Y121.31 E.03495
G3 X107.27 Y122.592 I-2.136 J2.067 E.04596
G1 X105.125 Y120.447 E.09347
G2 X104.463 Y120.337 I-.876 J3.217 E.0207
M73 P10 R3
G1 X107.38 Y123.254 E.1271
G3 X107.371 Y123.796 I-2.062 J.234 E.01674
G1 X103.921 Y120.346 E.15028
G2 X103.455 Y120.431 I1.064 J7.169 E.01461
G1 X107.286 Y124.262 E.1669
G1 X107.143 Y124.671 E.01334
G1 X103.046 Y120.574 E.1785
G2 X102.679 Y120.759 I.52 J1.485 E.01268
G1 X106.958 Y125.038 E.18641
G3 X106.735 Y125.366 I-1.361 J-.681 E.01227
G1 X102.35 Y120.982 E.19104
G1 X102.057 Y121.239 E.01204
G1 X106.478 Y125.66 E.19261
G1 X106.184 Y125.918 E.01204
G1 X101.799 Y121.533 E.19104
G2 X101.576 Y121.862 I1.138 J1.01 E.01227
G1 X105.855 Y126.141 E.18641
G3 X105.488 Y126.326 I-.886 J-1.299 E.01268
G1 X101.392 Y122.229 E.17849
G2 X101.251 Y122.64 I5.035 J1.952 E.01338
M73 P11 R3
G1 X105.076 Y126.469 E.16675
G3 X104.613 Y126.553 I-.55 J-1.718 E.01455
G1 X101.165 Y123.105 E.15022
G2 X101.154 Y123.646 I2.04 J.312 E.01671
G1 X104.071 Y126.563 E.12709
G3 X103.409 Y126.453 I.26 J-3.602 E.0207
G1 X101.269 Y124.313 E.09324
G2 X101.996 Y125.591 I2.785 J-.738 E.0458
G1 X102.797 Y126.392 E.0349
; stop printing object Object_2 id:25 copy 0
;TIME_ELAPSED:30.075602

;LAYER_CHANGE
;Z:0.8
;HEIGHT:0.2
;BEFORE_LAYER_CHANGE
;0.8
G92 E0

G1 E-1.2 F2400
;WIPE_START
G1 F9000
G1 X101.996 Y125.591
G1 X101.787 Y125.353
G1 X101.56 Y125.013
G1 X101.497 Y124.886
;WIPE_END
;_SET_FAN_SPEED_CHANGING_LAYER
; printing object Object_2 id:25 copy 0
G1 X105.216 Y125.744 Z.8
G1 X106.455 Y126.029 Z.8
G1 E1.2 F1800
M204 P2000
;TYPE:Inner wall
;WIDTH:0.449999
G1 F1423
G1 X106.335 Y126.145 E.00535
G1 X105.766 Y126.49 E.0214
G1 X105.146 Y126.731 E.02138
G1 X104.489 Y126.832 E.0214
G1 X103.824 Y126.817 E.02138
G1 X103.177 Y126.659 E.02141
G1 X102.569 Y126.391 E.02137
G1 X102.031 Y125.997 E.02145
G1 X101.572 Y125.518 E.02133
G1 X101.23 Y124.954 E.02119
G1 X101.038 Y124.472 E.01671
G1 X100.896 Y123.859 E.02022
G1 X100.888 Y123.201 E.02117
G1 X101.002 Y122.52 E.02222
G1 X101.227 Y121.951 E.01966
G1 X101.572 Y121.382 E.02141
G1 X102.033 Y120.901 E.0214
G1 X102.569 Y120.508 E.02137
G1 X103.178 Y120.24 E.0214
G1 X103.824 Y120.082 E.02138
G1 X104.489 Y120.068 E.02139
G1 X105.146 Y120.169 E.02139
G1 X105.766 Y120.41 E.02139
G1 X106.335 Y120.755 E.02139
G1 X106.815 Y121.215 E.02139
G1 X107.209 Y121.751 E.02139
G1 X107.477 Y122.36 E.02139
G1 X107.635 Y123.006 E.02139
G1 X107.635 Y123.893 E.02851
G1 X107.477 Y124.539 E.02139
G1 X107.209 Y125.148 E.02139
G1 X106.815 Y125.685 E.02139
G1 X106.484 Y126.002 E.01475
G1 X107.05 Y126 F9000
M204 P1000
;TYPE:Outer wall
;WIDTH:0.419999
G1 F1423
G1 X106.574 Y126.456 E.01963
G1 X105.939 Y126.841 E.02211
G1 X105.248 Y127.11 E.0221
G1 X104.514 Y127.223 E.02211
G1 X103.773 Y127.207 E.0221
G1 X103.051 Y127.03 E.02212
G1 X102.372 Y126.732 E.02209
G1 X101.773 Y126.292 E.02216
G1 X101.261 Y125.757 E.02205
G1 X100.879 Y125.127 E.02193
G3 X100.478 Y123.419 I3.93 J-1.822 E.05262
G3 X100.876 Y121.778 I4.028 J.107 E.05067
G1 X101.261 Y121.143 E.02214
M73 P12 R3
G1 X101.774 Y120.606 E.02212
G1 X102.372 Y120.168 E.02209
G1 X103.052 Y119.869 E.02211
G1 X103.773 Y119.693 E.0221
G1 X104.515 Y119.676 E.02211
G1 X105.248 Y119.789 E.0221
G1 X105.94 Y120.058 E.02211
G1 X106.574 Y120.443 E.0221
G1 X107.11 Y120.957 E.02211
G1 X107.549 Y121.555 E.0221
G1 X107.848 Y122.234 E.02211
G1 X108.024 Y122.955 E.0221
G1 X108.024 Y123.944 E.02947
G1 X107.848 Y124.665 E.02211
G1 X107.549 Y125.345 E.0221
G1 X107.11 Y125.943 E.02211
G1 X107.079 Y125.973 E.00128
G1 E-1.2 F2400
;WIPE_START
G1 F9000
G1 X106.574 Y126.456
G1 X105.939 Y126.841
G1 X105.419 Y127.044
;WIPE_END
G1 X107.21 Y124.92 Z1
G1 Z1
G1 Z.8
G1 E1.2 F1800
M204 P2500
;TYPE:Internal solid infill
;WIDTH:0.432925
G1 F1423
G1 X106.407 Y125.722 E.03495
G3 X105.125 Y126.453 I-2.067 J-2.136 E.04596
G1 X107.27 Y124.308 E.09347
G2 X107.38 Y123.646 I-3.494 J-.922 E.0207
G1 X104.463 Y126.563 E.1271
G3 X103.921 Y126.553 I-.234 J-2.062 E.01674
G1 X107.371 Y123.104 E.15028
G2 X107.286 Y122.637 I-7.168 J1.064 E.01461
G1 X103.455 Y126.468 E.1669
G1 X103.046 Y126.326 E.01334
G1 X107.143 Y122.229 E.1785
G2 X106.958 Y121.862 I-1.485 J.52 E.01268
G1 X102.679 Y126.141 E.18641
G3 X102.35 Y125.918 I.681 J-1.36 E.01227
G1 X106.735 Y121.533 E.19104
G1 X106.478 Y121.239 E.01204
G1 X102.057 Y125.66 E.19261
M73 P13 R3
G1 X101.799 Y125.366 E.01204
G1 X106.184 Y120.982 E.19104
G2 X105.855 Y120.759 I-5.853 J8.295 E.01224
G1 X101.576 Y125.037 E.18641
G3 X101.392 Y124.671 I1.29 J-.879 E.01269
G1 X105.488 Y120.574 E.17849
G1 X105.079 Y120.431 E.01334
G1 X101.253 Y124.258 E.16673
