;TIME:1016.16
;Filament used:1.42988m
;Layer height:0.200
; HEADER_BLOCK_START
; generated by Creality_Print V6.2.2.3134 on 2025-08-30 at 18:18:06
; total layer number: 50
; filament_density: 1.24
; filament_diameter: 1.75
; max_z_height: 10.00
; creality_uuid: b9e47822-ce20-43e4-9732-a169311d4ecc
; HEADER_BLOCK_END

; MINX = 89.72
; MINY = 89.96
; MINZ = 0.00
; MAXX = 130.28
; MAXY = 130.04
; MAXZ = 10.00

; THUMBNAIL_BLOCK_START

;
; THUMBNAIL_BLOCK_END

; THUMBNAIL_BLOCK_START

;
; THUMBNAIL_BLOCK_END

; external perimeters extrusion width = 0.42mm
; perimeters extrusion width = 0.45mm
; infill extrusion width = 0.45mm
; solid infill extrusion width = 0.42mm
; top infill extrusion width = 0.42mm
; first layer extrusion width = 0.50mm

; external perimeters extrusion width = 0.42mm
; perimeters extrusion width = 0.45mm
; infill extrusion width = 0.45mm
; solid infill extrusion width = 0.42mm
; top infill extrusion width = 0.42mm
; first layer extrusion width = 0.50mm

; EXECUTABLE_BLOCK_START
M73 P0 R16
M201 X5000 Y5000 Z500 E5000
M203 X500 Y500 Z30 E100
M204 P5000 R2500 T5000 ; sets acceleration (P, T) and retract acceleration (R), mm/sec^2
M205 X10.00 Y10.00 Z0.40 E5.00 ; sets the jerk limits, mm/sec
;TYPE:Custom
M220 S100 ;Reset Feedrate 
M221 S100 ;Reset Flowrate 
 
M140 S50 ;Set final bed temp 
G28 ;Home 
 
G92 E0 ;Reset Extruder 
G1 Z2.0 F3000 ;Move Z Axis up 
M104 S190 ;Set final nozzle temp 
G1 X-2.1 Y20 Z0.28 F5000.0 ;Move to start position 
M190 S50 ;Wait for bed temp to stabilize 
M109 S190 ;Wait for nozzle temp to stabilize 
G1 X-2.1 Y145.0 Z0.28 F1500.0 E15 ;Draw the first line 
G1 X-2.4 Y145.0 Z0.28 F5000.0 ;Move to side a little 
G1 X-2.4 Y20 Z0.28 F1500.0 E30 ;Draw the second line 
G92 E0  ;Reset Extruder 
G1 E-1.0000 F1800 ;Retract a bit 
M73 P1 R16
G1 Z2.0 F3000 ;Move Z Axis up 
G1 E0.0000 F1800
G90
G21
M83 ; use relative distances for extrusion
;filament start gcode
G1 E-1.2 F2400
M106 S0
;LAYER_CHANGE
;Z:0.2
;HEIGHT:0.2
;BEFORE_LAYER_CHANGE
;0.2
G92 E0

;_SET_FAN_SPEED_CHANGING_LAYER
M204 P500
M205 X10 Y10
; printing object Object_1 id:19 copy 0
M204 T500
G1 X114.286 Y100.319 Z.2 F9000
G1 E1.2 F1800
;TYPE:Inner wall
;WIDTH:0.499999
G1 X115.365 Y100.288 E.03898
G1 X116.949 Y100.42 E.05738
G1 X118.513 Y100.725 E.05754
G1 X120.033 Y101.2 E.05749
G1 X121.491 Y101.84 E.05749
G1 X122.87 Y102.636 E.05749
G1 X124.153 Y103.579 E.05749
G1 X125.324 Y104.657 E.05749
G1 X126.37 Y105.858 E.05749
G1 X127.277 Y107.167 E.05749
G1 X128.035 Y108.567 E.05749
G1 X128.634 Y110.042 E.05749
G1 X129.067 Y111.574 E.05749
G1 X129.33 Y113.145 E.05749
G3 X129.408 Y114.899 I-25.655 J2.028 E.06343
G1 X129.33 Y116.324 E.05152
G1 X129.067 Y117.895 E.05749
G1 X128.634 Y119.427 E.05749
G1 X128.035 Y120.902 E.05749
G1 X127.277 Y122.302 E.05749
G1 X126.37 Y123.611 E.05749
G1 X125.324 Y124.812 E.05749
G1 X124.153 Y125.89 E.05749
G1 X122.87 Y126.833 E.05749
G1 X121.491 Y127.629 E.05749
G1 X120.033 Y128.269 E.05749
G1 X118.513 Y128.744 E.05749
G1 X116.949 Y129.049 E.05754
G1 X115.365 Y129.181 E.05739
G1 X113.788 Y129.138 E.05694
G1 X112.193 Y128.918 E.05815
G1 X110.652 Y128.527 E.05741
G1 X109.16 Y127.969 E.05749
G1 X107.74 Y127.25 E.05749
G1 X106.407 Y126.379 E.05749
G1 X105.178 Y125.367 E.05749
G1 X104.068 Y124.226 E.05747
G1 X103.081 Y122.955 E.05809
G1 X102.256 Y121.613 E.0569
G1 X101.576 Y120.173 E.05749
G1 X101.059 Y118.667 E.05749
G1 X100.711 Y117.113 E.05749
G1 X100.536 Y115.531 E.05749
G1 X100.536 Y113.938 E.05749
G1 X100.711 Y112.356 E.05749
G1 X101.059 Y110.803 E.05747
G1 X101.583 Y109.281 E.05809
G1 X102.256 Y107.856 E.0569
G1 X103.09 Y106.5 E.05749
G1 X104.068 Y105.243 E.05749
G1 X105.178 Y104.102 E.05749
G1 X106.407 Y103.09 E.05749
G1 X107.74 Y102.219 E.05749
G1 X109.16 Y101.5 E.05749
G1 X110.652 Y100.942 E.05749
G1 X112.195 Y100.551 E.0575
G1 X113.758 Y100.334 E.05695
G1 X114.246 Y100.32 E.01765
G1 X113.774 Y99.876 F9000
;TYPE:Outer wall
G1 F1800
G1 X115.378 Y99.831 E.05794
G1 X117.012 Y99.966 E.0592
G1 X118.626 Y100.281 E.05936
G1 X120.193 Y100.772 E.05931
G1 X121.698 Y101.432 E.05931
G1 X123.12 Y102.253 E.05931
G1 X124.444 Y103.226 E.05931
G1 X125.652 Y104.338 E.05931
G1 X126.731 Y105.577 E.05931
G1 X127.667 Y106.927 E.05931
G1 X128.449 Y108.372 E.05931
G1 X129.067 Y109.893 E.05931
G1 X129.514 Y111.474 E.05931
G1 X129.785 Y113.094 E.05931
G3 X129.865 Y114.925 I-25.409 J2.027 E.06616
G1 X129.785 Y116.375 E.05244
G1 X129.514 Y117.995 E.05931
G1 X129.067 Y119.576 E.05931
G1 X128.449 Y121.098 E.05931
G1 X127.667 Y122.542 E.05931
G1 X126.731 Y123.892 E.05931
G1 X125.652 Y125.131 E.05931
G1 X124.444 Y126.243 E.05931
G1 X123.12 Y127.216 E.05931
G1 X121.698 Y128.038 E.05931
G1 X120.193 Y128.697 E.05931
G1 X118.626 Y129.188 E.05931
G1 X117.012 Y129.503 E.05936
G1 X115.378 Y129.638 E.05921
G1 X113.751 Y129.594 E.05876
G1 X112.105 Y129.367 E.05997
G1 X110.515 Y128.964 E.05924
G1 X108.977 Y128.388 E.05931
G1 X107.511 Y127.646 E.05931
G1 X106.136 Y126.748 E.05931
G1 X104.868 Y125.704 E.05931
G1 X103.722 Y124.526 E.0593
G1 X102.705 Y123.216 E.05991
G1 X101.853 Y121.831 E.05871
G1 X101.152 Y120.345 E.05931
G1 X100.619 Y118.791 E.05931
G1 X100.26 Y117.189 E.05931
G1 X100.079 Y115.556 E.05931
G1 X100.079 Y113.913 E.05931
G1 X100.26 Y112.281 E.05931
G1 X100.619 Y110.678 E.0593
G1 X101.159 Y109.109 E.05991
G1 X101.853 Y107.638 E.05871
G1 X102.713 Y106.239 E.05931
G1 X103.722 Y104.943 E.05931
G1 X104.868 Y103.765 E.05931
G1 X106.136 Y102.721 E.05931
G1 X107.511 Y101.823 E.05931
G1 X108.977 Y101.081 E.05931
G1 X110.515 Y100.505 E.05931
G1 X112.108 Y100.102 E.05932
G1 X113.72 Y99.878 E.05877
G1 X113.734 Y99.877 E.00051
G1 E-1.2 F2400
;WIPE_START
G1 F9000
G1 X115.378 Y99.831
G1 X115.732 Y99.86
;WIPE_END
G1 X117.643 Y103.163 Z.4
G1 X123.128 Y112.641 Z.4
G1 Z.2
G1 E1.2 F1800
;TYPE:Inner wall
G1 X123.325 Y113.465 E.03061
G1 X123.421 Y114.681 E.04403
G3 X123.309 Y116.11 I-22.655 J-1.064 E.05179
G1 X123.011 Y117.349 E.04598
G1 X122.546 Y118.472 E.04389
G3 X121.81 Y119.707 I-32.251 J-18.387 E.0519
G1 X120.983 Y120.675 E.04601
G3 X119.892 Y121.607 I-18.707 J-20.799 E.05178
G1 X118.806 Y122.272 E.04599
G3 X117.523 Y122.794 I-10.878 J-24.907 E.05004
G1 X116.298 Y123.088 E.04546
G1 X115.045 Y123.188 E.04539
G3 X113.64 Y123.09 I2.185 J-41.483 E.05083
G1 X112.414 Y122.796 E.04553
G3 X111.079 Y122.244 I9.723 J-25.421 E.05217
G1 X109.993 Y121.579 E.04598
G3 X108.949 Y120.675 I15.068 J-18.48 E.04986
G1 X108.122 Y119.707 E.04598
G1 X107.456 Y118.621 E.04598
G3 X106.92 Y117.349 I59.706 J-25.909 E.04986
G1 X106.623 Y116.11 E.04598
G3 X106.51 Y114.681 I26.056 J-2.77 E.05179
G1 X106.61 Y113.411 E.04598
G1 X106.871 Y112.323 E.0404
G3 X107.423 Y110.906 I17.774 J6.103 E.05494
G1 X108.121 Y109.763 E.04835
G1 X108.984 Y108.753 E.04795
G1 X109.952 Y107.926 E.04598
G3 X111.176 Y107.176 I13.639 J20.888 E.05182
G1 X112.363 Y106.686 E.04639
G1 X113.472 Y106.42 E.04118
G3 X114.958 Y106.275 I2.856 J21.644 E.05392
G1 X116.237 Y106.375 E.04629
G3 X117.585 Y106.691 I-11.536 J52.183 E.05
G1 X118.756 Y107.176 E.04577
M73 P2 R16
G3 X119.979 Y107.926 I-11.894 J20.782 E.0518
G1 X120.948 Y108.753 E.04598
G1 X121.717 Y109.653 E.04275
G3 X122.503 Y110.894 I-21.444 J14.465 E.05306
G1 X122.991 Y112.07 E.04598
G1 X123.118 Y112.602 E.01973
G1 X122.572 Y112.26 F9000
;TYPE:Outer wall
G1 F1800
G1 X122.87 Y113.501 E.04608
G1 X122.965 Y114.717 E.04403
G3 X122.864 Y116.004 I-50.599 J-3.335 E.04662
G1 X122.575 Y117.207 E.04468
G1 X122.124 Y118.297 E.04259
G3 X121.439 Y119.437 I-42.154 J-24.539 E.04803
G1 X120.635 Y120.379 E.04469
G3 X119.653 Y121.217 I-43.734 J-50.212 E.04662
G1 X118.598 Y121.864 E.04468
G3 X117.416 Y122.35 I-22.992 J-54.23 E.04616
G1 X116.226 Y122.636 E.04417
G1 X115.009 Y122.732 E.0441
G3 X113.712 Y122.637 I3.844 J-61.321 E.04694
G1 X112.521 Y122.351 E.04424
G3 X111.318 Y121.854 I23.917 J-59.597 E.047
G1 X110.263 Y121.208 E.04469
G1 X109.462 Y120.524 E.03804
G3 X108.492 Y119.438 I11.795 J-11.501 E.05257
G1 X107.846 Y118.382 E.04468
G3 X107.356 Y117.207 I151.008 J-63.631 E.04597
G1 X107.067 Y116.004 E.04468
G3 X106.966 Y114.717 I61.039 J-5.452 E.04662
G1 X107.063 Y113.483 E.04468
G1 X107.316 Y112.43 E.0391
G3 X107.832 Y111.113 I18.15 J6.355 E.05107
G1 X108.492 Y110.032 E.04576
G1 X109.308 Y109.077 E.04534
G1 X110.249 Y108.273 E.04468
G3 X111.35 Y107.598 I30.63 J48.751 E.04663
G1 X112.505 Y107.122 E.0451
G1 X113.579 Y106.864 E.03989
G3 X114.959 Y106.733 I2.882 J23.1 E.05005
G1 X116.201 Y106.831 E.04499
G3 X117.45 Y107.13 I-15.625 J67.881 E.04638
G1 X118.581 Y107.598 E.0442
G3 X119.682 Y108.273 I-27.93 J46.815 E.04662
G1 X120.623 Y109.077 E.04468
G1 X121.369 Y109.95 E.04145
G3 X122.095 Y111.102 I-24.254 J16.082 E.04917
G1 X122.559 Y112.222 E.04377
G1 E-1.2 F2400
;WIPE_START
G1 F9000
G1 X122.87 Y113.501
G1 X122.923 Y114.183
;WIPE_END
G1 X126.581 Y106.403 Z.4
G1 Z.4
G1 Z.2
G1 E1.2 F1800
;TYPE:Bottom surface
;WIDTH:0.505189
G1 F4800
G1 X125.037 Y104.859 E.07972
G1 X123.935 Y103.844 E.05471
G1 X122.682 Y102.924 E.05676
G1 X122.128 Y102.603 E.02338
G1 X127.119 Y107.595 E.25777
G1 X127.725 Y108.713 E.04643
G1 X127.821 Y108.95 E.00933
G1 X120.767 Y101.897 E.36424
G1 X119.913 Y101.522 E.03409
G1 X119.66 Y101.443 E.00968
G1 X128.268 Y110.051 E.44455
G1 X128.543 Y110.98 E.03538
G1 X118.708 Y101.145 E.50789
G2 X117.855 Y100.946 I-1.327 J3.754 E.03206
G1 X128.767 Y111.858 E.56351
G1 X128.898 Y112.643 E.02905
G1 X117.043 Y100.787 E.61223
G1 X116.902 Y100.76 E.00523
G1 X116.313 Y100.711 E.0216
G1 X129 Y113.398 E.6552
G1 X129.038 Y114.09 E.0253
G1 X115.6 Y100.652 E.69398
G1 X115.503 Y100.644 E.00355
G2 X114.938 Y100.643 I-.284 J2.54 E.02068
G1 X129.072 Y114.777 E.72989
G1 X129.037 Y115.397 E.02266
G1 X114.302 Y100.661 E.76096
G2 X113.678 Y100.691 I-.178 J2.841 E.02286
G1 X129.003 Y116.016 E.79143
G3 X128.936 Y116.603 I-2.68 J-.012 E.02159
G1 X122.381 Y110.048 E.3385
G1 X122.097 Y109.578 E.02002
G1 X121.161 Y108.485 E.05256
G1 X120.078 Y107.574 E.05166
G1 X119.641 Y107.308 E.01871
G1 X113.104 Y100.771 E.33758
G1 X112.53 Y100.851 E.02116
G1 X118.294 Y106.615 E.29769
G1 X117.748 Y106.388 E.0216
G1 X117.303 Y106.278 E.01674
G1 X111.984 Y100.958 E.27471
G1 X111.462 Y101.09 E.01965
G1 X116.434 Y106.062 E.25676
G1 X115.717 Y105.999 E.0263
G1 X110.94 Y101.222 E.24666
G2 X110.448 Y101.384 I.484 J2.305 E.01895
G1 X115.01 Y105.946 E.23559
G1 X114.886 Y105.937 E.00455
G1 X114.387 Y105.977 E.01827
G1 X109.973 Y101.562 E.22799
G1 X109.497 Y101.74 E.01855
G1 X113.782 Y106.026 E.22131
G2 X113.231 Y106.128 I.059 J1.855 E.02056
G1 X109.046 Y101.943 E.21614
G1 X108.611 Y102.162 E.01776
G1 X112.702 Y106.253 E.21125
G2 X112.192 Y106.396 I.214 J1.745 E.01943
G1 X108.177 Y102.382 E.20731
G2 X107.758 Y102.617 I.851 J2.012 E.01757
G1 X111.726 Y106.584 E.2049
G1 X111.26 Y106.772 E.01834
G1 X107.363 Y102.875 E.20126
G1 X106.967 Y103.133 E.01725
G1 X110.825 Y106.991 E.19921
G1 X110.418 Y107.237 E.01738
G1 X106.576 Y103.395 E.19842
G1 X106.217 Y103.69 E.01696
M73 P3 R16
G1 X110.011 Y107.484 E.19591
G2 X109.628 Y107.755 I.627 J1.296 E.01721
G1 X105.859 Y103.986 E.19463
G1 X105.5 Y104.281 E.01696
G1 X109.276 Y108.056 E.19497
G1 X108.923 Y108.358 E.01693
G1 X105.169 Y104.603 E.1939
G1 X104.846 Y104.935 E.01688
G1 X108.596 Y108.684 E.19363
G1 X108.297 Y109.039 E.01694
G1 X104.524 Y105.266 E.19483
G2 X104.216 Y105.611 I1.405 J1.565 E.01694
G1 X107.998 Y109.393 E.19531
G2 X107.718 Y109.767 I1.046 J1.077 E.01712
G1 X103.929 Y105.979 E.19562
G1 X103.643 Y106.347 E.01701
G1 X107.471 Y110.174 E.19766
G1 X107.225 Y110.581 E.01738
G1 X103.359 Y106.716 E.19961
G1 X103.11 Y107.121 E.01735
G1 X107.007 Y111.017 E.20122
G1 X106.815 Y111.479 E.01826
G1 X102.861 Y107.526 E.20416
G1 X102.613 Y107.931 E.01735
G1 X106.623 Y111.941 E.20711
G1 X106.493 Y112.464 E.01969
G1 X102.394 Y108.366 E.21164
G1 X102.185 Y108.81 E.01793
G1 X106.363 Y112.988 E.21576
G2 X106.261 Y113.54 I1.63 J.587 E.02058
G1 X101.975 Y109.254 E.22131
G2 X101.793 Y109.726 I2.06 J1.068 E.01849
G1 X106.212 Y114.145 E.22822
G1 X106.166 Y114.753 E.02226
G1 X101.625 Y110.212 E.23451
G1 X101.458 Y110.698 E.01878
G1 X106.223 Y115.464 E.2461
G1 X106.289 Y116.184 E.02639
G1 X101.319 Y111.213 E.2567
G1 X101.199 Y111.747 E.01999
G1 X106.504 Y117.053 E.27398
G2 X106.834 Y118.036 I3.399 J-.593 E.03802
G1 X100.907 Y112.109 E.30608
G1 E-1.2 F2400
;WIPE_START
G1 F9000
G1 X102.321 Y113.523
;WIPE_END
G1 X106.099 Y114.063 Z.4
G1 X129.021 Y117.341 Z.4
G1 Z.2
G1 E1.2 F1800
G1 F4800
G1 X123.082 Y111.402 E.3067
G1 X123.346 Y112.049 E.0255
G1 X123.432 Y112.406 E.01343
G1 X128.749 Y117.723 E.27455
G3 X128.613 Y118.241 I-2.411 J-.353 E.0196
G1 X123.639 Y113.267 E.25686
G1 X123.703 Y113.985 E.0263
G1 X128.469 Y118.751 E.24613
G1 X128.325 Y119.261 E.01934
G1 X123.763 Y114.699 E.23556
G1 X123.718 Y115.307 E.02227
G1 X128.141 Y119.73 E.22841
G1 X127.952 Y120.195 E.01832
G1 X123.667 Y115.91 E.22129
G3 X123.574 Y116.471 I-1.881 J-.022 E.02085
G1 X127.763 Y120.66 E.21632
G3 X127.542 Y121.093 I-2.065 J-.783 E.01778
G1 X123.448 Y116.998 E.21145
G1 X123.346 Y117.42 E.01585
G1 X123.308 Y117.513 E.00365
G1 X127.313 Y121.517 E.20679
G1 X127.083 Y121.941 E.01761
G1 X123.119 Y117.977 E.20473
G1 X122.929 Y118.441 E.01831
G1 X126.832 Y122.344 E.20154
G1 X126.564 Y122.73 E.01715
G1 X122.709 Y118.875 E.19908
G1 X122.463 Y119.283 E.01739
G1 X126.296 Y123.116 E.19794
G3 X126.019 Y123.492 I-1.839 J-1.065 E.01711
G1 X122.218 Y119.691 E.19629
G3 X121.944 Y120.071 I-1.265 J-.625 E.01718
G1 X125.715 Y123.841 E.19474
G1 X125.41 Y124.191 E.01692
G1 X121.642 Y120.423 E.1946
G1 X121.34 Y120.775 E.01693
G1 X125.106 Y124.54 E.19446
G3 X124.769 Y124.857 I-1.599 J-1.365 E.01692
G1 X121.017 Y121.105 E.19374
G1 X120.662 Y121.404 E.01694
G1 X124.428 Y125.17 E.1945
G1 X124.088 Y125.484 E.01689
G1 X120.307 Y121.703 E.19526
G3 X119.934 Y121.983 I-1.101 J-1.077 E.01712
G1 X123.728 Y125.777 E.19593
G1 X123.351 Y126.054 E.01708
M73 P4 R16
G1 X119.527 Y122.23 E.19745
G1 X119.121 Y122.478 E.01737
G1 X122.974 Y126.331 E.19898
G3 X122.589 Y126.599 I-1.405 J-1.606 E.01718
G1 X118.682 Y122.693 E.20175
G1 X118.22 Y122.885 E.01826
G1 X122.174 Y126.839 E.20419
G1 X121.76 Y127.078 E.01748
G1 X117.759 Y123.077 E.20663
G1 X117.236 Y123.208 E.01967
G1 X121.345 Y127.317 E.2122
G1 X120.892 Y127.518 E.0181
G1 X116.712 Y123.338 E.21583
G3 X116.158 Y123.438 I-.578 J-1.629 E.02065
G1 X120.437 Y127.717 E.22099
G1 X119.983 Y127.916 E.01812
G1 X115.553 Y123.486 E.22879
G1 X114.947 Y123.534 E.02218
G1 X119.492 Y128.079 E.23469
G1 X118.994 Y128.234 E.01905
G1 X114.234 Y123.474 E.24581
G1 X113.518 Y123.413 E.02622
G1 X118.496 Y128.39 E.25704
G3 X117.955 Y128.504 I-.782 J-2.384 E.0202
G1 X112.658 Y123.206 E.27357
G1 X112.284 Y123.116 E.01404
G1 X111.659 Y122.861 E.02465
G1 X117.409 Y128.61 E.29692
G1 X116.857 Y128.713 E.02047
G1 X110.312 Y122.168 E.33802
G1 X109.78 Y121.845 E.0227
G1 X108.733 Y120.948 E.05034
G1 X107.806 Y119.848 E.05254
G1 X107.518 Y119.373 E.0203
G1 X101.001 Y112.856 E.33654
G1 X100.935 Y113.445 E.02162
G1 X116.254 Y128.763 E.79105
G1 X115.65 Y128.813 E.02212
G1 X100.879 Y114.042 E.76281
G1 X100.879 Y114.696 E.02387
G1 X115.011 Y128.828 E.72982
G1 X114.339 Y128.81 E.02455
G1 X100.879 Y115.349 E.69512
G2 X100.94 Y116.064 I3.259 J.081 E.02625
G1 X113.648 Y128.772 E.65627
G1 X112.89 Y128.668 E.02796
G1 X101.021 Y116.799 E.6129
G2 X101.172 Y117.604 I3.712 J-.281 E.02997
G1 X112.112 Y128.543 E.56491
G1 X111.236 Y128.322 E.03298
G1 X101.361 Y118.447 E.50994
G1 X101.39 Y118.573 E.00473
G1 X101.68 Y119.419 E.03266
G1 X110.284 Y128.024 E.44433
G1 X109.224 Y127.617 E.04149
G1 X102.112 Y120.505 E.36723
G1 X102.558 Y121.449 E.03811
G1 X102.806 Y121.852 E.01727
G1 X107.895 Y126.942 E.26283
G1 X106.61 Y126.103 E.05604
G1 X105.43 Y125.13 E.05585
G1 X103.255 Y122.955 E.11232
G1 E-1.2 F2400
;WIPE_START
G1 F9000
G1 X104.669 Y124.37
;WIPE_END
G1 X107.7 Y126.688 Z.4
G1 X108.703 Y127.455 Z.4
G1 Z.2
G1 E1.2 F1800
;TYPE:Gap infill
;WIDTH:0.120435
G1 X108.557 Y127.35 E.0011
;WIDTH:0.165764
G1 X108.411 Y127.244 E.00175
;WIDTH:0.211093
G1 X108.265 Y127.138 E.00239
;WIDTH:0.233757
G1 X108.119 Y127.033 E.00271
G1 E-1.2 F2400
;WIPE_START
G1 F9000
