;TIME:686.30
;Filament used:0.49600m
;Layer height:0.200
; HEADER_BLOCK_START
; generated by Creality_Print V6.2.2.3134 on 2025-08-30 at 01:02:47
; total layer number: 100
; filament_density: 1.24
; filament_diameter: 1.75
; max_z_height: 20.00
; creality_uuid: fa8e0261-28ab-4153-931f-1458b2739695
; HEADER_BLOCK_END

; MINX = 113.93
; MINY = 89.19
; MINZ = 0.00
; MAXX = 128.93
; MAXY = 104.18
; MAXZ = 20.00

; THUMBNAIL_BLOCK_START

;
; THUMBNAIL_BLOCK_END

; THUMBNAIL_BLOCK_START

;
; THUMBNAIL_BLOCK_END

; external perimeters extrusion width = 0.42mm
; perimeters extrusion width = 0.45mm
; infill extrusion width = 0.45mm
; solid infill extrusion width = 0.42mm
; top infill extrusion width = 0.42mm
; first layer extrusion width = 0.50mm

; EXECUTABLE_BLOCK_START
M73 P0 R11
M201 X5000 Y5000 Z500 E5000
M203 X500 Y500 Z30 E100
M204 P5000 R2500 T5000 ; sets acceleration (P, T) and retract acceleration (R), mm/sec^2
M205 X10.00 Y10.00 Z0.40 E5.00 ; sets the jerk limits, mm/sec
;TYPE:Custom
M220 S100 ;Reset Feedrate 
M221 S100 ;Reset Flowrate 
 
M140 S50 ;Set final bed temp 
G28 ;Home 
 
G92 E0 ;Reset Extruder 
G1 Z2.0 F3000 ;Move Z Axis up 
M104 S190 ;Set final nozzle temp 
G1 X-2.1 Y20 Z0.28 F5000.0 ;Move to start position 
M190 S50 ;Wait for bed temp to stabilize 
M109 S190 ;Wait for nozzle temp to stabilize 
G1 X-2.1 Y145.0 Z0.28 F1500.0 E15 ;Draw the first line 
G1 X-2.4 Y145.0 Z0.28 F5000.0 ;Move to side a little 
G1 X-2.4 Y20 Z0.28 F1500.0 E30 ;Draw the second line 
G92 E0  ;Reset Extruder 
G1 E-1.0000 F1800 ;Retract a bit 
M73 P1 R11
G1 Z2.0 F3000 ;Move Z Axis up 
G1 E0.0000 F1800
G90
G21
M83 ; use relative distances for extrusion
;filament start gcode
G1 E-1.2 F2400
M106 S0
;LAYER_CHANGE
;Z:0.2
;HEIGHT:0.2
;BEFORE_LAYER_CHANGE
;0.2
G92 E0

;_SET_FAN_SPEED_CHANGING_LAYER
M204 P500
M205 X10 Y10
; printing object Object_1 id:7811887588677804407 copy 0
M204 T500
G1 X115.554 Y93.61 Z.2 F9000
G1 E1.2 F1800
;TYPE:Inner wall
;WIDTH:0.499999
G1 X115.958 Y92.928 E.02861
G1 X116.505 Y92.236 E.03186
G1 X117.146 Y91.615 E.03221
G1 X117.86 Y91.089 E.03202
G1 X118.638 Y90.663 E.03203
G1 X119.466 Y90.344 E.03203
G1 X120.329 Y90.138 E.03203
G1 X121.211 Y90.05 E.03203
G1 X122.093 Y90.079 E.03186
G1 X122.973 Y90.227 E.03221
G1 X123.82 Y90.49 E.03202
G1 X124.625 Y90.863 E.03203
G1 X125.372 Y91.34 E.03203
G1 X126.05 Y91.913 E.03203
G1 X126.645 Y92.571 E.03203
G1 X127.147 Y93.303 E.03203
G1 X127.547 Y94.094 E.03202
G1 X127.839 Y94.937 E.03221
G3 X128.066 Y96.813 I-8.024 J1.921 E.06838
G1 X128.015 Y97.572 E.02746
G1 X127.839 Y98.437 E.03186
G1 X127.547 Y99.28 E.03221
G1 X127.147 Y100.071 E.03202
G1 X126.645 Y100.803 E.03203
G1 X126.05 Y101.461 E.03203
G1 X125.372 Y102.033 E.03203
G1 X124.625 Y102.511 E.03203
G1 X123.82 Y102.884 E.03202
G1 X122.968 Y103.148 E.03221
G1 X122.098 Y103.295 E.03186
G1 X121.211 Y103.324 E.03203
G1 X120.329 Y103.235 E.03203
G1 X119.466 Y103.03 E.03203
G1 X118.638 Y102.711 E.03203
G1 X117.86 Y102.285 E.03203
G1 X117.146 Y101.758 E.03203
G1 X116.508 Y101.142 E.03203
G1 X115.958 Y100.445 E.03203
G1 X115.508 Y99.686 E.03186
G1 X115.16 Y98.865 E.03221
G1 X114.925 Y98.01 E.03202
G1 X114.808 Y97.143 E.03157
G1 X114.807 Y96.239 E.03265
G1 X114.924 Y95.37 E.03167
G1 X115.16 Y94.508 E.03225
G1 X115.506 Y93.692 E.03202
G1 X115.534 Y93.645 E.00198
G1 X114.927 Y93.886 F9000
;TYPE:Outer wall
G1 F1800
G1 X115.097 Y93.485 E.01573
G1 X115.58 Y92.669 E.03424
G1 X116.165 Y91.929 E.03406
G1 X116.85 Y91.266 E.03442
G1 X117.613 Y90.703 E.03424
G1 X118.445 Y90.247 E.03424
G1 X119.33 Y89.907 E.03424
G1 X120.252 Y89.687 E.03424
G1 X121.196 Y89.592 E.03424
G1 X122.139 Y89.623 E.03406
G1 X123.079 Y89.781 E.03442
G1 X123.985 Y90.062 E.03424
G1 X124.845 Y90.461 E.03424
M73 P2 R11
G1 X125.644 Y90.972 E.03424
G1 X126.368 Y91.584 E.03424
G1 X127.005 Y92.287 E.03424
G1 X127.541 Y93.069 E.03424
G1 X127.969 Y93.915 E.03424
G1 X128.281 Y94.816 E.03442
G3 X128.522 Y96.844 I-8.6 J2.049 E.07388
G1 X128.469 Y97.633 E.02857
G1 X128.281 Y98.558 E.03406
G1 X127.969 Y99.458 E.03442
G1 X127.541 Y100.305 E.03424
G1 X127.005 Y101.087 E.03424
G1 X126.368 Y101.79 E.03424
G1 X125.644 Y102.402 E.03424
G1 X124.845 Y102.912 E.03424
G1 X123.985 Y103.312 E.03424
G1 X123.074 Y103.593 E.03442
G1 X122.144 Y103.75 E.03406
G1 X121.196 Y103.782 E.03424
G1 X120.252 Y103.687 E.03424
G1 X119.33 Y103.467 E.03424
G1 X118.445 Y103.126 E.03424
G1 X117.613 Y102.671 E.03424
G1 X116.85 Y102.108 E.03424
G1 X116.168 Y101.449 E.03424
G1 X115.58 Y100.705 E.03424
G1 X115.1 Y99.893 E.03407
G1 X114.727 Y99.015 E.03442
G1 X114.476 Y98.101 E.03423
G1 X114.351 Y97.174 E.03377
G1 X114.35 Y96.209 E.03486
G1 X114.475 Y95.279 E.03388
G1 X114.727 Y94.358 E.03446
G1 X114.911 Y93.923 E.01706
G1 E-1.2 F2400
;WIPE_START
G1 F9000
G1 X115.097 Y93.485
G1 X115.58 Y92.669
G1 X115.937 Y92.217
;WIPE_END
G1 X118.279 Y95.231 Z.4
G1 X118.735 Y95.818 Z.4
G1 Z.2
G1 E1.2 F1800
;TYPE:Inner wall
G1 X118.869 Y95.432 E.01477
G1 X119.241 Y94.858 E.02468
G3 X120.344 Y94.048 I2.408 J2.124 E.04979
G1 X121.007 Y93.864 E.02484
G1 X121.695 Y93.844 E.02485
G1 X122.368 Y93.99 E.02485
G3 X123.514 Y94.733 I-1.159 J3.044 E.0497
G1 X123.921 Y95.288 E.02485
G1 X124.184 Y95.924 E.02485
G1 X124.287 Y96.604 E.02485
G1 X124.223 Y97.29 E.02485
G1 X124.026 Y97.867 E.02202
G1 X123.921 Y98.086 E.00878
G1 X123.624 Y98.517 E.01891
G1 X123.122 Y98.988 E.02484
G1 X122.522 Y99.326 E.02485
G1 X121.859 Y99.51 E.02484
G3 X121.007 Y99.509 I-.426 J-3.916 E.03082
G1 X120.494 Y99.383 E.01909
G1 X119.872 Y99.076 E.02504
G1 X119.351 Y98.64 E.02453
G1 X118.946 Y98.087 E.02475
G1 X118.683 Y97.45 E.02488
G1 X118.581 Y96.785 E.0243
G1 X118.645 Y96.077 E.02566
G1 X118.722 Y95.856 E.00845
G1 X119.074 Y96.361 F9000
;TYPE:Outer wall
G1 F1800
G1 X119.099 Y96.132 E.00831
G1 X119.297 Y95.594 E.02067
G1 X119.617 Y95.118 E.02075
G1 X120.047 Y94.728 E.02095
G1 X120.53 Y94.467 E.01979
G1 X121.117 Y94.308 E.02196
G1 X121.695 Y94.302 E.02089
G1 X122.258 Y94.434 E.02089
G1 X122.774 Y94.697 E.02089
G1 X123.17 Y95.039 E.01891
G1 X123.545 Y95.547 E.02282
G1 X123.756 Y96.086 E.02089
G1 X123.833 Y96.659 E.02089
G1 X123.77 Y97.235 E.02089
G1 X123.598 Y97.705 E.01806
G1 X123.247 Y98.258 E.02365
G1 X122.819 Y98.646 E.02088
G1 X122.31 Y98.921 E.02089
G1 X121.75 Y99.066 E.02088
G1 X121.171 Y99.072 E.02089
G1 X120.608 Y98.94 E.0209
G1 X120.086 Y98.672 E.0212
G1 X119.655 Y98.298 E.0206
G1 X119.322 Y97.827 E.02081
G1 X119.11 Y97.288 E.02093
G1 X119.035 Y96.729 E.02035
G1 X119.07 Y96.4 E.01194
G1 E-1.2 F2400
;WIPE_START
G1 F9000
G1 X119.099 Y96.132
G1 X119.297 Y95.594
G1 X119.617 Y95.118
G1 X120.047 Y94.728
G1 X120.049 Y94.727
;WIPE_END
G1 X124.753 Y91.108 Z.4
G1 Z.4
G1 Z.2
G1 E1.2 F1800
;TYPE:Bottom surface
;WIDTH:0.508771
G1 F4800
G1 X125.864 Y92.219 E.05782
G1 X126.375 Y92.784 E.02805
G1 X126.851 Y93.478 E.03096
G1 X127.239 Y94.253 E.03189
G1 X123.884 Y90.897 E.17463
G1 X123.697 Y90.81 E.00759
G1 X122.888 Y90.56 E.03115
G1 X127.547 Y95.219 E.24245
G1 X127.674 Y95.848 E.02361
G1 X127.686 Y96.017 E.00624
G1 X122.096 Y90.427 E.29089
G1 X121.409 Y90.399 E.02529
G1 X127.728 Y96.718 E.32886
G1 X127.687 Y97.336 E.02277
G1 X120.788 Y90.437 E.35904
G2 X120.211 Y90.519 I.017 J2.185 E.0215
G1 X127.597 Y97.905 E.38439
G1 X127.475 Y98.441 E.02024
G1 X119.679 Y90.646 E.4057
G2 X119.192 Y90.817 I.393 J1.898 E.01907
G1 X121.898 Y93.524 E.14086
G1 X121.218 Y93.502 E.02503
G1 X118.723 Y91.007 E.12986
G1 X118.297 Y91.24 E.01786
G1 X120.655 Y93.598 E.1227
G2 X120.158 Y93.759 I.429 J2.168 E.01929
G1 X117.891 Y91.492 E.11799
G1 X117.511 Y91.772 E.01734
G1 X119.731 Y93.992 E.11554
G2 X119.357 Y94.276 I.427 J.951 E.01745
G1 X117.16 Y92.079 E.11435
G1 X116.825 Y92.403 E.01714
G1 X119.017 Y94.595 E.11405
G1 X118.745 Y94.981 E.0174
G1 X116.526 Y92.763 E.11547
G1 X116.241 Y93.123 E.01689
G1 X118.518 Y95.414 E.11885
G2 X118.339 Y95.894 I1.595 J.868 E.01891
G1 X115.991 Y93.546 E.1222
G2 X115.759 Y93.973 I1.472 J1.075 E.01793
G1 X118.253 Y96.466 E.12977
G2 X118.287 Y97.159 I2.145 J.243 E.02563
M73 P3 R11
G1 X115.406 Y94.278 E.1499
G1 E-1.2 F2400
;WIPE_START
G1 F9000
G1 X116.82 Y95.693
;WIPE_END
G1 X120.634 Y95.828 Z.4
G1 X124.334 Y95.96 Z.4
G1 Z.2
G1 E1.2 F1800
G1 F4800
G1 X127.305 Y98.93 E.15461
G3 X127.107 Y99.391 I-1.802 J-.504 E.0185
G1 X124.616 Y96.9 E.12963
G3 X124.531 Y97.474 I-2.731 J-.11 E.02139
G1 X126.886 Y99.829 E.12253
G3 X126.625 Y100.226 I-1.61 J-.771 E.01756
G1 X124.355 Y97.956 E.11814
G3 X124.123 Y98.383 I-1.013 J-.274 E.01804
G1 X126.354 Y100.614 E.11609
G1 X126.041 Y100.96 E.01716
G1 X123.854 Y98.773 E.1138
G1 X123.515 Y99.093 E.01715
G1 X125.716 Y101.294 E.11453
G1 X125.359 Y101.596 E.0172
G1 X123.139 Y99.376 E.11551
G1 X122.715 Y99.611 E.01784
G1 X124.981 Y101.877 E.11793
G1 X124.579 Y102.133 E.01756
G1 X122.216 Y99.77 E.12297
G1 X121.784 Y99.869 E.01632
G1 X121.656 Y99.869 E.00471
G1 X124.143 Y102.356 E.12945
G1 X123.697 Y102.563 E.0181
G1 X120.699 Y99.571 E.15586
G1 E-1.2 F2400
;WIPE_START
G1 F9000
G1 X122.115 Y100.984
;WIPE_END
G1 X123.354 Y102.885 Z.4
G1 Z.2
G1 E1.2 F1800
G1 F4800
G1 X115.4 Y94.931 E.41395
G1 X115.259 Y95.449 E.01977
G1 X122.662 Y102.852 E.38524
G1 X122.098 Y102.947 E.02104
G1 X115.181 Y96.03 E.35997
G2 X115.151 Y96.658 I2.304 J.428 E.02321
G1 X121.465 Y102.973 E.32863
G3 X120.769 Y102.935 I-.209 J-2.608 E.02574
G1 X115.182 Y97.348 E.29077
G1 X115.262 Y97.941 E.02203
G1 X115.317 Y98.142 E.00765
G1 X119.973 Y102.798 E.24233
G1 X119.567 Y102.702 E.01536
G1 X118.999 Y102.483 E.02242
G1 X115.643 Y99.127 E.17462
G1 X115.815 Y99.531 E.01615
G1 X116.241 Y100.251 E.03079
G1 X116.741 Y100.883 E.02965
G1 X118.138 Y102.281 E.07272
G1 E-1.2 F2400
;WIPE_START
G1 F9000
G1 X116.741 Y100.883
G1 X116.726 Y100.865
;WIPE_END
G1 X119.147 Y97.915 Z.4
G1 X124.637 Y91.224 Z.4
G1 Z.2
G1 E1.2 F1800
;TYPE:Gap infill
;WIDTH:0.153539
G1 X124.491 Y91.107 E.00163
;WIDTH:0.140048
G1 X124.37 Y91.022 E.00114
G1 E-1.2 F2400
;WIPE_START
G1 F9000
G1 X124.491 Y91.107
;WIPE_END
G1 X122.697 Y94.475 Z.4
G1 X118.503 Y102.35 Z.4
G1 Z.2
G1 E1.2 F1800
;WIDTH:0.113557
G1 X118.379 Y102.257 E.00086
;WIDTH:0.129342
G1 X118.255 Y102.164 E.00106
M73 P3 R10
G1 E-1.2 F2400
;WIPE_START
G1 F9000
G1 X118.379 Y102.257
;WIPE_END
G1 X118.477 Y98.442 Z.4
G1 X118.496 Y97.682 Z.4
G1 Z.2
G1 E1.2 F1800
;WIDTH:0.189422
G1 X118.368 Y97.463 E.00294
G1 X118.426 Y97.35 E.00147
G1 E-1.2 F2400
;WIPE_START
G1 F9000
G1 X118.368 Y97.463
G1 X118.496 Y97.682
;WIPE_END
G1 X115.563 Y98.9 Z.4
G1 Z.2
G1 E1.2 F1800
;WIDTH:0.259907
M73 P4 R10
G1 X115.301 Y98.511 E.00804
; stop printing object Object_1 id:7811887588677804407 copy 0
;TIME_ELAPSED:27.556314

M106 S255
;LAYER_CHANGE
;Z:0.4
;HEIGHT:0.2
;BEFORE_LAYER_CHANGE
;0.4
G92 E0

G1 E-1.2 F2400
;WIPE_START
G1 F9000
G1 X115.563 Y98.9
;WIPE_END
;_SET_FAN_SPEED_CHANGING_LAYER
M204 P2500
; printing object Object_1 id:7811887588677804407 copy 0
M204 T2500
G1 X115.332 Y95.091 Z.4
G1 X115.245 Y93.654 Z.4
G1 E1.2 F1800
M204 P2000
;TYPE:Inner wall
;WIDTH:0.449999
G1 F5400
G1 X115.278 Y93.577 E.00269
G1 X115.747 Y92.784 E.02962
G1 X116.309 Y92.072 E.02916
G1 X116.981 Y91.42 E.0301
G1 X117.722 Y90.874 E.02961
G1 X118.53 Y90.431 E.02962
G1 X119.39 Y90.1 E.02962
G1 X120.286 Y89.886 E.02963
G1 X121.203 Y89.794 E.02962
G1 X122.109 Y89.825 E.02916
G1 X123.033 Y89.978 E.0301
G1 X123.912 Y90.251 E.02961
G1 X124.748 Y90.639 E.02963
G1 X125.524 Y91.135 E.02962
G1 X126.228 Y91.73 E.02963
G1 X126.846 Y92.413 E.02963
G1 X127.367 Y93.172 E.02963
G1 X127.782 Y93.995 E.02962
G3 X128.278 Y95.911 I-7.728 J3.019 E.06382
G1 X128.33 Y96.687 E.02499
G1 X128.268 Y97.606 E.02962
G1 X128.085 Y98.509 E.02963
G1 X127.783 Y99.379 E.02962
G1 X127.367 Y100.202 E.02962
G1 X126.854 Y100.949 E.02916
G1 X126.227 Y101.645 E.0301
G1 X125.524 Y102.239 E.02961
G1 X124.748 Y102.735 E.02962
G1 X123.912 Y103.122 E.02961
G1 X123.018 Y103.398 E.0301
G1 X122.123 Y103.549 E.02916
G1 X121.203 Y103.58 E.02961
G1 X120.272 Y103.484 E.0301
G1 X119.39 Y103.274 E.02916
G1 X118.53 Y102.943 E.02962
G1 X117.722 Y102.5 E.02962
G1 X116.981 Y101.954 E.02963
G1 X116.318 Y101.313 E.02962
G1 X115.747 Y100.59 E.02963
G1 X115.285 Y99.81 E.02916
G1 X114.918 Y98.95 E.03007
G1 X114.668 Y98.021 E.03094
G1 X114.552 Y97.147 E.02834
G1 X114.551 Y96.238 E.02923
G1 X114.672 Y95.33 E.02945
G1 X114.918 Y94.424 E.03019
G1 X115.23 Y93.69 E.02563
G1 X114.709 Y93.915 F9000
M204 P1000
;TYPE:Outer wall
;WIDTH:0.419999
G1 F3600
G1 X114.927 Y93.399 E.01668
G1 X115.423 Y92.561 E.02901
G1 X116.018 Y91.809 E.02856
G1 X116.727 Y91.12 E.02945
G1 X117.511 Y90.543 E.029
G1 X118.365 Y90.075 E.02901
G1 X119.273 Y89.725 E.02901
G1 X120.221 Y89.499 E.02901
G1 X121.19 Y89.401 E.029
G1 X122.148 Y89.434 E.02856
G1 X123.123 Y89.596 E.02945
G1 X124.053 Y89.884 E.029
G1 X124.936 Y90.294 E.02901
G1 X125.757 Y90.818 E.029
G1 X126.501 Y91.447 E.02901
G1 X127.154 Y92.169 E.02901
G1 X127.705 Y92.972 E.02901
G1 X128.144 Y93.841 E.029
G1 X128.464 Y94.761 E.02901
G3 X128.669 Y95.885 I-12.822 J2.923 E.03405
G1 X128.723 Y96.687 E.02393
G1 X128.658 Y97.659 E.02901
G1 X128.464 Y98.613 E.02901
G1 X128.144 Y99.533 E.02901
G1 X127.705 Y100.402 E.02901
G1 X127.162 Y101.192 E.02856
G1 X126.501 Y101.927 E.02945
G1 X125.757 Y102.556 E.029
G1 X124.936 Y103.079 E.02901
G1 X124.053 Y103.489 E.029
G1 X123.108 Y103.78 E.02945
G1 X122.163 Y103.94 E.02856
G1 X121.19 Y103.972 E.029
G1 X120.206 Y103.871 E.02945
G1 X119.273 Y103.649 E.02856
G1 X118.365 Y103.299 E.02901
G1 X117.511 Y102.831 E.02901
G1 X116.727 Y102.254 E.02901
G1 X116.027 Y101.577 E.029
G1 X115.423 Y100.812 E.02901
G1 X114.935 Y99.987 E.02856
G1 X114.547 Y99.078 E.02944
G1 X114.283 Y98.098 E.03024
G1 X114.16 Y97.173 E.02779
G1 X114.159 Y96.213 E.02861
G1 X114.286 Y95.253 E.02884
G1 X114.547 Y94.296 E.02954
G1 X114.693 Y93.952 E.01113
G1 E-1.2 F2400
;WIPE_START
G1 F9000
G1 X114.927 Y93.399
G1 X115.423 Y92.561
G1 X115.688 Y92.227
;WIPE_END
G1 X118.312 Y94.998 Z.6
G1 X119.025 Y95.751 Z.6
G1 Z.4
G1 E1.2 F1800
M204 P2000
;TYPE:Inner wall
;WIDTH:0.449999
G1 F5400
G1 X119.101 Y95.542 E.00716
G1 X119.443 Y95.015 E.02018
G1 X119.9 Y94.588 E.02011
G1 X120.436 Y94.288 E.01975
G1 X121.051 Y94.116 E.02053
G1 X121.677 Y94.099 E.02015
G1 X122.289 Y94.233 E.02015
G1 X122.851 Y94.509 E.02015
G1 X123.304 Y94.888 E.01897
G1 X123.701 Y95.418 E.0213
G1 X123.939 Y95.997 E.02015
G1 X124.031 Y96.617 E.02015
G1 X123.972 Y97.241 E.02015
G1 X123.788 Y97.775 E.01819
G1 X123.424 Y98.357 E.02206
G1 X122.967 Y98.785 E.02015
G1 X122.42 Y99.091 E.02015
G1 X121.816 Y99.258 E.02015
G3 X121.051 Y99.258 I-.383 J-3.612 E.02465
G1 X120.508 Y99.119 E.01802
G1 X120.015 Y98.865 E.01781
G1 X119.533 Y98.46 E.02026
G1 X119.167 Y97.959 E.01995
G3 X118.833 Y96.717 I2.59 J-1.362 E.04171
G1 X118.905 Y96.078 E.02068
G1 X119.011 Y95.788 E.00991
G1 X119.269 Y96.342 F9000
M204 P1000
;TYPE:Outer wall
;WIDTH:0.419999
G1 F3600
G1 X119.288 Y96.165 E.00531
G1 X119.469 Y95.678 E.01547
G1 X119.765 Y95.239 E.01579
G1 X120.16 Y94.882 E.01584
G1 X120.618 Y94.635 E.0155
G1 X121.144 Y94.497 E.01621
G1 X121.677 Y94.492 E.01586
G1 X122.195 Y94.614 E.01586
G1 X122.669 Y94.856 E.01586
G1 X123.071 Y95.205 E.01586
G1 X123.378 Y95.64 E.01586
G1 X123.572 Y96.136 E.01586
G1 X123.642 Y96.664 E.01586
G1 X123.583 Y97.193 E.01586
G1 X123.4 Y97.693 E.01586
G1 X123.102 Y98.135 E.01586
G1 X122.707 Y98.492 E.01586
G1 X122.238 Y98.744 E.01586
G1 X121.722 Y98.877 E.01586
G1 X121.189 Y98.882 E.01586
G1 X120.671 Y98.76 E.01586
G1 X120.198 Y98.518 E.01585
G1 X119.793 Y98.167 E.01596
G1 X119.489 Y97.736 E.01569
G1 X119.294 Y97.237 E.01597
G1 X119.226 Y96.74 E.01495
G1 X119.265 Y96.382 E.01073
G1 E-1.2 F2400
;WIPE_START
G1 F9000
G1 X119.288 Y96.165
G1 X119.469 Y95.678
G1 X119.765 Y95.239
G1 X120.16 Y94.882
G1 X120.337 Y94.787
;WIPE_END
G1 X123.248 Y94.314 Z.6
G1 Z.6
G1 Z.4
G1 E1.2 F1800
M204 P2500
;TYPE:Internal solid infill
G1 F7007
G1 X123.654 Y94.68 E.01628
G1 X124.078 Y95.287 E.02205
G1 X124.322 Y95.907 E.01985
G1 X126.957 Y93.272 E.11101
G1 X126.569 Y92.703 E.0205
G1 X125.967 Y92.026 E.02697
G1 X125.735 Y91.827 E.00912
G1 X123.276 Y94.286 E.10359
G1 X124.099 Y94.652 F9000
G1 F7007
G1 X124.389 Y95.073 E.01523
