;TIME:1924.61
;Filament used:3.05417m
;Layer height:0.200
; HEADER_BLOCK_START
; generated by Creality_Print V6.2.2.3134 on 2025-08-30 at 16:30:39
; total layer number: 50
; filament_density: 1.24
; filament_diameter: 1.75
; max_z_height: 10.00
; creality_uuid: 786aa3a6-b9fe-45f2-aad9-dc2a5d447c76
; HEADER_BLOCK_END

; MINX = 88.17
; MINY = 74.81
; MINZ = 0.00
; MAXX = 131.83
; MAXY = 145.19
; MAXZ = 10.00

; THUMBNAIL_BLOCK_START

;
; THUMBNAIL_BLOCK_END

; THUMBNAIL_BLOCK_START

;
; THUMBNAIL_BLOCK_END

; external perimeters extrusion width = 0.42mm
; perimeters extrusion width = 0.45mm
; infill extrusion width = 0.45mm
; solid infill extrusion width = 0.42mm
; top infill extrusion width = 0.42mm
; first layer extrusion width = 0.50mm

; external perimeters extrusion width = 0.42mm
; perimeters extrusion width = 0.45mm
; infill extrusion width = 0.45mm
; solid infill extrusion width = 0.42mm
; top infill extrusion width = 0.42mm
; first layer extrusion width = 0.50mm

; external perimeters extrusion width = 0.42mm
; perimeters extrusion width = 0.45mm
; infill extrusion width = 0.45mm
; solid infill extrusion width = 0.42mm
; top infill extrusion width = 0.42mm
; first layer extrusion width = 0.50mm

; EXECUTABLE_BLOCK_START
M73 P0 R32
M201 X5000 Y5000 Z500 E5000
M203 X500 Y500 Z30 E100
M204 P5000 R2500 T5000 ; sets acceleration (P, T) and retract acceleration (R), mm/sec^2
M205 X10.00 Y10.00 Z0.40 E5.00 ; sets the jerk limits, mm/sec
;TYPE:Custom
M220 S100 ;Reset Feedrate 
M221 S100 ;Reset Flowrate 
 
M140 S50 ;Set final bed temp 
G28 ;Home 
 
G92 E0 ;Reset Extruder 
G1 Z2.0 F3000 ;Move Z Axis up 
M104 S190 ;Set final nozzle temp 
G1 X-2.1 Y20 Z0.28 F5000.0 ;Move to start position 
M190 S50 ;Wait for bed temp to stabilize 
M109 S190 ;Wait for nozzle temp to stabilize 
G1 X-2.1 Y145.0 Z0.28 F1500.0 E15 ;Draw the first line 
G1 X-2.4 Y145.0 Z0.28 F5000.0 ;Move to side a little 
M73 P0 R31
G1 X-2.4 Y20 Z0.28 F1500.0 E30 ;Draw the second line 
G92 E0  ;Reset Extruder 
G1 E-1.0000 F1800 ;Retract a bit 
G1 Z2.0 F3000 ;Move Z Axis up 
G1 E0.0000 F1800
G90
G21
M83 ; use relative distances for extrusion
;filament start gcode
G1 E-1.2 F2400
M106 S0
;LAYER_CHANGE
;Z:0.2
;HEIGHT:0.2
;BEFORE_LAYER_CHANGE
;0.2
G92 E0

;_SET_FAN_SPEED_CHANGING_LAYER
M204 P500
M205 X10 Y10
; printing object Object_3 id:3168 copy 0
M204 T500
G1 X130.153 Y120.903 Z.2 F9000
G1 E1.2 F1800
;TYPE:Inner wall
;WIDTH:0.499999
G1 X130.554 Y122.364 E.05472
G1 X130.864 Y124.252 E.06906
G1 X130.97 Y126.213 E.07092
G1 X130.864 Y128.175 E.07092
G1 X130.546 Y130.113 E.07092
G1 X130.021 Y132.006 E.07092
G1 X129.293 Y133.831 E.07092
G1 X128.373 Y135.566 E.07092
G1 X127.271 Y137.192 E.07092
G1 X125.999 Y138.689 E.07093
G1 X124.573 Y140.04 E.07093
G1 X123.009 Y141.229 E.07092
G1 X121.326 Y142.242 E.07093
G1 X119.543 Y143.067 E.07093
G1 X117.682 Y143.694 E.07092
G1 X115.764 Y144.116 E.07093
G1 X113.811 Y144.328 E.07092
G1 X111.846 Y144.328 E.07092
G1 X109.894 Y144.116 E.07092
G1 X107.975 Y143.694 E.07092
G1 X106.114 Y143.067 E.07092
G1 X104.331 Y142.242 E.07093
G1 X102.648 Y141.229 E.07093
G1 X101.084 Y140.04 E.07092
G1 X99.658 Y138.689 E.07093
G1 X98.386 Y137.192 E.07093
G1 X97.284 Y135.566 E.07092
G1 X96.364 Y133.831 E.07092
G1 X95.637 Y132.006 E.07093
G1 X95.111 Y130.113 E.07092
G1 X94.793 Y128.175 E.07092
G1 X94.687 Y126.213 E.07092
G1 X94.793 Y124.252 E.07092
G1 X95.111 Y122.313 E.07092
G1 X95.637 Y120.421 E.07092
G1 X96.364 Y118.596 E.07093
G1 X97.284 Y116.86 E.07092
G1 X98.386 Y115.234 E.07092
G1 X99.658 Y113.737 E.07093
G1 X101.084 Y112.386 E.07093
G1 X102.648 Y111.198 E.07092
G1 X104.331 Y110.185 E.07093
G1 X106.114 Y109.36 E.07093
G1 X107.975 Y108.733 E.07092
G1 X109.894 Y108.311 E.07093
G1 X111.846 Y108.098 E.07091
G1 X113.831 Y108.1 E.07166
G1 X115.764 Y108.311 E.0702
G1 X117.682 Y108.733 E.07093
G1 X119.543 Y109.36 E.07092
G1 X121.326 Y110.185 E.07093
G1 X123.009 Y111.198 E.07093
G1 X124.573 Y112.386 E.07092
G1 X125.999 Y113.737 E.07093
G1 X127.271 Y115.234 E.07093
G1 X128.373 Y116.86 E.07092
G1 X129.293 Y118.596 E.07092
G1 X130.021 Y120.421 E.07092
G1 X130.142 Y120.864 E.01661
G1 X130.454 Y120.274 F9000
;TYPE:Outer wall
G1 F1800
G3 X131.005 Y122.29 I-76.519 J22.004 E.07546
G1 X131.319 Y124.202 E.06996
G1 X131.428 Y126.213 E.07271
G1 X131.319 Y128.224 E.07271
G1 X130.993 Y130.212 E.07271
G1 X130.454 Y132.152 E.07271
G1 X129.709 Y134.023 E.07271
G1 X128.766 Y135.802 E.07271
G1 X127.635 Y137.469 E.07271
G1 X126.332 Y139.004 E.07272
G1 X124.87 Y140.389 E.07272
G1 X123.266 Y141.608 E.07271
G1 X121.541 Y142.646 E.07271
G1 X119.713 Y143.492 E.07272
G1 X117.804 Y144.135 E.07271
G1 X115.838 Y144.568 E.07271
G1 X113.836 Y144.785 E.07271
G1 X111.822 Y144.785 E.07271
G1 X109.82 Y144.568 E.07271
G1 X107.853 Y144.135 E.07271
G1 X105.944 Y143.492 E.07271
G1 X104.116 Y142.646 E.07272
G1 X102.391 Y141.608 E.07271
G1 X100.788 Y140.389 E.07271
G1 X99.325 Y139.004 E.07272
G1 X98.022 Y137.469 E.07272
G1 X96.892 Y135.802 E.07271
G1 X95.948 Y134.023 E.07271
G1 X95.203 Y132.152 E.07271
G1 X94.664 Y130.212 E.07271
G1 X94.338 Y128.224 E.07271
G1 X94.229 Y126.213 E.07271
G1 X94.338 Y124.202 E.07271
G1 X94.664 Y122.215 E.07271
G1 X95.203 Y120.275 E.07271
G1 X95.948 Y118.404 E.07271
G1 X96.892 Y116.624 E.07271
G1 X98.022 Y114.957 E.07271
G1 X99.325 Y113.423 E.07272
G1 X100.788 Y112.038 E.07272
G1 X102.391 Y110.819 E.07271
G1 X104.116 Y109.781 E.07272
G1 X105.944 Y108.935 E.07272
G1 X107.853 Y108.292 E.07271
G1 X109.82 Y107.859 E.07271
G1 X111.821 Y107.641 E.07271
G1 X113.856 Y107.643 E.07345
G1 X115.838 Y107.859 E.07198
G1 X117.804 Y108.292 E.07271
G1 X119.713 Y108.935 E.07271
M73 P1 R31
G1 X121.541 Y109.781 E.07272
G1 X123.266 Y110.819 E.07272
G1 X124.87 Y112.038 E.07271
G1 X126.332 Y113.423 E.07272
G1 X127.635 Y114.957 E.07272
G1 X128.766 Y116.624 E.07271
G1 X129.709 Y118.404 E.07271
G1 X130.44 Y120.237 E.07127
G1 E-1.2 F2400
;WIPE_START
G1 F9000
G1 X130.971 Y122.165
;WIPE_END
G1 X129.804 Y125.799 Z.4
G1 X128.87 Y128.703 Z.4
G1 Z.2
G1 E1.2 F1800
;TYPE:Inner wall
G1 X128.602 Y130.144 E.05291
G1 X128.031 Y131.979 E.06939
G1 X127.242 Y133.731 E.06939
G3 X126.231 Y135.414 I-166.758 J-99.078 E.07088
G3 X125.024 Y136.962 I-120.135 J-92.383 E.07088
G3 X123.61 Y138.383 I-79.921 J-78.11 E.07238
G1 X122.065 Y139.594 E.07089
G1 X120.384 Y140.61 E.07089
G1 X118.594 Y141.415 E.07089
G3 X116.679 Y142.007 I-29.715 J-92.818 E.07238
G1 X114.788 Y142.353 E.06939
G1 X112.87 Y142.469 E.06939
G3 X110.91 Y142.356 I9.418 J-179.508 E.07088
G3 X108.938 Y142 I23.991 J-138.423 E.07238
G1 X107.063 Y141.415 E.07089
G1 X105.273 Y140.61 E.07089
G1 X103.593 Y139.594 E.07089
G3 X102.018 Y138.354 I41.714 J-54.591 E.07238
G1 X100.659 Y136.995 E.06939
G1 X99.473 Y135.482 E.06939
G3 X98.454 Y133.805 I177.006 J-108.762 E.07088
G3 X97.643 Y132.017 I150.72 J-69.379 E.07088
G3 X97.042 Y130.104 I119.906 J-38.74 E.07238
G1 X96.688 Y128.173 E.07089
G1 X96.57 Y126.213 E.07089
G1 X96.688 Y124.254 E.07089
G3 X97.055 Y122.283 I81.872 J14.195 E.07238
G1 X97.626 Y120.448 E.06939
G1 X98.415 Y118.695 E.06939
G3 X99.426 Y117.013 I166.798 J99.102 E.07088
G3 X100.633 Y115.464 I120.159 J92.402 E.07088
G3 X102.047 Y114.044 I79.921 J78.11 E.07238
G1 X103.593 Y112.833 E.07089
G1 X105.273 Y111.817 E.07089
G1 X107.063 Y111.011 E.07089
G3 X108.978 Y110.42 I29.717 J92.823 E.07238
G1 X110.869 Y110.073 E.06939
G1 X112.769 Y109.958 E.06872
G3 X114.746 Y110.071 I-9.95 J192.594 E.07152
G3 X116.72 Y110.427 I-23.547 J136.002 E.07241
G1 X118.594 Y111.011 E.07089
G1 X120.384 Y111.817 E.07089
G1 X122.065 Y112.833 E.07089
G3 X123.639 Y114.073 I-41.716 J54.594 E.07238
G1 X124.998 Y115.432 E.06939
G1 X126.184 Y116.945 E.06939
G3 X127.203 Y118.622 I-176.919 J108.709 E.07088
G3 X128.014 Y120.41 I-150.698 J69.369 E.07088
G3 X128.615 Y122.322 I-119.881 J38.732 E.07238
G1 X128.969 Y124.254 E.07089
G1 X129.087 Y126.213 E.07089
G1 X128.969 Y128.173 E.07089
G1 X128.877 Y128.664 E.01802
G1 X128.512 Y128.128 F9000
;TYPE:Outer wall
G1 F1800
G1 X128.166 Y130.008 E.06902
G1 X127.603 Y131.816 E.06839
G1 X126.825 Y133.544 E.06839
G3 X125.84 Y135.177 I-458.043 J-275.217 E.06889
G3 X124.664 Y136.68 I-324.177 J-252.309 E.06889
G3 X123.306 Y138.04 I-205.7 J-203.986 E.06939
G1 X121.804 Y139.217 E.06889
G1 X120.172 Y140.204 E.06889
G1 X118.432 Y140.987 E.06889
G3 X116.596 Y141.557 I-74.629 J-237.011 E.06939
G1 X114.733 Y141.899 E.06839
G1 X112.842 Y142.013 E.06839
G3 X110.938 Y141.9 I28.383 J-492.082 E.06889
G3 X109.047 Y141.555 I65.828 J-366.343 E.06939
G1 X107.226 Y140.987 E.06889
G1 X105.486 Y140.204 E.06889
G1 X103.853 Y139.217 E.06889
G3 X102.341 Y138.031 I101.668 J-131.094 E.06939
G1 X101.002 Y136.691 E.06839
G1 X99.833 Y135.2 E.06839
G3 X98.845 Y133.568 I490.895 J-298.437 E.06889
G3 X98.06 Y131.829 I412.179 J-187.003 E.06889
G3 X97.487 Y129.995 I315.4 J-99.579 E.06939
G1 X97.143 Y128.118 E.06889
G1 X97.028 Y126.213 E.06889
G1 X97.143 Y124.309 E.06889
G3 X97.491 Y122.419 I204.067 J36.601 E.06939
G1 X98.055 Y120.61 E.06839
G1 X98.832 Y118.883 E.06839
G3 X99.818 Y117.249 I458.043 J275.217 E.06889
G3 X100.993 Y115.746 I324.085 J252.238 E.06889
G3 X102.351 Y114.386 I205.612 J203.898 E.06939
G1 X103.853 Y113.21 E.06889
G1 X105.486 Y112.222 E.06889
G1 X107.226 Y111.439 E.06889
G3 X109.061 Y110.869 I74.637 J237.036 E.06939
G1 X110.924 Y110.528 E.06839
G1 X112.796 Y110.415 E.06772
G3 X114.719 Y110.527 I-29.985 J529.532 E.06955
G3 X116.61 Y110.872 I-64.621 J359.759 E.0694
G1 X118.432 Y111.439 E.06889
G1 X120.172 Y112.222 E.06889
G1 X121.804 Y113.21 E.06889
G3 X123.316 Y114.396 I-101.667 J131.092 E.06939
G1 X124.656 Y115.735 E.06839
G1 X125.824 Y117.227 E.06839
G3 X126.812 Y118.859 I-490.404 J298.14 E.06889
G3 X127.597 Y120.598 I-412.005 J186.925 E.06889
G3 X128.17 Y122.432 I-315.244 J99.531 E.06939
G1 X128.514 Y124.309 E.06889
G1 X128.629 Y126.213 E.06889
G1 X128.516 Y128.088 E.06781
G1 E-1.2 F2400
;WIPE_START
G1 F9000
G1 X128.166 Y130.008
G1 X128.152 Y130.054
;WIPE_END
G1 X123.568 Y111.794 Z.4
G1 Z.4
G1 Z.2
G1 E1.2 F1800
;TYPE:Bottom surface
;WIDTH:0.504973
G1 F4800
G1 X125.768 Y113.995 E.11358
G1 X126.998 Y115.442 E.06931
G1 X127.915 Y116.795 E.05964
G1 X122.277 Y111.157 E.291
G1 X121.165 Y110.488 E.04735
G1 X120.774 Y110.307 E.01576
G1 X128.728 Y118.262 E.41061
G1 X128.982 Y118.74 E.01975
G1 X129.266 Y119.453 E.028
G1 X119.557 Y109.744 E.50113
G1 X119.416 Y109.679 E.00567
G1 X118.545 Y109.386 E.03355
G1 X120.87 Y111.71 E.11998
G1 X120.578 Y111.534 E.01242
G1 X119.599 Y111.093 E.03921
G1 X117.564 Y109.058 E.10502
G1 X116.726 Y108.874 E.03131
G1 X118.465 Y110.613 E.08976
G1 X117.519 Y110.319 E.03618
G1 X115.889 Y108.689 E.08414
G2 X115.133 Y108.587 I-.848 J3.422 E.02789
G1 X116.604 Y110.058 E.07593
G1 X115.804 Y109.911 E.0297
G1 X114.4 Y108.507 E.07246
G1 X113.682 Y108.443 E.02629
G1 X115.003 Y109.764 E.06819
G1 X114.884 Y109.742 E.00442
G1 X114.293 Y109.707 E.02162
G1 X113.028 Y108.442 E.06528
G1 X112.374 Y108.442 E.02388
G1 X113.598 Y109.666 E.06318
G1 X112.903 Y109.625 E.0254
G1 X111.738 Y108.459 E.06016
G1 X111.147 Y108.522 E.02168
G1 X112.271 Y109.645 E.05799
G1 X111.655 Y109.683 E.02252
G1 X110.557 Y108.585 E.05668
G1 X109.966 Y108.648 E.02168
G1 X111.039 Y109.72 E.05537
G2 X110.466 Y109.801 I.048 J2.43 E.02117
G1 X109.429 Y108.764 E.05351
G1 X108.893 Y108.882 E.02001
G1 X109.913 Y109.901 E.05263
G1 X109.36 Y110.002 E.02051
G1 X108.358 Y109 E.05174
G2 X107.844 Y109.139 I.384 J2.435 E.01948
G1 X108.814 Y110.11 E.05011
G1 X108.316 Y110.264 E.01906
G1 X107.355 Y109.304 E.04959
G1 X106.866 Y109.468 E.01882
G1 X107.817 Y110.419 E.04907
G1 X107.318 Y110.574 E.01906
G1 X106.377 Y109.633 E.04855
G2 X105.919 Y109.828 I.666 J2.204 E.01822
G1 X106.834 Y110.743 E.04723
G1 X106.382 Y110.945 E.01805
G1 X105.472 Y110.035 E.04698
G1 X105.025 Y110.241 E.01797
G1 X105.931 Y111.147 E.04674
G1 X105.479 Y111.349 E.01805
G1 X104.579 Y110.448 E.0465
G2 X104.163 Y110.686 I.887 J2.03 E.01751
G1 X105.041 Y111.564 E.04533
G1 X104.634 Y111.81 E.01737
G1 X103.755 Y110.931 E.04537
G1 X103.347 Y111.177 E.01738
G1 X104.227 Y112.057 E.0454
G1 X103.819 Y112.303 E.01737
G1 X102.939 Y111.422 E.04544
G2 X102.559 Y111.696 I1.066 J1.884 E.01712
G1 X103.412 Y112.549 E.04404
G2 X103.041 Y112.831 I.955 J1.645 E.01707
G1 X102.188 Y111.978 E.04402
G1 X101.817 Y112.26 E.01702
G1 X102.675 Y113.118 E.0443
G1 X102.309 Y113.406 E.01698
G1 X101.445 Y112.542 E.04459
G2 X101.096 Y112.847 I1.226 J1.757 E.01694
G1 X101.943 Y113.694 E.04372
G2 X101.601 Y114.005 I1.134 J1.592 E.01692
G1 X100.761 Y113.165 E.04338
G1 X100.425 Y113.483 E.01687
G1 X101.274 Y114.332 E.04383
G1 X100.948 Y114.658 E.01686
G1 X100.09 Y113.8 E.04428
G2 X99.77 Y114.134 I1.376 J1.636 E.0169
G1 X100.621 Y114.985 E.0439
G2 X100.312 Y115.33 I1.262 J1.443 E.01693
G1 X99.47 Y114.488 E.04345
G1 X99.17 Y114.841 E.01692
G1 X100.025 Y115.696 E.04412
G1 X99.738 Y116.062 E.01699
G1 X98.87 Y115.194 E.0448
G2 X98.581 Y115.559 I1.529 J1.512 E.01701
G1 X99.451 Y116.429 E.04492
G1 X99.164 Y116.795 E.01699
G1 X98.317 Y115.948 E.04373
G1 X98.052 Y116.337 E.01717
G1 X98.914 Y117.199 E.04446
G1 X98.668 Y117.606 E.01737
G1 X97.788 Y116.727 E.0454
G2 X97.532 Y117.124 I1.697 J1.377 E.01728
G1 X98.422 Y118.014 E.04594
G1 X98.176 Y118.421 E.01737
G1 X97.306 Y117.551 E.04493
G1 X97.079 Y117.978 E.01764
G1 X97.965 Y118.864 E.04573
G1 X97.762 Y119.314 E.01803
G1 X96.853 Y118.405 E.04694
G2 X96.635 Y118.841 I1.895 J1.219 E.01781
G1 X97.559 Y119.765 E.0477
G1 X97.356 Y120.215 E.01803
G1 X96.449 Y119.308 E.04683
G1 X96.263 Y119.775 E.01836
G1 X97.191 Y120.704 E.04793
G1 X97.037 Y121.203 E.01907
G1 X96.077 Y120.242 E.04957
G2 X95.907 Y120.727 I2.142 J1.02 E.01876
G1 X96.882 Y121.702 E.05033
G1 X96.728 Y122.201 E.01907
G1 X95.765 Y121.238 E.04969
G1 X95.623 Y121.75 E.01937
G1 X96.617 Y122.743 E.05128
G1 X96.516 Y123.295 E.02049
G1 X95.481 Y122.261 E.05339
G2 X95.377 Y122.81 I2.472 J.754 E.02044
G1 X96.415 Y123.848 E.05355
G2 X96.339 Y124.426 I2.375 J.604 E.02132
G1 X95.285 Y123.371 E.05441
G1 X95.193 Y123.933 E.02076
G1 X96.301 Y125.041 E.05719
G1 X96.263 Y125.656 E.0225
G1 X95.122 Y124.516 E.05887
G1 X95.089 Y125.135 E.02266
G1 X96.232 Y126.279 E.05903
G1 X96.275 Y126.976 E.02548
G1 X95.055 Y125.755 E.06299
G2 X95.04 Y126.394 I2.927 J.388 E.02335
G1 X96.319 Y127.672 E.066
G1 X96.355 Y128.252 E.0212
G1 X96.379 Y128.386 E.00498
G1 X95.077 Y127.085 E.06719
G1 X95.115 Y127.776 E.02525
G1 X96.526 Y129.186 E.07282
G1 X96.672 Y129.986 E.02968
G1 X95.196 Y128.51 E.07622
G1 X95.324 Y129.291 E.02891
G1 X96.938 Y130.906 E.08335
G1 X97.231 Y131.852 E.03616
G1 X95.457 Y130.078 E.09159
G1 X95.708 Y130.983 E.03427
G1 X97.7 Y132.975 E.10282
G1 X98.131 Y133.931 E.0383
G1 X98.326 Y134.254 E.01376
G1 X95.664 Y131.592 E.13742
G1 E-1.2 F2400
;WIPE_START
G1 F9000
G1 X97.078 Y133.006
;WIPE_END
G1 X100.462 Y131.242 Z.4
G1 X126.721 Y117.561 Z.4
G1 Z.2
G1 E1.2 F1800
G1 F4800
G1 X129.697 Y120.538 E.15364
G1 X129.948 Y121.442 E.03427
G1 X127.957 Y119.45 E.1028
G1 X128.329 Y120.276 E.03304
G1 X128.42 Y120.567 E.01114
G1 X130.2 Y122.347 E.09186
G1 X130.333 Y123.134 E.02914
G1 X128.716 Y121.516 E.08349
G1 X128.958 Y122.295 E.02975
G1 X128.985 Y122.439 E.00535
G1 X130.461 Y123.915 E.07623
G3 X130.542 Y124.65 I-3.336 J.739 E.02701
G1 X129.131 Y123.239 E.07283
G1 X129.278 Y124.039 E.02968
M73 P2 R31
G1 X130.58 Y125.341 E.0672
G1 X130.617 Y126.031 E.02525
G1 X129.338 Y124.753 E.066
G1 X129.382 Y125.449 E.02548
G1 X130.602 Y126.67 E.063
G1 X130.569 Y127.29 E.02266
G1 X129.425 Y126.146 E.05904
G1 X129.395 Y126.769 E.02277
G1 X130.535 Y127.91 E.05887
G3 X130.464 Y128.493 I-2.716 J-.033 E.02147
G1 X129.356 Y127.385 E.05719
G1 X129.318 Y128 E.0225
G1 X130.372 Y129.054 E.05441
G1 X130.28 Y129.615 E.02076
G1 X129.243 Y128.578 E.05355
G1 X129.142 Y129.13 E.02049
G1 X130.176 Y130.165 E.05339
G1 X130.034 Y130.676 E.01937
G1 X129.041 Y129.682 E.05128
G3 X128.929 Y130.225 I-2.324 J-.193 E.02025
G1 X129.892 Y131.187 E.04969
G1 X129.75 Y131.699 E.01937
G1 X128.775 Y130.724 E.05033
G1 X128.621 Y131.223 E.01907
G1 X129.581 Y132.183 E.04957
G1 X129.395 Y132.65 E.01836
G1 X128.466 Y131.722 E.04793
