;TIME:1444.83
;Filament used:2.15915m
;Layer height:0.200
; HEADER_BLOCK_START
; generated by Creality_Print V6.2.2.3134 on 2025-08-30 at 19:24:24
; total layer number: 50
; filament_density: 1.24
; filament_diameter: 1.75
; max_z_height: 10.00
; creality_uuid: 02dfc566-b4b6-4175-a4ba-209712c2e8f4
; HEADER_BLOCK_END

; MINX = 89.72
; MINY = 89.96
; MINZ = 0.00
; MAXX = 130.28
; MAXY = 130.04
; MAXZ = 10.00

; THUMBNAIL_BLOCK_START

;
; THUMBNAIL_BLOCK_END

; THUMBNAIL_BLOCK_START

;
; THUMBNAIL_BLOCK_END

; external perimeters extrusion width = 0.42mm
; perimeters extrusion width = 0.45mm
; infill extrusion width = 0.45mm
; solid infill extrusion width = 0.42mm
; top infill extrusion width = 0.42mm
; first layer extrusion width = 0.50mm

; external perimeters extrusion width = 0.42mm
; perimeters extrusion width = 0.45mm
; infill extrusion width = 0.45mm
; solid infill extrusion width = 0.42mm
; top infill extrusion width = 0.42mm
; first layer extrusion width = 0.50mm

; EXECUTABLE_BLOCK_START
M73 P0 R24
M201 X5000 Y5000 Z500 E5000
M203 X500 Y500 Z30 E100
M204 P5000 R2500 T5000 ; sets acceleration (P, T) and retract acceleration (R), mm/sec^2
M205 X10.00 Y10.00 Z0.40 E5.00 ; sets the jerk limits, mm/sec
;TYPE:Custom
M220 S100 ;Reset Feedrate 
M221 S100 ;Reset Flowrate 
 
M140 S50 ;Set final bed temp 
G28 ;Home 
 
G92 E0 ;Reset Extruder 
G1 Z2.0 F3000 ;Move Z Axis up 
M104 S190 ;Set final nozzle temp 
G1 X-2.1 Y20 Z0.28 F5000.0 ;Move to start position 
M190 S50 ;Wait for bed temp to stabilize 
M109 S190 ;Wait for nozzle temp to stabilize 
G1 X-2.1 Y145.0 Z0.28 F1500.0 E15 ;Draw the first line 
G1 X-2.4 Y145.0 Z0.28 F5000.0 ;Move to side a little 
M73 P0 R23
G1 X-2.4 Y20 Z0.28 F1500.0 E30 ;Draw the second line 
G92 E0  ;Reset Extruder 
G1 E-1.0000 F1800 ;Retract a bit 
G1 Z2.0 F3000 ;Move Z Axis up 
G1 E0.0000 F1800
G90
G21
M83 ; use relative distances for extrusion
;filament start gcode
G1 E-1.2 F2400
M106 S0
;LAYER_CHANGE
;Z:0.2
;HEIGHT:0.2
;BEFORE_LAYER_CHANGE
;0.2
G92 E0

;_SET_FAN_SPEED_CHANGING_LAYER
M204 P500
M205 X10 Y10
; printing object Object_1 id:0 copy 0
M204 T500
G1 X95.409 Y102.4 Z.2 F9000
G1 E1.2 F1800
;TYPE:Inner wall
;WIDTH:0.499999
G1 X94.952 Y102.213 E.01784
G3 X100.178 Y93.112 I2.262 J-4.752 E.62626
G3 X102.477 Y97.484 I-3.068 J4.403 E.18536
G3 X95.532 Y102.448 I-5.263 J-.024 E.35947
G1 X95.446 Y102.414 E.00332
G1 X95.673 Y102.962 F9000
G1 F1800
G1 X95.385 Y102.882 E.01078
G3 X101.033 Y93.197 I1.824 J-5.426 E.7334
G3 X102.934 Y97.511 I-3.961 J4.321 E.17518
G3 X96.017 Y103.055 I-5.724 J-.054 E.36605
G1 X95.712 Y102.972 E.01143
G1 X95.931 Y103.505 F9000
G1 F1800
G1 X95.924 Y103.497 E.00038
G3 X100.179 Y92.032 I1.287 J-6.044 E.76591
G3 X103.39 Y97.538 I-3.016 J5.448 E.2416
M73 P1 R23
G3 X96.665 Y103.608 I-6.179 J-.086 E.36711
G1 X95.97 Y103.51 E.02532
G1 X96.09 Y103.991 F9000
G1 F1800
G1 X95.83 Y103.94 E.00956
G3 X94.362 Y103.455 I1.425 J-6.777 E.05596
G3 X97.424 Y90.819 I2.864 J-5.995 E.65393
G3 X101.084 Y92.061 I-.301 J6.9 E.14144
G3 X103.846 Y97.566 I-3.942 J5.424 E.23104
G1 X103.806 Y98.242 E.02446
G3 X98.973 Y103.859 I-6.6 J-.79 E.28381
G1 X98.178 Y104.027 E.02936
G3 X96.624 Y104.06 I-.923 J-6.863 E.05622
G1 X96.13 Y103.996 E.018
G1 X96.516 Y104.518 F9000
;TYPE:Outer wall
G1 F1800
G1 X95.733 Y104.399 E.02859
G1 X94.946 Y104.184 E.02946
G1 X94.165 Y103.869 E.03042
G1 X93.421 Y103.459 E.03065
G1 X92.738 Y102.969 E.03036
G1 X92.117 Y102.401 E.03037
G1 X91.568 Y101.764 E.03037
G1 X91.098 Y101.067 E.03037
G1 X90.714 Y100.318 E.03037
G1 X90.421 Y99.53 E.03037
G1 X90.224 Y98.712 E.03037
G1 X90.124 Y97.877 E.03037
G1 X90.124 Y97.036 E.03037
G1 X90.224 Y96.201 E.03037
G1 X90.421 Y95.383 E.03037
G1 X90.714 Y94.594 E.03037
G1 X91.098 Y93.846 E.03037
G1 X91.568 Y93.148 E.03037
G1 X92.117 Y92.511 E.03037
G1 X92.738 Y91.944 E.03037
G1 X93.421 Y91.453 E.03036
G1 X94.165 Y91.044 E.03065
G1 X94.941 Y90.73 E.03022
G1 X95.747 Y90.51 E.03017
G1 X96.574 Y90.386 E.0302
G1 X97.438 Y90.361 E.03121
G1 X98.267 Y90.436 E.03006
G1 X99.089 Y90.61 E.03032
G1 X99.884 Y90.88 E.03034
G1 X100.62 Y91.23 E.02941
G1 X101.35 Y91.689 E.03114
G1 X102.003 Y92.218 E.03035
G1 X102.589 Y92.822 E.03037
G1 X103.099 Y93.49 E.03037
G1 X103.527 Y94.215 E.03037
G1 X103.866 Y94.984 E.03037
G1 X104.112 Y95.789 E.03037
G3 X104.302 Y97.593 I-8.664 J1.827 E.06561
G1 X104.261 Y98.296 E.02544
G1 X104.112 Y99.124 E.03037
G1 X103.866 Y99.928 E.03037
G1 X103.527 Y100.698 E.03037
G1 X103.099 Y101.422 E.03037
G1 X102.594 Y102.084 E.03006
G1 X102.003 Y102.695 E.03069
G1 X101.35 Y103.224 E.03036
G1 X100.639 Y103.673 E.03036
G1 X99.862 Y104.042 E.03105
G1 X99.094 Y104.301 E.02927
G1 X98.245 Y104.48 E.03133
G1 X97.408 Y104.553 E.03033
G1 X96.582 Y104.528 E.02983
G1 X96.556 Y104.524 E.00096
G1 E-1.2 F2400
;WIPE_START
G1 F9000
G1 X95.733 Y104.399
G1 X94.946 Y104.184
G1 X94.62 Y104.052
;WIPE_END
G1 X97.75 Y101.869 Z.4
G1 X98.711 Y101.198 Z.4
G1 Z.2
G1 E1.2 F1800
;TYPE:Inner wall
G1 X95.682 Y101.205 E.10935
G1 X95.294 Y101.168 E.01407
G1 X94.79 Y101.001 E.01918
G1 X94.294 Y100.665 E.02162
G1 X93.762 Y100.061 E.02908
G3 X93.268 Y99.231 I3.567 J-2.684 E.03493
G3 X92.949 Y98.215 I5.334 J-2.23 E.03852
G3 X92.889 Y97.201 I7.512 J-.953 E.03669
G3 X93.295 Y95.625 I5.12 J.478 E.05903
G3 X94.495 Y94.087 I4.12 J1.979 E.07095
G1 X95.196 Y93.632 E.03018
G3 X99.746 Y93.948 I2.017 J3.862 E.17331
G1 X100.353 Y94.487 E.0293
G3 X101.263 Y95.964 I-3.084 J2.918 E.06308
G3 X101.412 Y98.456 I-4.072 J1.495 E.09144
G1 X101.266 Y98.972 E.01935
G1 X100.916 Y99.685 E.02867
G3 X100.036 Y100.745 I-4.779 J-3.069 E.04987
G1 X99.521 Y101.051 E.02162
G1 X98.904 Y101.198 E.0229
G1 X98.751 Y101.198 E.00554
G1 X99.16 Y100.673 F9000
G1 F1800
G1 X98.868 Y100.742 E.01086
G3 X95.682 Y100.748 I-2.093 J-312.229 E.11502
G1 X95.165 Y100.661 E.01895
G1 X94.735 Y100.437 E.01749
G3 X93.675 Y99.022 I2.634 J-3.079 E.06435
G1 X93.425 Y98.243 E.02955
G3 X93.444 Y96.583 I4.193 J-.782 E.06033
G1 X93.537 Y96.25 E.01247
G1 X93.782 Y95.658 E.02311
G1 X94.16 Y95.081 E.02491
G3 X94.794 Y94.434 I3.507 J2.799 E.03278
G1 X95.431 Y94.023 E.02738
G3 X97.036 Y93.593 I1.903 J3.893 E.06034
G1 X97.379 Y93.593 E.01239
G1 X98.021 Y93.67 E.02333
G1 X98.671 Y93.876 E.02465
G3 X99.488 Y94.326 I-1.78 J4.201 E.03373
G1 X100.039 Y94.819 E.02669
G3 X100.885 Y96.25 I-3.174 J2.841 E.06041
G1 X100.978 Y96.583 E.01247
G1 X101.077 Y97.234 E.02378
G1 X101.052 Y97.902 E.02414
G3 X100.511 Y99.472 I-4.115 J-.54 E.06035
G3 X99.748 Y100.39 I-4.575 J-3.025 E.0432
G1 X99.348 Y100.628 E.01682
G1 X99.199 Y100.663 E.00551
G1 X99.089 Y100.234 F9000
G1 F1800
G1 X99.079 Y100.239 E.00039
G1 X98.74 Y100.29 E.01237
G1 X95.682 Y100.29 E.11041
G1 X95.312 Y100.229 E.01353
G1 X95.006 Y100.069 E.01249
G1 X94.461 Y99.472 E.02919
G1 X94.087 Y98.824 E.02699
G1 X93.866 Y98.122 E.02659
G1 X93.801 Y97.388 E.02659
G3 X94.188 Y95.867 I3.957 J.198 E.05705
G1 X94.538 Y95.338 E.02288
G1 X95.053 Y94.815 E.02653
G1 X95.667 Y94.415 E.02645
G1 X96.373 Y94.151 E.02723
G3 X98.527 Y94.31 I.826 J3.485 E.0792
G1 X99.176 Y94.668 E.02676
G1 X99.725 Y95.151 E.02641
G3 X100.493 Y96.511 I-3.082 J2.636 E.05673
G1 X100.603 Y97.116 E.02222
G1 X100.596 Y97.878 E.02751
G1 X100.426 Y98.595 E.02659
G1 X100.107 Y99.259 E.02659
G3 X99.46 Y100.035 I-4.527 J-3.113 E.03654
G1 X99.124 Y100.215 E.01377
G1 X98.726 Y99.833 F9000
G1 F1800
G1 X95.682 Y99.833 E.1099
G1 X95.385 Y99.765 E.01102
G1 X95.158 Y99.59 E.01036
G1 X94.802 Y99.168 E.01994
G1 X94.491 Y98.611 E.023
G1 X94.307 Y98.001 E.02304
G1 X94.258 Y97.364 E.02304
G1 X94.346 Y96.732 E.02304
G3 X94.963 Y95.534 I3.134 J.855 E.04903
G1 X95.367 Y95.147 E.02019
G1 X95.902 Y94.807 E.0229
G1 X96.518 Y94.585 E.02362
G1 X97.134 Y94.502 E.02247
G1 X97.727 Y94.55 E.02148
G1 X98.383 Y94.744 E.02467
G1 X98.94 Y95.06 E.02314
G1 X99.411 Y95.483 E.02287
G1 X99.784 Y96.003 E.02311
G3 X100.139 Y97.854 I-2.771 J1.491 E.06912
G1 X99.986 Y98.474 E.02304
G1 X99.702 Y99.046 E.02304
G1 X99.264 Y99.59 E.02523
G1 X99 Y99.782 E.01178
G1 X98.766 Y99.828 E.00865
G1 X98.924 Y99.284 F9000
;TYPE:Outer wall
G1 F1800
G1 X98.915 Y99.295 E.00052
G1 X98.758 Y99.376 E.00635
G3 X95.682 Y99.376 I-1.983 J-1880.628 E.11107
G1 X95.528 Y99.316 E.00598
G1 X95.16 Y98.882 E.02055
G1 X94.896 Y98.398 E.0199
G1 X94.747 Y97.879 E.01949
G1 X94.714 Y97.341 E.01949
G1 X94.797 Y96.807 E.01949
G1 X94.993 Y96.304 E.01949
G1 X95.293 Y95.853 E.01958
G1 X95.681 Y95.48 E.01942
G1 X96.138 Y95.199 E.01937
G1 X96.662 Y95.019 E.02001
G1 X97.184 Y94.957 E.01897
G1 X97.714 Y95.008 E.01923
G1 X98.238 Y95.177 E.01989
G1 X98.704 Y95.451 E.01953
G1 X99.097 Y95.815 E.01934
G1 X99.406 Y96.26 E.01956
G1 X99.612 Y96.76 E.0195
G1 X99.701 Y97.266 E.01856
G1 X99.683 Y97.831 E.0204
G1 X99.545 Y98.353 E.01949
G1 X99.298 Y98.833 E.01949
G1 X98.949 Y99.253 E.01973
G1 E-1.2 F2400
;WIPE_START
G1 F9000
G1 X98.915 Y99.295
G1 X98.758 Y99.376
G1 X96.989 Y99.376
;WIPE_END
G1 X101.714 Y95.01 Z.4
G1 Z.4
G1 Z.2
G1 E1.2 F1800
;TYPE:Bottom surface
;WIDTH:0.511143
G1 F4800
G1 X100.494 Y93.79 E.06381
G2 X98.871 Y92.828 I-3.14 J3.451 E.07027
G1 X99.372 Y93.33 E.02625
G1 X99.94 Y93.665 E.02438
G3 X101.369 Y95.327 I-2.856 J3.902 E.08177
G1 X102.156 Y96.114 E.04116
G1 X101.441 Y96.06 F9000
G1 F4800
G1 X102.067 Y96.687 E.03279
G3 X102.133 Y97.415 I-3.022 J.639 E.02709
G1 X101.871 Y97.153 E.01371
G1 X101.855 Y97.8 E.02392
G1 X102.1 Y98.044 E.01279
G1 X101.999 Y98.606 E.02109
G1 X101.783 Y98.39 E.01129
G3 X101.642 Y98.911 I-5.624 J-1.243 E.01997
G1 X101.841 Y99.109 E.01038
G1 X101.646 Y99.576 E.01872
G1 X101.454 Y99.384 E.01005
G1 X101.222 Y99.815 E.01808
G1 X101.414 Y100.007 E.01003
G3 X101.147 Y100.402 I-1.792 J-.923 E.01768
G1 X100.962 Y100.217 E.00967
G1 X100.662 Y100.579 E.01739
G1 X100.848 Y100.766 E.00976
G1 X100.521 Y101.101 E.01732
G1 X100.346 Y100.925 E.00917
G3 X99.966 Y101.208 I-1.191 J-1.205 E.01756
G1 X100.156 Y101.397 E.00992
G3 X99.758 Y101.662 I-1.309 J-1.537 E.01771
G1 X99.512 Y101.416 E.01288
G3 X98.968 Y101.534 I-.651 J-1.684 E.02067
G1 X99.327 Y101.893 E.01876
G3 X98.86 Y102.088 I-1.069 J-1.894 E.01875
G1 X98.319 Y101.547 E.02829
G1 X97.657 Y101.547 E.02449
G1 X98.349 Y102.239 E.03618
G3 X97.788 Y102.34 I-.699 J-2.274 E.02114
G1 X96.995 Y101.547 E.04146
G1 X96.333 Y101.547 E.02449
G1 X97.158 Y102.373 E.04318
G3 X96.433 Y102.309 I-.098 J-3.052 E.02701
G1 X95.442 Y101.318 E.05183
G1 E-1.2 F2400
;WIPE_START
G1 F9000
G1 X96.433 Y102.309
G1 X96.778 Y102.361
G1 X97.027 Y102.369
;WIPE_END
G1 X97.682 Y98.609 Z.4
G1 X98.618 Y93.238 Z.4
G1 Z.2
G1 E1.2 F1800
G1 F4800
G1 X97.973 Y92.593 E.03376
G1 X97.385 Y92.536 E.02185
G1 X97.257 Y92.539 E.00473
G1 X97.523 Y92.805 E.0139
G2 X96.864 Y92.808 I-.319 J2.647 E.02446
G1 X96.629 Y92.573 E.01229
G2 X96.067 Y92.673 I.141 J2.422 E.02116
G1 X96.277 Y92.883 E.01101
G2 X95.765 Y93.033 I.392 J2.293 E.01979
G1 X95.555 Y92.824 E.01096
G1 X95.085 Y93.016 E.01878
G1 X95.278 Y93.209 E.01008
G2 X94.85 Y93.443 I1.09 J2.503 E.01807
G1 X94.658 Y93.251 E.01002
G2 X94.265 Y93.52 I.927 J1.775 E.01766
G1 X94.439 Y93.695 E.00914
G2 X94.084 Y94.001 I1.87 J2.529 E.01735
G1 X93.903 Y93.82 E.00947
G2 X93.571 Y94.15 I1.22 J1.559 E.01736
G1 X93.748 Y94.327 E.00926
G2 X93.454 Y94.696 I2.257 J2.098 E.01745
G1 X93.269 Y94.51 E.00972
G1 X93.002 Y94.906 E.01764
G1 X93.189 Y95.093 E.00977
G2 X92.964 Y95.53 I2.399 J1.508 E.01821
G1 X92.773 Y95.339 E.01002
G2 X92.58 Y95.808 I1.873 J1.045 E.01881
G1 X92.778 Y96.006 E.01036
G2 X92.642 Y96.533 I3.584 J1.203 E.02013
G1 X92.429 Y96.319 E.01116
G2 X92.329 Y96.882 I2.312 J.699 E.02118
G1 X92.556 Y97.108 E.01184
G2 X92.567 Y97.782 I2.952 J.286 E.02498
G1 X92.295 Y97.51 E.01421
G2 X92.353 Y98.23 I3.049 J.119 E.02676
G1 X92.977 Y98.854 E.03265
G1 X92.271 Y98.81 F9000
G1 F4800
G1 X93.105 Y99.644 E.04366
G1 X93.336 Y100.066 E.01778
G2 X94.062 Y100.918 I5.591 J-4.032 E.04146
G2 X94.861 Y101.4 I1.86 J-2.181 E.03468
G1 X95.546 Y102.085 E.03582
G3 X93.764 Y100.965 I1.511 J-4.382 E.07856
G1 X92.719 Y99.921 E.05462
G1 X92.837 Y99.803 F9000
;TYPE:Gap infill
;WIDTH:0.143942
G1 F1800
G1 X92.753 Y99.687 E.00114
;WIDTH:0.128551
G1 X92.669 Y99.572 E.00096
G1 E-1.2 F2400
;WIPE_START
G1 F9000
G1 X92.753 Y99.687
;WIPE_END
G1 X96.191 Y98.031 Z.4
G1 X101.755 Y95.35 Z.4
G1 Z.2
G1 E1.2 F1800
;WIDTH:0.113971
G1 X101.698 Y95.266 E.00057
;WIDTH:0.143534
G2 X101.597 Y95.127 I-1.197 J.755 E.00137
; stop printing object Object_1 id:0 copy 0
; printing object Object_2 id:1 copy 0
G1 E-1.2 F2400
;WIPE_START
G1 F9000
G1 X101.698 Y95.266
;WIPE_END
G1 X105.261 Y96.633 Z.4
G1 X116.151 Y100.812 Z.4
G1 Z.2
G1 E1.2 F1800
;TYPE:Inner wall
;WIDTH:0.499999
G1 X116.886 Y100.873 E.02662
G1 X118.401 Y101.169 E.05574
G1 X119.872 Y101.629 E.05567
G1 X121.284 Y102.248 E.05567
G1 X122.62 Y103.019 E.05567
G1 X123.862 Y103.932 E.05567
G1 X124.996 Y104.977 E.05567
G1 X126.009 Y106.139 E.05567
G1 X126.887 Y107.406 E.05567
G1 X127.621 Y108.762 E.05567
G1 X128.201 Y110.191 E.05567
G1 X128.621 Y111.674 E.05567
G1 X128.875 Y113.195 E.05567
G3 X128.952 Y114.874 I-30.938 J2.264 E.0607
G1 X128.875 Y116.274 E.05061
G1 X128.621 Y117.795 E.05567
G1 X128.201 Y119.278 E.05567
M73 P2 R23
G1 X127.621 Y120.707 E.05567
G1 X126.887 Y122.063 E.05567
G1 X126.009 Y123.33 E.05567
G1 X124.996 Y124.492 E.05567
G1 X123.862 Y125.537 E.05567
G1 X122.62 Y126.45 E.05567
G1 X121.284 Y127.221 E.05567
G1 X119.872 Y127.84 E.05567
G1 X118.401 Y128.3 E.05567
G1 X116.886 Y128.596 E.05574
G1 X115.354 Y128.723 E.05551
G1 X113.794 Y128.679 E.05634
G1 X112.281 Y128.468 E.05515
G1 X110.788 Y128.09 E.0556
G1 X109.344 Y127.55 E.05567
G1 X107.969 Y126.853 E.05567
G1 X106.678 Y126.01 E.05567
G1 X105.488 Y125.03 E.05567
G1 X104.413 Y123.926 E.05564
G1 X103.457 Y122.695 E.05627
G1 X102.658 Y121.395 E.05509
G1 X102 Y120.001 E.05567
G1 X101.5 Y118.542 E.05567
G1 X101.163 Y117.038 E.05567
G1 X100.993 Y115.505 E.05567
G1 X100.993 Y113.964 E.05567
G1 X101.163 Y112.431 E.05567
G1 X101.5 Y110.927 E.05564
G1 X102.007 Y109.454 E.05627
G1 X102.658 Y108.074 E.05508
G1 X103.466 Y106.761 E.05567
G1 X104.413 Y105.544 E.05567
G1 X105.488 Y104.439 E.05567
G1 X106.678 Y103.459 E.05567
G1 X107.969 Y102.616 E.05567
G1 X109.344 Y101.919 E.05567
G1 X110.788 Y101.379 E.05567
G1 X112.283 Y101 E.05569
G1 X113.792 Y100.79 E.055
G1 X115.354 Y100.746 E.0564
G1 X116.111 Y100.809 E.02745
G1 X115.953 Y100.337 F9000
G1 F1800
G1 X116.949 Y100.42 E.03606
G1 X118.513 Y100.725 E.05756
G1 X120.033 Y101.2 E.05749
G1 X121.491 Y101.84 E.05749
G1 X122.87 Y102.636 E.05749
G1 X124.153 Y103.579 E.05749
G1 X125.324 Y104.657 E.05749
G1 X126.37 Y105.858 E.05749
G1 X127.277 Y107.167 E.05749
G1 X128.035 Y108.567 E.05749
G1 X128.634 Y110.042 E.05749
G1 X129.067 Y111.574 E.05749
G1 X129.33 Y113.145 E.05749
G3 X129.408 Y114.899 I-25.655 J2.028 E.06343
G1 X129.33 Y116.324 E.05152
G1 X129.067 Y117.895 E.05749
G1 X128.634 Y119.427 E.05749
G1 X128.035 Y120.902 E.05749
G1 X127.277 Y122.302 E.05749
G1 X126.37 Y123.611 E.05749
G1 X125.324 Y124.812 E.05749
G1 X124.153 Y125.89 E.05749
G1 X122.87 Y126.833 E.05749
G1 X121.491 Y127.629 E.05749
G1 X120.033 Y128.269 E.05749
G1 X118.513 Y128.744 E.05749
G1 X116.949 Y129.049 E.05756
G1 X115.366 Y129.181 E.05734
G1 X113.756 Y129.135 E.05816
G1 X112.193 Y128.918 E.05696
G1 X110.652 Y128.527 E.05742
G1 X109.16 Y127.969 E.05749
G1 X107.74 Y127.25 E.05749
G1 X106.407 Y126.379 E.05749
G1 X105.178 Y125.367 E.05749
G1 X104.068 Y124.226 E.05747
G1 X103.081 Y122.955 E.05809
G1 X102.256 Y121.613 E.0569
G1 X101.576 Y120.173 E.05749
G1 X101.059 Y118.667 E.05749
G1 X100.711 Y117.113 E.05749
G1 X100.536 Y115.531 E.05749
G1 X100.536 Y113.938 E.05749
G1 X100.711 Y112.356 E.05749
G1 X101.059 Y110.803 E.05747
G1 X101.583 Y109.281 E.05809
G1 X102.256 Y107.856 E.0569
G1 X103.09 Y106.5 E.05749
G1 X104.068 Y105.243 E.05749
G1 X105.178 Y104.102 E.05749
G1 X106.407 Y103.09 E.05749
G1 X107.74 Y102.219 E.05749
G1 X109.16 Y101.5 E.05749
G1 X110.652 Y100.942 E.05749
G1 X112.196 Y100.551 E.05751
G1 X113.754 Y100.334 E.05682
G1 X115.366 Y100.288 E.05822
G1 X115.914 Y100.334 E.01984
G1 X115.493 Y99.84 F9000
;TYPE:Outer wall
G1 F1800
G1 X117.012 Y99.966 E.05502
G1 X118.626 Y100.281 E.05938
