;TIME:440.61
;Filament used:0.46018m
;Layer height:0.200
; HEADER_BLOCK_START
; generated by Creality_Print V6.2.2.3134 on 2025-08-31 at 21:22:42
; total layer number: 50
; filament_density: 1.24
; filament_diameter: 1.75
; max_z_height: 10.00
; creality_uuid: 92e30363-b0c5-44c8-bb2b-d2b495dde038
; HEADER_BLOCK_END

; MINX = 102.51
; MINY = 102.50
; MINZ = 0.00
; MAXX = 117.49
; MAXY = 117.50
; MAXZ = 10.00

; THUMBNAIL_BLOCK_START

;
; THUMBNAIL_BLOCK_END

; THUMBNAIL_BLOCK_START

;
; THUMBNAIL_BLOCK_END

; external perimeters extrusion width = 0.42mm
; perimeters extrusion width = 0.45mm
; infill extrusion width = 0.45mm
; solid infill extrusion width = 0.42mm
; top infill extrusion width = 0.42mm
; first layer extrusion width = 0.50mm

; EXECUTABLE_BLOCK_START
M73 P0 R7
M201 X5000 Y5000 Z500 E5000
M203 X500 Y500 Z30 E100
M204 P5000 R2500 T5000 ; sets acceleration (P, T) and retract acceleration (R), mm/sec^2
M205 X10.00 Y10.00 Z0.40 E5.00 ; sets the jerk limits, mm/sec
;TYPE:Custom
M220 S100 ;Reset Feedrate 
M221 S100 ;Reset Flowrate 
 
M140 S50 ;Set final bed temp 
G28 ;Home 
 
G92 E0 ;Reset Extruder 
G1 Z2.0 F3000 ;Move Z Axis up 
M104 S190 ;Set final nozzle temp 
G1 X-2.1 Y20 Z0.28 F5000.0 ;Move to start position 
M190 S50 ;Wait for bed temp to stabilize 
M109 S190 ;Wait for nozzle temp to stabilize 
G1 X-2.1 Y145.0 Z0.28 F1500.0 E15 ;Draw the first line 
G1 X-2.4 Y145.0 Z0.28 F5000.0 ;Move to side a little 
M73 P1 R7
G1 X-2.4 Y20 Z0.28 F1500.0 E30 ;Draw the second line 
G92 E0  ;Reset Extruder 
G1 E-1.0000 F1800 ;Retract a bit 
M73 P2 R7
G1 Z2.0 F3000 ;Move Z Axis up 
G1 E0.0000 F1800
G90
G21
M83 ; use relative distances for extrusion
;filament start gcode
G1 E-1.2 F2400
M106 S0
;LAYER_CHANGE
;Z:0.2
;HEIGHT:0.2
;BEFORE_LAYER_CHANGE
;0.2
G92 E0

;_SET_FAN_SPEED_CHANGING_LAYER
M204 P500
M205 X10 Y10
; printing object Object_1 id:7811887588677804407 copy 0
M204 T500
G1 X108.872 Y116.535 Z.2 F9000
G1 E1.2 F1800
;TYPE:Inner wall
;WIDTH:0.499999
G1 X108.612 Y116.484 E.00956
G3 X107.144 Y115.999 I1.425 J-6.777 E.05596
G3 X110.206 Y103.362 I2.864 J-5.995 E.65393
G3 X113.866 Y104.605 I-.301 J6.9 E.14144
G3 X116.628 Y110.109 I-3.944 J5.424 E.23104
G1 X116.588 Y110.786 E.02446
G3 X111.755 Y116.403 I-6.6 J-.79 E.28381
G1 X110.96 Y116.57 E.02936
M73 P3 R7
G3 X109.406 Y116.603 I-.923 J-6.863 E.05622
G1 X108.912 Y116.54 E.018
G1 X109.298 Y117.061 F9000
;TYPE:Outer wall
G1 F1800
G1 X108.515 Y116.943 E.02859
G1 X107.728 Y116.728 E.02946
G1 X106.947 Y116.412 E.03042
G1 X106.204 Y116.003 E.03065
G1 X105.52 Y115.513 E.03036
G1 X104.9 Y114.945 E.03037
G1 X104.351 Y114.308 E.03037
G1 X103.881 Y113.61 E.03037
G1 X103.497 Y112.862 E.03037
G1 X103.204 Y112.073 E.03037
G1 X103.006 Y111.256 E.03037
G1 X102.907 Y110.421 E.03037
G1 X102.907 Y109.579 E.03037
G1 X103.006 Y108.744 E.03037
G1 X103.204 Y107.927 E.03037
G1 X103.497 Y107.138 E.03037
G1 X103.881 Y106.39 E.03037
G1 X104.351 Y105.692 E.03037
G1 X104.9 Y105.055 E.03037
G1 X105.52 Y104.487 E.03037
G1 X106.204 Y103.997 E.03036
G1 X106.947 Y103.588 E.03065
G1 X107.723 Y103.274 E.03022
G1 X108.529 Y103.053 E.03017
G1 X109.356 Y102.929 E.0302
G1 X110.22 Y102.905 E.03121
G1 X111.049 Y102.98 E.03006
G1 X111.871 Y103.154 E.03032
G1 X112.667 Y103.423 E.03034
G1 X113.402 Y103.774 E.02941
G1 X114.133 Y104.232 E.03114
G1 X114.785 Y104.762 E.03035
G1 X115.371 Y105.365 E.03037
G1 X115.882 Y106.034 E.03037
G1 X116.309 Y106.758 E.03037
G1 X116.648 Y107.528 E.03037
G3 X117.085 Y110.136 I-7.095 J2.527 E.09598
G1 X117.043 Y110.84 E.02544
G1 X116.894 Y111.668 E.03037
G1 X116.648 Y112.472 E.03037
G1 X116.309 Y113.242 E.03037
G1 X115.882 Y113.966 E.03037
G1 X115.376 Y114.628 E.03006
G1 X114.785 Y115.238 E.03069
G1 X114.132 Y115.768 E.03036
G1 X113.421 Y116.217 E.03036
G1 X112.644 Y116.585 E.03105
G1 X111.876 Y116.845 E.02927
G1 X111.027 Y117.023 E.03133
G1 X110.19 Y117.096 E.03033
G1 X109.364 Y117.071 E.02983
G1 X109.338 Y117.067 E.00096
G1 E-1.2 F2400
;WIPE_START
G1 F9000
G1 X108.515 Y116.943
G1 X107.728 Y116.728
G1 X107.402 Y116.596
;WIPE_END
G1 X107.837 Y112.805 Z.4
G1 X107.918 Y112.094 Z.4
G1 Z.2
G1 E1.2 F1800
;TYPE:Inner wall
G1 X107.83 Y112.014 E.00429
G1 X107.446 Y111.498 E.02323
G1 X107.139 Y110.766 E.02865
G1 X107.046 Y110.237 E.01938
G1 X107.061 Y109.633 E.02182
G1 X107.193 Y109.073 E.02078
G1 X107.492 Y108.426 E.02573
G1 X107.893 Y107.921 E.02327
G1 X108.391 Y107.517 E.02316
G1 X108.971 Y107.228 E.02338
G1 X109.602 Y107.071 E.0235
G3 X110.937 Y107.197 I.371 J3.209 E.04874
G1 X111.465 Y107.438 E.02095
G1 X111.986 Y107.818 E.02332
G1 X112.408 Y108.297 E.02302
G1 X112.722 Y108.865 E.02343
G3 X112.945 Y110.197 I-3.121 J1.208 E.04911
G1 X112.847 Y110.766 E.02084
G1 X112.613 Y111.367 E.02328
G1 X112.254 Y111.904 E.02334
G1 X111.754 Y112.379 E.02491
G1 X111.475 Y112.532 E.01148
G3 X108.694 Y112.557 I-1.796 J-45.774 E.10043
G1 X108.472 Y112.52 E.00812
G1 X108.21 Y112.358 E.01111
G1 X107.948 Y112.12 E.01279
G1 X108.522 Y112.024 F9000
;TYPE:Outer wall
G1 F1800
G1 X108.139 Y111.676 E.01868
G1 X107.819 Y111.234 E.01972
G1 X107.589 Y110.685 E.02148
G1 X107.499 Y110.183 E.01839
G1 X107.518 Y109.652 E.01921
G1 X107.652 Y109.123 E.01969
G1 X107.898 Y108.636 E.01969
G1 X108.244 Y108.214 E.01969
G1 X108.67 Y107.879 E.01957
G1 X109.165 Y107.642 E.01981
G1 X109.701 Y107.518 E.01988
G1 X110.24 Y107.512 E.01947
G1 X110.765 Y107.623 E.01935
G1 X111.272 Y107.852 E.02011
G1 X111.708 Y108.18 E.01969
G1 X112.057 Y108.59 E.01944
G1 X112.316 Y109.076 E.01989
G1 X112.461 Y109.602 E.01972
G1 X112.489 Y110.147 E.01969
G1 X112.398 Y110.685 E.01969
G1 X112.192 Y111.19 E.01969
G1 X111.88 Y111.64 E.01975
G1 X111.446 Y112.041 E.02133
G1 X111.293 Y112.1 E.00594
G1 X108.694 Y112.1 E.09384
G1 X108.555 Y112.046 E.00539
G1 E-1.2 F2400
;WIPE_START
G1 F9000
G1 X108.139 Y111.676
G1 X107.819 Y111.234
G1 X107.589 Y110.685
G1 X107.536 Y110.387
;WIPE_END
G1 X115.584 Y106.699 Z.4
G1 Z.4
G1 Z.2
G1 E1.2 F1800
;TYPE:Bottom surface
;WIDTH:0.508874
G1 F4800
G1 X114.212 Y105.327 E.07143
G1 X113.666 Y104.884 E.02588
G2 X112.416 Y104.19 I-3.601 J5.015 E.05273
G1 X115.79 Y107.564 E.17562
G1 X115.897 Y107.807 E.00978
G1 X116.121 Y108.554 E.0287
G1 X111.449 Y103.882 E.24319
G2 X110.656 Y103.747 I-.965 J3.278 E.0297
M73 P4 R7
G1 X116.252 Y109.344 E.29133
G1 X116.289 Y110.04 E.02564
G1 X109.969 Y103.719 E.329
G1 X109.332 Y103.742 E.02344
G1 X116.252 Y110.662 E.3602
G1 X116.16 Y111.229 E.02114
G1 X108.759 Y103.828 E.38525
G1 X108.235 Y103.963 E.01991
G1 X111.219 Y106.947 E.15533
G1 X111.722 Y107.187 E.02051
G1 X112.249 Y107.59 E.0244
G1 X112.674 Y108.081 E.02391
G1 X112.792 Y108.257 E.0078
G1 X113.045 Y108.773 E.02115
G1 X116.03 Y111.758 E.15537
G3 X115.87 Y112.256 I-2.172 J-.425 E.01932
G1 X113.263 Y109.649 E.13569
G3 X113.276 Y110.321 I-3.394 J.401 E.02477
G1 X115.668 Y112.713 E.12453
G3 X115.439 Y113.143 I-1.918 J-.748 E.01797
G1 X113.171 Y110.875 E.11804
G3 X112.987 Y111.35 I-2.012 J-.507 E.01879
G1 X115.19 Y113.553 E.11469
G1 X114.905 Y113.927 E.0173
G1 X112.757 Y111.78 E.11178
G1 X112.485 Y112.166 E.0174
G1 X114.599 Y114.28 E.11008
G1 X114.275 Y114.615 E.01715
G1 X112.142 Y112.482 E.11106
G1 X111.904 Y112.699 E.01185
G1 X111.775 Y112.774 E.00549
G1 X113.915 Y114.914 E.1114
G3 X113.539 Y115.197 I-1.374 J-1.438 E.01736
G1 X111.242 Y112.9 E.11956
G1 X110.583 Y112.9 E.02425
G1 X113.135 Y115.452 E.13283
G3 X112.698 Y115.674 I-1.137 J-1.69 E.01808
G1 X109.924 Y112.9 E.14442
G1 X109.265 Y112.9 E.02425
G1 X112.404 Y116.039 E.1634
G1 E-1.2 F2400
;WIPE_START
M73 P4 R6
G1 F9000
G1 X110.99 Y114.625
;WIPE_END
G1 X110.793 Y110.814 Z.4
G1 X110.594 Y106.98 Z.4
G1 Z.2
G1 E1.2 F1800
G1 F4800
G1 X107.742 Y104.129 E.14844
G1 X107.275 Y104.32 E.01859
G1 X109.673 Y106.718 E.12481
G2 X109.125 Y106.829 I.264 J2.709 E.02061
G1 X106.85 Y104.554 E.11842
G2 X106.445 Y104.808 I.858 J1.817 E.01764
M73 P5 R6
G1 X108.644 Y107.007 E.11445
G1 X108.31 Y107.161 E.01354
G1 X108.212 Y107.234 E.00449
G1 X106.061 Y105.084 E.11196
G2 X105.713 Y105.395 I1.132 J1.616 E.01722
G1 X107.836 Y107.518 E.1105
G1 X107.723 Y107.603 E.00522
G1 X107.512 Y107.853 E.01203
G1 X105.381 Y105.721 E.11094
G1 X105.076 Y106.075 E.0172
G1 X107.22 Y108.219 E.11161
G1 X106.996 Y108.654 E.018
G1 X104.799 Y106.458 E.11433
G2 X104.54 Y106.857 I1.547 J1.289 E.01757
G1 X106.826 Y109.143 E.11901
G1 X106.725 Y109.536 E.01493
G1 X106.719 Y109.695 E.00584
G1 X104.316 Y107.292 E.12505
G2 X104.12 Y107.755 I1.846 J1.054 E.01855
G1 X106.98 Y110.615 E.14887
G1 E-1.2 F2400
;WIPE_START
G1 F9000
G1 X105.566 Y109.201
;WIPE_END
G1 X103.782 Y108.076 Z.4
G1 Z.2
G1 E1.2 F1800
G1 F4800
G1 X106.957 Y111.251 E.16526
G1 X107.092 Y111.574 E.0129
G1 X107.514 Y112.18 E.02719
G1 X108.095 Y112.709 E.02891
G1 X108.362 Y112.846 E.01103
G1 X108.59 Y112.884 E.00853
G1 X111.749 Y116.043 E.16444
G3 X111.214 Y116.167 I-.784 J-2.181 E.02028
G1 X103.822 Y108.775 E.38478
G2 X103.739 Y109.351 I2.38 J.634 E.02149
G1 X110.642 Y116.254 E.35931
G3 X110.02 Y116.291 I-.468 J-2.619 E.02299
G1 X103.706 Y109.977 E.32865
G2 X103.742 Y110.672 I2.933 J.198 E.02566
G1 X109.327 Y116.257 E.29071
G1 X108.681 Y116.159 E.02404
G1 X108.529 Y116.118 E.00581
G1 X103.881 Y111.469 E.24196
G2 X104.194 Y112.441 I4.236 J-.828 E.03767
G1 X107.543 Y115.79 E.17433
G1 X107.291 Y115.689 E.00998
G3 X105.541 Y114.448 I3.085 J-6.206 E.07928
G1 X104.385 Y113.292 E.06018
G1 X104.503 Y113.174 F9000
;TYPE:Gap infill
;WIDTH:0.143225
G1 F1800
G1 X104.42 Y113.06 E.00111
;WIDTH:0.128073
G1 X104.337 Y112.947 E.00095
G1 E-1.2 F2400
;WIPE_START
G1 F9000
G1 X104.42 Y113.06
;WIPE_END
G1 X107.792 Y111.274 Z.4
G1 X115.683 Y107.094 Z.4
G1 Z.2
M73 P6 R6
G1 E1.2 F1800
;WIDTH:0.116861
G1 X115.573 Y106.952 E.00105
;WIDTH:0.135952
G1 X115.468 Y106.816 E.00127
; stop printing object Object_1 id:7811887588677804407 copy 0
;TIME_ELAPSED:26.596010

M106 S255
;LAYER_CHANGE
;Z:0.4
;HEIGHT:0.2
;BEFORE_LAYER_CHANGE
;0.4
G92 E0

G1 E-1.2 F2400
;WIPE_START
G1 F9000
G1 X115.573 Y106.952
;WIPE_END
;_SET_FAN_SPEED_CHANGING_LAYER
M204 P2500
; printing object Object_1 id:7811887588677804407 copy 0
M204 T2500
G1 X113.442 Y110.117 Z.4
G1 X108.939 Y116.804 Z.4
G1 E1.2 F1800
M204 P2000
;TYPE:Inner wall
;WIDTH:0.449999
G1 F5400
G1 X108.603 Y116.755 E.01092
G1 X107.808 Y116.541 E.02647
G1 X107.048 Y116.236 E.02636
G1 X106.311 Y115.832 E.02701
G1 X105.648 Y115.356 E.02626
G1 X105.045 Y114.804 E.02628
G1 X104.511 Y114.185 E.02628
G1 X104.055 Y113.507 E.02628
G1 X103.682 Y112.78 E.02628
G1 X103.397 Y112.014 E.02628
G1 X103.205 Y111.22 E.02628
G1 X103.109 Y110.409 E.02628
G1 X103.109 Y109.591 E.02628
G1 X103.205 Y108.78 E.02628
G1 X103.397 Y107.987 E.02625
G1 X103.693 Y107.198 E.02709
G1 X104.055 Y106.493 E.02549
G1 X104.511 Y105.815 E.02628
G1 X105.045 Y105.196 E.02628
G1 X105.648 Y104.644 E.02628
G1 X106.311 Y104.168 E.02626
G1 X107.048 Y103.764 E.02702
G3 X110.944 Y103.171 I2.983 J6.499 E.1284
G1 X111.831 Y103.353 E.02911
G3 X114.014 Y104.396 I-2.196 J7.399 E.07812
G1 X114.649 Y104.911 E.02628
G1 X115.218 Y105.498 E.02628
G1 X115.714 Y106.147 E.02628
G1 X116.129 Y106.851 E.02628
G1 X116.459 Y107.599 E.02628
G3 X116.883 Y110.124 I-6.941 J2.464 E.08278
G1 X116.842 Y110.816 E.02227
G1 X116.697 Y111.62 E.02628
G1 X116.459 Y112.401 E.02628
G1 X116.129 Y113.149 E.02628
G1 X115.714 Y113.853 E.02628
G1 X115.218 Y114.502 E.02628
G1 X114.649 Y115.089 E.02628
G1 X114.014 Y115.604 E.02628
G1 X113.323 Y116.04 E.02629
G3 X109.38 Y116.869 I-3.391 J-6.334 E.13131
G1 X108.979 Y116.81 E.01305
G1 X109.376 Y117.262 F9000
M204 P1000
;TYPE:Outer wall
;WIDTH:0.419999
G1 F3600
G1 X109.348 Y117.261 E.00086
G1 X108.523 Y117.139 E.02481
G1 X107.684 Y116.914 E.02589
G1 X106.88 Y116.591 E.02582
G1 X106.102 Y116.164 E.02643
G1 X105.4 Y115.661 E.02572
G1 X104.763 Y115.078 E.02573
G1 X104.199 Y114.423 E.02573
G1 X103.717 Y113.707 E.02573
G1 X103.322 Y112.939 E.02573
G1 X103.022 Y112.129 E.02573
G1 X102.819 Y111.289 E.02573
G1 X102.717 Y110.432 E.02573
G1 X102.717 Y109.568 E.02573
G1 X102.819 Y108.711 E.02573
G1 X103.022 Y107.871 E.02572
G1 X103.334 Y107.039 E.02648
G1 X103.717 Y106.293 E.02498
G1 X104.199 Y105.577 E.02573
G1 X104.763 Y104.922 E.02573
G1 X105.4 Y104.339 E.02573
G1 X106.102 Y103.836 E.02572
G1 X106.88 Y103.409 E.02643
G1 X107.669 Y103.091 E.02534
G1 X108.486 Y102.868 E.02522
G1 X109.326 Y102.741 E.02533
G1 X110.168 Y102.713 E.02508
G1 X111 Y102.782 E.02488
G1 X111.934 Y102.974 E.0284
G1 X112.748 Y103.251 E.02561
G1 X113.513 Y103.616 E.02523
G1 X114.243 Y104.077 E.02573
G1 X114.914 Y104.621 E.02573
G1 X115.515 Y105.241 E.02573
G1 X116.039 Y105.928 E.02573
G1 X116.479 Y106.671 E.02573
G1 X116.827 Y107.462 E.02573
G3 X117.274 Y110.148 I-7.303 J2.597 E.08153
G1 X117.232 Y110.862 E.02132
G1 X117.079 Y111.712 E.02573
G1 X116.827 Y112.538 E.02573
G1 X116.479 Y113.329 E.02573
G1 X116.039 Y114.072 E.02573
G1 X115.515 Y114.759 E.02573
G1 X114.914 Y115.379 E.02573
G1 X114.243 Y115.923 E.02573
G1 X113.513 Y116.384 E.02573
G1 X112.748 Y116.749 E.02525
G1 X111.948 Y117.022 E.02519
G1 X111.127 Y117.199 E.025
G1 X110.294 Y117.281 E.02495
G1 X109.416 Y117.262 E.02613
G1 E-1.2 F2400
;WIPE_START
G1 F9000
G1 X109.348 Y117.261
G1 X108.523 Y117.139
G1 X107.684 Y116.914
G1 X107.472 Y116.828
;WIPE_END
G1 X107.906 Y113.037 Z.6
G1 X108.041 Y111.86 Z.6
G1 Z.4
G1 E1.2 F1800
M204 P2000
;TYPE:Inner wall
;WIDTH:0.449999
G1 F5400
G1 X108.017 Y111.839 E.00103
G1 X107.664 Y111.364 E.01902
G1 X107.405 Y110.775 E.02069
G1 X107.305 Y110.249 E.01722
G1 X107.315 Y109.66 E.01894
G1 X107.438 Y109.142 E.0171
G1 X107.711 Y108.558 E.02074
G1 X108.079 Y108.097 E.01896
G1 X108.548 Y107.721 E.01933
G1 X109.065 Y107.465 E.01856
G1 X109.654 Y107.323 E.01947
G1 X110.222 Y107.31 E.01829
G1 X110.774 Y107.417 E.01807
G1 X111.342 Y107.663 E.01991
G1 X111.814 Y108.007 E.01879
G1 X112.191 Y108.435 E.01832
G1 X112.486 Y108.965 E.01951
G1 X112.652 Y109.535 E.01909
G1 X112.689 Y110.085 E.01773
G1 X112.599 Y110.704 E.02013
G1 X112.385 Y111.253 E.01894
G1 X112.054 Y111.744 E.01904
G1 X111.626 Y112.151 E.01898
G1 X111.392 Y112.281 E.00862
G3 X108.751 Y112.302 I-1.658 J-41.83 E.08493
G1 X108.465 Y112.227 E.00951
G1 X108.071 Y111.886 E.01675
G1 X108.625 Y111.861 F9000
M204 P1000
;TYPE:Outer wall
;WIDTH:0.419999
G1 F3600
G1 X108.624 Y111.861 E.00003
G1 X108.253 Y111.518 E.01505
G1 X107.964 Y111.101 E.01511
G1 X107.773 Y110.635 E.01501
G1 X107.688 Y110.138 E.01501
G1 X107.713 Y109.635 E.01501
G1 X107.845 Y109.152 E.01491
G1 X108.082 Y108.704 E.01511
G1 X108.41 Y108.32 E.01504
G1 X108.81 Y108.017 E.01494
G1 X109.27 Y107.807 E.01507
G1 X109.761 Y107.702 E.01496
G1 X110.262 Y107.707 E.01491
G1 X110.77 Y107.832 E.01559
G1 X111.267 Y108.08 E.01655
G1 X111.605 Y108.346 E.01279
G1 X111.913 Y108.72 E.01445
G1 X112.15 Y109.172 E.0152
G1 X112.279 Y109.666 E.0152
G1 X112.296 Y110.176 E.01519
G1 X112.202 Y110.674 E.01512
G1 X112.003 Y111.137 E.01501
G1 X111.707 Y111.548 E.01509
G1 X111.311 Y111.895 E.01567
G3 X108.751 Y111.91 I-1.577 J-49.221 E.07625
G1 X108.663 Y111.876 E.00283
G1 E-1.2 F2400
;WIPE_START
G1 F9000
G1 X108.624 Y111.861
G1 X108.253 Y111.518
G1 X107.964 Y111.101
G1 X107.773 Y110.635
G1 X107.699 Y110.199
;WIPE_END
G1 X108.861 Y112.694 Z.6
G1 Z.6
G1 Z.4
G1 E1.2 F1800
M204 P2500
;TYPE:Internal solid infill
G1 F5734
G1 X108.412 Y112.631 E.01349
G1 X108.167 Y112.498 E.00831
G1 X107.686 Y112.06 E.01937
G1 X107.33 Y111.558 E.01833
G1 X104.878 Y114.01 E.10328
G1 X105.327 Y114.53 E.02046
G1 X105.895 Y115.051 E.02295
G1 X106.25 Y115.305 E.013
G1 X108.832 Y112.722 E.10879
G1 X108.118 Y112.904 F9000
G1 F5734
G1 X107.913 Y112.777 E.00717
G1 X107.432 Y112.339 E.01937
G1 X107.279 Y112.143 E.00742
G1 X105.393 Y114.029 E.07945
G2 X106.21 Y114.812 I5.088 J-4.493 E.03374
G1 X108.089 Y112.932 E.07918
G1 X107.541 Y112.948 F9000
;WIDTH:0.42
G1 F5734
G1 X107.262 Y112.694 E.01124
G1 X105.912 Y114.043 E.05686
G1 X106.19 Y114.298 E.01124
G1 X107.512 Y112.976 E.0557
G1 X112.08 Y116.457 F9000
;WIDTH:0.425801
G1 F5734
G1 X116.186 Y112.35 E.17565
G1 X116.433 Y111.562 E.02497
G1 X111.568 Y116.427 E.20806
G1 X111.472 Y116.447 E.00297
G1 X111.433 Y116.408 E.00167
G1 X110.956 Y116.497 E.01468
