;TIME:1773.88
;Filament used:2.70722m
;Layer height:0.200
; HEADER_BLOCK_START
; generated by Creality_Print V6.2.2.3134 on 2025-08-30 at 18:47:08
; total layer number: 50
; filament_density: 1.24
; filament_diameter: 1.75
; max_z_height: 10.00
; creality_uuid: a440e755-90fa-4a76-839b-db883d6d2cd2
; HEADER_BLOCK_END

; MINX = 89.72
; MINY = 89.96
; MINZ = 0.00
; MAXX = 130.28
; MAXY = 130.04
; MAXZ = 10.00

; THUMBNAIL_BLOCK_START

;
; THUMBNAIL_BLOCK_END

; THUMBNAIL_BLOCK_START

;
; THUMBNAIL_BLOCK_END

; external perimeters extrusion width = 0.42mm
; perimeters extrusion width = 0.45mm
; infill extrusion width = 0.45mm
; solid infill extrusion width = 0.42mm
; top infill extrusion width = 0.42mm
; first layer extrusion width = 0.50mm

; external perimeters extrusion width = 0.42mm
; perimeters extrusion width = 0.45mm
; infill extrusion width = 0.45mm
; solid infill extrusion width = 0.42mm
; top infill extrusion width = 0.42mm
; first layer extrusion width = 0.50mm

; EXECUTABLE_BLOCK_START
M73 P0 R29
M201 X5000 Y5000 Z500 E5000
M203 X500 Y500 Z30 E100
M204 P5000 R2500 T5000 ; sets acceleration (P, T) and retract acceleration (R), mm/sec^2
M205 X10.00 Y10.00 Z0.40 E5.00 ; sets the jerk limits, mm/sec
;TYPE:Custom
M220 S100 ;Reset Feedrate 
M221 S100 ;Reset Flowrate 
 
M140 S50 ;Set final bed temp 
G28 ;Home 
 
G92 E0 ;Reset Extruder 
G1 Z2.0 F3000 ;Move Z Axis up 
M104 S190 ;Set final nozzle temp 
G1 X-2.1 Y20 Z0.28 F5000.0 ;Move to start position 
M190 S50 ;Wait for bed temp to stabilize 
M109 S190 ;Wait for nozzle temp to stabilize 
G1 X-2.1 Y145.0 Z0.28 F1500.0 E15 ;Draw the first line 
G1 X-2.4 Y145.0 Z0.28 F5000.0 ;Move to side a little 
G1 X-2.4 Y20 Z0.28 F1500.0 E30 ;Draw the second line 
G92 E0  ;Reset Extruder 
G1 E-1.0000 F1800 ;Retract a bit 
G1 Z2.0 F3000 ;Move Z Axis up 
G1 E0.0000 F1800
G90
G21
M83 ; use relative distances for extrusion
;filament start gcode
G1 E-1.2 F2400
M106 S0
;LAYER_CHANGE
;Z:0.2
;HEIGHT:0.2
;BEFORE_LAYER_CHANGE
;0.2
G92 E0

;_SET_FAN_SPEED_CHANGING_LAYER
M204 P500
M205 X10 Y10
; printing object Object_1 id:797774472 copy 0
M204 T500
G1 X96.09 Y103.991 Z.2 F9000
G1 E1.2 F1800
;TYPE:Inner wall
;WIDTH:0.499999
G1 X95.83 Y103.94 E.00956
G3 X94.362 Y103.455 I1.425 J-6.777 E.05596
G3 X97.424 Y90.819 I2.864 J-5.995 E.65393
G3 X101.084 Y92.061 I-.301 J6.9 E.14144
G3 X103.846 Y97.566 I-3.942 J5.424 E.23104
G1 X103.806 Y98.242 E.02446
G3 X98.973 Y103.859 I-6.6 J-.79 E.28381
G1 X98.178 Y104.027 E.02936
G3 X96.624 Y104.06 I-.923 J-6.863 E.05622
G1 X96.13 Y103.996 E.018
G1 X96.516 Y104.518 F9000
;TYPE:Outer wall
G1 F1800
G1 X95.733 Y104.399 E.02859
G1 X94.946 Y104.184 E.02946
G1 X94.165 Y103.869 E.03042
G1 X93.421 Y103.459 E.03065
G1 X92.738 Y102.969 E.03036
G1 X92.117 Y102.401 E.03037
G1 X91.568 Y101.764 E.03037
G1 X91.098 Y101.067 E.03037
G1 X90.714 Y100.318 E.03037
G1 X90.421 Y99.53 E.03037
G1 X90.224 Y98.712 E.03037
G1 X90.124 Y97.877 E.03037
G1 X90.124 Y97.036 E.03037
G1 X90.224 Y96.201 E.03037
G1 X90.421 Y95.383 E.03037
G1 X90.714 Y94.594 E.03037
G1 X91.098 Y93.846 E.03037
G1 X91.568 Y93.148 E.03037
G1 X92.117 Y92.511 E.03037
G1 X92.738 Y91.944 E.03037
G1 X93.421 Y91.453 E.03036
G1 X94.165 Y91.044 E.03065
G1 X94.941 Y90.73 E.03022
G1 X95.747 Y90.51 E.03017
G1 X96.574 Y90.386 E.0302
G1 X97.438 Y90.361 E.03121
G1 X98.267 Y90.436 E.03006
G1 X99.089 Y90.61 E.03032
G1 X99.884 Y90.88 E.03034
G1 X100.62 Y91.23 E.02941
G1 X101.35 Y91.689 E.03114
G1 X102.003 Y92.218 E.03035
G1 X102.589 Y92.822 E.03037
G1 X103.099 Y93.49 E.03037
G1 X103.527 Y94.215 E.03037
G1 X103.866 Y94.984 E.03037
G1 X104.112 Y95.789 E.03037
G3 X104.302 Y97.593 I-8.664 J1.827 E.06561
G1 X104.261 Y98.296 E.02544
G1 X104.112 Y99.124 E.03037
G1 X103.866 Y99.928 E.03037
G1 X103.527 Y100.698 E.03037
G1 X103.099 Y101.422 E.03037
G1 X102.594 Y102.084 E.03006
G1 X102.003 Y102.695 E.03069
G1 X101.35 Y103.224 E.03036
G1 X100.639 Y103.673 E.03036
G1 X99.862 Y104.042 E.03105
G1 X99.094 Y104.301 E.02927
G1 X98.245 Y104.48 E.03133
G1 X97.408 Y104.553 E.03033
G1 X96.582 Y104.528 E.02983
G1 X96.556 Y104.524 E.00096
G1 E-1.2 F2400
;WIPE_START
G1 F9000
G1 X95.733 Y104.399
G1 X94.946 Y104.184
G1 X94.62 Y104.052
;WIPE_END
G1 X97.281 Y101.318 Z.4
G1 X98.726 Y99.833 Z.4
G1 Z.2
G1 E1.2 F1800
;TYPE:Inner wall
G1 X95.682 Y99.833 E.1099
G1 X95.385 Y99.765 E.01102
G1 X95.158 Y99.59 E.01036
G1 X94.802 Y99.168 E.01994
G1 X94.491 Y98.611 E.023
G1 X94.307 Y98.001 E.02304
G1 X94.258 Y97.364 E.02304
G1 X94.346 Y96.732 E.02304
G3 X94.963 Y95.534 I3.134 J.855 E.04903
G1 X95.367 Y95.147 E.02019
G1 X95.902 Y94.807 E.0229
G1 X96.518 Y94.585 E.02362
G1 X97.134 Y94.502 E.02247
G1 X97.727 Y94.55 E.02148
G1 X98.383 Y94.744 E.02467
G1 X98.94 Y95.06 E.02314
G1 X99.411 Y95.483 E.02287
G1 X99.784 Y96.003 E.02311
G3 X100.139 Y97.854 I-2.771 J1.491 E.06912
G1 X99.986 Y98.474 E.02304
G1 X99.702 Y99.046 E.02304
G1 X99.264 Y99.59 E.02523
G1 X99 Y99.782 E.01178
G1 X98.766 Y99.828 E.00865
G1 X98.924 Y99.284 F9000
;TYPE:Outer wall
G1 F1800
G1 X98.915 Y99.295 E.00052
G1 X98.758 Y99.376 E.00635
G3 X95.682 Y99.376 I-1.983 J-1880.628 E.11107
G1 X95.528 Y99.316 E.00598
G1 X95.16 Y98.882 E.02055
G1 X94.896 Y98.398 E.0199
G1 X94.747 Y97.879 E.01949
G1 X94.714 Y97.341 E.01949
G1 X94.797 Y96.807 E.01949
G1 X94.993 Y96.304 E.01949
G1 X95.293 Y95.853 E.01958
G1 X95.681 Y95.48 E.01942
G1 X96.138 Y95.199 E.01937
G1 X96.662 Y95.019 E.02001
G1 X97.184 Y94.957 E.01897
G1 X97.714 Y95.008 E.01923
G1 X98.238 Y95.177 E.01989
G1 X98.704 Y95.451 E.01953
G1 X99.097 Y95.815 E.01934
G1 X99.406 Y96.26 E.01956
G1 X99.612 Y96.76 E.0195
G1 X99.701 Y97.266 E.01856
G1 X99.683 Y97.831 E.0204
G1 X99.545 Y98.353 E.01949
G1 X99.298 Y98.833 E.01949
G1 X98.949 Y99.253 E.01973
G1 E-1.2 F2400
;WIPE_START
G1 F9000
G1 X98.915 Y99.295
G1 X98.758 Y99.376
G1 X96.989 Y99.376
;WIPE_END
G1 X102.802 Y94.155 Z.4
G1 Z.4
G1 Z.2
G1 E1.2 F1800
;TYPE:Bottom surface
;WIDTH:0.508873
G1 F4800
G1 X101.43 Y92.783 E.07143
G1 X100.884 Y92.34 E.02588
G2 X99.634 Y91.646 I-3.601 J5.015 E.05273
G1 X103.008 Y95.02 E.17562
G1 X103.115 Y95.263 E.00978
G1 X103.339 Y96.01 E.0287
G1 X98.667 Y91.338 E.24319
G2 X97.873 Y91.204 I-.965 J3.278 E.0297
G1 X103.47 Y96.8 E.29133
G1 X103.507 Y97.496 E.02564
M73 P1 R29
G1 X97.186 Y91.176 E.329
G1 X96.55 Y91.198 E.02344
G1 X103.47 Y98.118 E.3602
G1 X103.378 Y98.685 E.02114
G1 X95.977 Y91.284 E.38525
G1 X95.453 Y91.419 E.01991
G1 X98.441 Y94.407 E.15554
G1 X98.607 Y94.465 E.00647
G1 X99.17 Y94.8 E.02411
G1 X99.65 Y95.238 E.02391
G1 X99.787 Y95.398 E.00778
G1 X100.138 Y95.929 E.02341
G1 X100.254 Y96.22 E.01154
G1 X103.248 Y99.214 E.15583
G3 X103.087 Y99.712 I-2.172 J-.425 E.01932
G1 X100.486 Y97.111 E.13542
G3 X100.483 Y97.766 I-2.376 J.316 E.02421
G1 X102.886 Y100.17 E.1251
G3 X102.656 Y100.599 I-1.918 J-.748 E.01797
G1 X100.38 Y98.322 E.11852
G3 X100.207 Y98.809 I-1.268 J-.177 E.01912
G1 X102.408 Y101.01 E.11458
G1 X102.123 Y101.383 E.0173
G1 X99.982 Y99.242 E.11145
G3 X99.691 Y99.611 I-1.691 J-1.036 E.01731
G1 X101.817 Y101.737 E.11067
G1 X101.493 Y102.071 E.01715
G1 X99.373 Y99.952 E.11034
G3 X98.914 Y100.151 I-.597 J-.746 E.01866
G1 X101.133 Y102.37 E.11552
G3 X100.756 Y102.653 I-1.374 J-1.438 E.01736
G1 X98.28 Y100.176 E.12893
G1 X97.621 Y100.176 E.02425
G1 X100.353 Y102.908 E.1422
G3 X99.916 Y103.131 I-1.137 J-1.69 E.01808
G1 X96.962 Y100.176 E.15379
G1 X96.303 Y100.176 E.02425
G1 X99.622 Y103.495 E.17277
G1 E-1.2 F2400
;WIPE_START
G1 F9000
G1 X98.208 Y102.081
;WIPE_END
G1 X98.004 Y98.27 Z.4
G1 X97.797 Y94.422 Z.4
G1 Z.2
G1 E1.2 F1800
G1 F4800
G1 X94.96 Y91.585 E.14769
G1 X94.493 Y91.777 E.01859
G1 X96.9 Y94.184 E.12533
G1 X96.524 Y94.228 E.01394
G1 X96.343 Y94.286 E.00699
G1 X94.068 Y92.011 E.11846
G2 X93.663 Y92.265 I.858 J1.817 E.01764
G1 X95.851 Y94.453 E.11392
G2 X95.43 Y94.691 I.715 J1.757 E.01785
G1 X93.279 Y92.54 E.11197
G2 X92.931 Y92.851 I1.132 J1.616 E.01722
G1 X95.054 Y94.973 E.11047
G1 X94.717 Y95.296 E.01715
G1 X92.599 Y93.178 E.11026
G1 X92.294 Y93.532 E.0172
G1 X94.444 Y95.682 E.11192
G2 X94.21 Y96.107 I1.487 J1.094 E.01791
G1 X92.017 Y93.914 E.11417
G2 X91.758 Y94.313 I1.547 J1.289 E.01757
G1 X94.033 Y96.589 E.11844
G1 X93.935 Y97.15 E.02096
G1 X91.534 Y94.749 E.12498
G2 X91.338 Y95.212 I1.846 J1.054 E.01855
G1 X94.183 Y98.056 E.14805
G1 E-1.2 F2400
;WIPE_START
G1 F9000
G1 X92.768 Y96.642
;WIPE_END
G1 X91 Y95.532 Z.4
G1 Z.2
G1 E1.2 F1800
G1 F4800
G1 X94.149 Y98.682 E.16393
G1 X94.419 Y99.21 E.02183
G1 X94.536 Y99.384 E.00775
G1 X94.989 Y99.908 E.02548
G2 X95.64 Y100.173 I.743 J-.897 E.0263
G1 X98.967 Y103.5 E.17317
G3 X98.432 Y103.623 I-.785 J-2.181 E.02028
G1 X91.039 Y96.231 E.38478
G2 X90.957 Y96.807 I2.38 J.634 E.02149
G1 X97.86 Y103.71 E.35931
G3 X97.238 Y103.747 I-.468 J-2.619 E.02299
G1 X90.924 Y97.434 E.32865
G2 X90.96 Y98.128 I2.933 J.198 E.02566
G1 X96.545 Y103.713 E.29072
G1 X95.899 Y103.616 E.02405
G1 X95.747 Y103.574 E.0058
G1 X91.098 Y98.926 E.24196
G2 X91.411 Y99.897 I4.236 J-.828 E.03767
G1 X94.76 Y103.247 E.17433
G1 X94.509 Y103.145 E.00999
G3 X92.759 Y101.905 I3.085 J-6.205 E.07925
G1 X91.603 Y100.748 E.06021
G1 X91.72 Y100.63 F9000
;TYPE:Gap infill
;WIDTH:0.143226
G1 F1800
G1 X91.637 Y100.517 E.00111
;WIDTH:0.128074
G1 X91.555 Y100.403 E.00095
G1 E-1.2 F2400
;WIPE_START
G1 F9000
G1 X91.637 Y100.517
;WIPE_END
G1 X95.01 Y98.73 Z.4
G1 X102.901 Y94.55 Z.4
G1 Z.2
G1 E1.2 F1800
;WIDTH:0.114314
G1 X102.793 Y94.411 E.00099
;WIDTH:0.130858
G1 X102.686 Y94.272 E.00122
; stop printing object Object_1 id:797774472 copy 0
; printing object Object_2 id:25 copy 0
G1 E-1.2 F2400
;WIPE_START
G1 F9000
G1 X102.793 Y94.411
;WIPE_END
G1 X106.273 Y95.978 Z.4
G1 X115.953 Y100.337 Z.4
G1 Z.2
G1 E1.2 F1800
;TYPE:Inner wall
;WIDTH:0.499999
G1 X116.949 Y100.42 E.03606
G1 X118.513 Y100.725 E.05756
G1 X120.033 Y101.2 E.05749
G1 X121.491 Y101.84 E.05749
G1 X122.87 Y102.636 E.05749
G1 X124.153 Y103.579 E.05749
G1 X125.324 Y104.657 E.05749
G1 X126.37 Y105.858 E.05749
G1 X127.277 Y107.167 E.05749
G1 X128.035 Y108.567 E.05749
G1 X128.634 Y110.042 E.05749
G1 X129.067 Y111.574 E.05749
G1 X129.33 Y113.145 E.05749
G3 X129.408 Y114.899 I-25.655 J2.028 E.06343
G1 X129.33 Y116.324 E.05152
G1 X129.067 Y117.895 E.05749
G1 X128.634 Y119.427 E.05749
G1 X128.035 Y120.902 E.05749
G1 X127.277 Y122.302 E.05749
G1 X126.37 Y123.611 E.05749
G1 X125.324 Y124.812 E.05749
G1 X124.153 Y125.89 E.05749
G1 X122.87 Y126.833 E.05749
G1 X121.491 Y127.629 E.05749
G1 X120.033 Y128.269 E.05749
G1 X118.513 Y128.744 E.05749
G1 X116.949 Y129.049 E.05756
G1 X115.366 Y129.181 E.05734
G1 X113.756 Y129.135 E.05816
G1 X112.193 Y128.918 E.05696
G1 X110.652 Y128.527 E.05742
G1 X109.16 Y127.969 E.05749
G1 X107.74 Y127.25 E.05749
G1 X106.407 Y126.379 E.05749
G1 X105.178 Y125.367 E.05749
G1 X104.068 Y124.226 E.05747
G1 X103.081 Y122.955 E.05809
G1 X102.256 Y121.613 E.0569
G1 X101.576 Y120.173 E.05749
G1 X101.059 Y118.667 E.05749
G1 X100.711 Y117.113 E.05749
G1 X100.536 Y115.531 E.05749
G1 X100.536 Y113.938 E.05749
G1 X100.711 Y112.356 E.05749
G1 X101.059 Y110.803 E.05747
G1 X101.583 Y109.281 E.05809
G1 X102.256 Y107.856 E.0569
G1 X103.09 Y106.5 E.05749
G1 X104.068 Y105.243 E.05749
G1 X105.178 Y104.102 E.05749
G1 X106.407 Y103.09 E.05749
G1 X107.74 Y102.219 E.05749
G1 X109.16 Y101.5 E.05749
G1 X110.652 Y100.942 E.05749
G1 X112.196 Y100.551 E.05751
G1 X113.754 Y100.334 E.05682
G1 X115.366 Y100.288 E.05822
G1 X115.914 Y100.334 E.01984
G1 X115.493 Y99.84 F9000
;TYPE:Outer wall
G1 F1800
G1 X117.012 Y99.966 E.05502
G1 X118.626 Y100.281 E.05938
G1 X120.193 Y100.772 E.05931
G1 X121.698 Y101.432 E.05931
G1 X123.12 Y102.253 E.05931
G1 X124.444 Y103.226 E.05931
G1 X125.652 Y104.338 E.05931
G1 X126.731 Y105.577 E.05931
G1 X127.667 Y106.927 E.05931
G1 X128.449 Y108.372 E.05931
G1 X129.067 Y109.893 E.05931
G1 X129.514 Y111.474 E.05931
G1 X129.785 Y113.094 E.05931
G3 X129.865 Y114.925 I-25.409 J2.027 E.06616
G1 X129.785 Y116.375 E.05244
G1 X129.514 Y117.995 E.05931
G1 X129.067 Y119.576 E.05931
G1 X128.449 Y121.097 E.05931
G1 X127.667 Y122.542 E.05931
G1 X126.731 Y123.892 E.05931
G1 X125.652 Y125.131 E.05931
G1 X124.444 Y126.243 E.05931
G1 X123.12 Y127.216 E.05931
G1 X121.698 Y128.037 E.05931
G1 X120.193 Y128.697 E.05931
G1 X118.626 Y129.188 E.05931
G1 X117.012 Y129.503 E.05938
G1 X115.379 Y129.638 E.05916
G1 X113.718 Y129.591 E.05999
G1 X112.105 Y129.367 E.05878
G1 X110.515 Y128.964 E.05923
G1 X108.977 Y128.388 E.05931
G1 X107.511 Y127.646 E.05931
G1 X106.136 Y126.748 E.05931
G1 X104.868 Y125.704 E.05931
G1 X103.722 Y124.526 E.0593
G1 X102.705 Y123.216 E.05991
G1 X101.853 Y121.831 E.05871
G1 X101.152 Y120.345 E.05931
G1 X100.619 Y118.791 E.05931
G1 X100.26 Y117.188 E.05931
G1 X100.079 Y115.556 E.05931
G1 X100.079 Y113.913 E.05931
G1 X100.26 Y112.281 E.05931
G1 X100.619 Y110.678 E.0593
G1 X101.159 Y109.109 E.05991
G1 X101.853 Y107.638 E.05871
G1 X102.713 Y106.239 E.05931
G1 X103.722 Y104.943 E.05931
G1 X104.868 Y103.765 E.05931
G1 X106.136 Y102.721 E.05931
G1 X107.511 Y101.823 E.05931
G1 X108.977 Y101.081 E.05931
G1 X110.515 Y100.505 E.05931
G1 X112.108 Y100.102 E.05933
G1 X113.716 Y99.878 E.05863
G1 X115.379 Y99.831 E.06005
G1 X115.453 Y99.837 E.0027
G1 E-1.2 F2400
;WIPE_START
G1 F9000
G1 X117.012 Y99.966
G1 X117.44 Y100.05
;WIPE_END
G1 X119.011 Y103.528 Z.4
G1 X123.127 Y112.64 Z.4
G1 Z.2
G1 E1.2 F1800
;TYPE:Inner wall
G1 X123.325 Y113.465 E.03064
G1 X123.421 Y114.681 E.04403
G3 X123.309 Y116.11 I-22.655 J-1.064 E.05179
G1 X123.011 Y117.349 E.04598
G1 X122.546 Y118.472 E.04389
G3 X121.81 Y119.706 I-32.251 J-18.387 E.0519
G1 X120.983 Y120.675 E.04601
G3 X119.892 Y121.607 I-18.706 J-20.798 E.05178
M73 P1 R28
G1 X118.806 Y122.272 E.04599
G3 X117.522 Y122.794 I-10.919 J-25.01 E.05005
G1 X116.301 Y123.088 E.04536
G1 X115.047 Y123.187 E.04541
G3 X113.64 Y123.09 I2.167 J-41.402 E.05093
G1 X112.417 Y122.796 E.04541
G3 X111.079 Y122.244 I9.722 J-25.439 E.05226
G1 X109.993 Y121.579 E.04599
G3 X108.949 Y120.675 I15.068 J-18.481 E.04986
G1 X108.122 Y119.707 E.04598
G1 X107.456 Y118.621 E.04598
G3 X106.92 Y117.349 I59.706 J-25.909 E.04986
G1 X106.623 Y116.11 E.04598
G3 X106.51 Y114.681 I26.056 J-2.77 E.05179
G1 X106.61 Y113.411 E.04598
G1 X106.871 Y112.323 E.0404
G3 X107.423 Y110.905 I17.774 J6.103 E.05494
G1 X108.121 Y109.763 E.04835
G1 X108.984 Y108.753 E.04795
G1 X109.952 Y107.925 E.04598
G3 X111.176 Y107.176 I13.614 J20.847 E.05182
G1 X112.366 Y106.685 E.04649
G1 X113.472 Y106.419 E.04108
G3 X114.956 Y106.275 I2.864 J21.733 E.05382
G1 X116.237 Y106.375 E.0464
M73 P2 R28
G3 X117.584 Y106.691 I-11.502 J52.041 E.04995
G1 X118.756 Y107.176 E.04581
G3 X119.979 Y107.925 I-11.892 J20.78 E.0518
G1 X120.948 Y108.753 E.04598
G1 X121.717 Y109.653 E.04275
G3 X122.503 Y110.894 I-21.444 J14.465 E.05306
G1 X122.991 Y112.07 E.04598
G1 X123.118 Y112.601 E.01969
G1 X122.572 Y112.259 F9000
;TYPE:Outer wall
G1 F1800
G1 X122.87 Y113.501 E.04611
G1 X122.965 Y114.717 E.04403
G3 X122.864 Y116.004 I-50.599 J-3.335 E.04662
G1 X122.575 Y117.207 E.04468
G1 X122.124 Y118.297 E.04259
G3 X121.439 Y119.437 I-42.154 J-24.539 E.04803
G1 X120.635 Y120.379 E.04469
G3 X119.653 Y121.217 I-43.734 J-50.212 E.04662
G1 X118.598 Y121.864 E.04469
G3 X117.415 Y122.35 I-23.103 J-54.508 E.04617
G1 X116.229 Y122.635 E.04406
G1 X115.011 Y122.732 E.04411
G3 X113.712 Y122.637 I3.701 J-59.641 E.04703
G1 X112.523 Y122.352 E.04412
G3 X111.318 Y121.854 I23.914 J-59.632 E.04709
G1 X110.263 Y121.208 E.04469
G1 X109.462 Y120.523 E.03804
G3 X108.492 Y119.438 I11.795 J-11.501 E.05257
G1 X107.846 Y118.382 E.04468
G3 X107.356 Y117.207 I151.008 J-63.631 E.04597
G1 X107.067 Y116.004 E.04468
G3 X106.966 Y114.717 I61.039 J-5.452 E.04662
G1 X107.063 Y113.483 E.04468
G1 X107.316 Y112.43 E.0391
G3 X107.832 Y111.113 I18.15 J6.355 E.05107
G1 X108.492 Y110.032 E.04576
G1 X109.308 Y109.077 E.04534
G1 X110.249 Y108.273 E.04468
G3 X111.35 Y107.598 I30.561 J48.64 E.04663
G1 X112.507 Y107.121 E.0452
G1 X113.579 Y106.864 E.03979
G3 X114.956 Y106.733 I2.894 J23.228 E.04995
G1 X116.201 Y106.831 E.0451
G3 X117.449 Y107.13 I-15.579 J67.695 E.04633
G1 X118.581 Y107.598 E.04424
G3 X119.682 Y108.273 I-27.931 J46.815 E.04662
