;TIME:929.71
;Filament used:1.41333m
;Layer height:0.200
; HEADER_BLOCK_START
; generated by Creality_Print V6.2.2.3134 on 2025-08-30 at 18:00:32
; total layer number: 50
; filament_density: 1.24
; filament_diameter: 1.75
; max_z_height: 10.00
; creality_uuid: e366bea8-38bb-43e5-bbac-2ee5234a1f12
; HEADER_BLOCK_END

; MINX = 89.72
; MINY = 89.96
; MINZ = 0.00
; MAXX = 130.28
; MAXY = 130.04
; MAXZ = 10.00

; THUMBNAIL_BLOCK_START

;
; THUMBNAIL_BLOCK_END

; THUMBNAIL_BLOCK_START

;
; THUMBNAIL_BLOCK_END

; external perimeters extrusion width = 0.42mm
; perimeters extrusion width = 0.45mm
; infill extrusion width = 0.45mm
; solid infill extrusion width = 0.42mm
; top infill extrusion width = 0.42mm
; first layer extrusion width = 0.50mm

; external perimeters extrusion width = 0.42mm
; perimeters extrusion width = 0.45mm
; infill extrusion width = 0.45mm
; solid infill extrusion width = 0.42mm
; top infill extrusion width = 0.42mm
; first layer extrusion width = 0.50mm

; EXECUTABLE_BLOCK_START
M73 P0 R15
M201 X5000 Y5000 Z500 E5000
M203 X500 Y500 Z30 E100
M204 P5000 R2500 T5000 ; sets acceleration (P, T) and retract acceleration (R), mm/sec^2
M205 X10.00 Y10.00 Z0.40 E5.00 ; sets the jerk limits, mm/sec
;TYPE:Custom
M220 S100 ;Reset Feedrate 
M221 S100 ;Reset Flowrate 
 
M140 S50 ;Set final bed temp 
G28 ;Home 
 
G92 E0 ;Reset Extruder 
G1 Z2.0 F3000 ;Move Z Axis up 
M104 S190 ;Set final nozzle temp 
G1 X-2.1 Y20 Z0.28 F5000.0 ;Move to start position 
M190 S50 ;Wait for bed temp to stabilize 
M109 S190 ;Wait for nozzle temp to stabilize 
G1 X-2.1 Y145.0 Z0.28 F1500.0 E15 ;Draw the first line 
G1 X-2.4 Y145.0 Z0.28 F5000.0 ;Move to side a little 
G1 X-2.4 Y20 Z0.28 F1500.0 E30 ;Draw the second line 
G92 E0  ;Reset Extruder 
G1 E-1.0000 F1800 ;Retract a bit 
M73 P1 R15
G1 Z2.0 F3000 ;Move Z Axis up 
G1 E0.0000 F1800
G90
G21
M83 ; use relative distances for extrusion
;filament start gcode
G1 E-1.2 F2400
M106 S0
;LAYER_CHANGE
;Z:0.2
;HEIGHT:0.2
;BEFORE_LAYER_CHANGE
;0.2
G92 E0

;_SET_FAN_SPEED_CHANGING_LAYER
M204 P500
M205 X10 Y10
; printing object Object_1 id:7811887588677804407 copy 0
M204 T500
G1 X96.03 Y103.97 Z.2 F9000
G1 E1.2 F1800
;TYPE:Inner wall
;WIDTH:0.499999
G1 X95.461 Y103.848 E.02102
G3 X103.829 Y97.848 I1.752 J-6.393 E1.07793
G3 X97.015 Y104.082 I-6.647 J-.425 E.36846
G1 X96.204 Y104.007 E.0294
G1 X96.069 Y103.978 E.00498
G1 X96.49 Y104.512 F9000
;TYPE:Outer wall
G1 F1800
G1 X95.733 Y104.398 E.02762
G1 X94.944 Y104.182 E.02954
G1 X94.163 Y103.866 E.0304
G1 X93.421 Y103.458 E.03058
G1 X92.738 Y102.968 E.03037
G1 X92.118 Y102.4 E.03037
G1 X91.568 Y101.763 E.03037
G1 X91.098 Y101.065 E.03037
G1 X90.714 Y100.317 E.03037
G1 X90.422 Y99.528 E.03037
G1 X90.224 Y98.711 E.03037
G1 X90.124 Y97.875 E.03037
G1 X90.124 Y97.034 E.03037
G1 X90.224 Y96.199 E.03037
G1 X90.422 Y95.381 E.03037
G1 X90.714 Y94.593 E.03037
G1 X91.098 Y93.845 E.03037
G1 X91.568 Y93.147 E.03037
G1 X92.118 Y92.51 E.03037
G1 X92.738 Y91.942 E.03036
G1 X93.429 Y91.447 E.03069
G1 X94.158 Y91.046 E.03006
G1 X94.938 Y90.729 E.03037
G1 X95.749 Y90.508 E.03037
G1 X96.581 Y90.384 E.03037
G1 X97.422 Y90.359 E.03037
G1 X98.251 Y90.433 E.03006
G1 X99.083 Y90.607 E.03069
G1 X99.879 Y90.876 E.03036
G1 X100.639 Y91.238 E.03037
G1 X101.35 Y91.687 E.03037
G1 X102.003 Y92.217 E.03037
G1 X102.589 Y92.82 E.03037
G1 X103.1 Y93.489 E.03037
G1 X103.523 Y94.206 E.03006
G1 X103.866 Y94.983 E.03069
G3 X104.286 Y97.035 I-8.393 J2.784 E.07581
G1 X104.261 Y98.294 E.04547
G1 X104.112 Y99.122 E.03037
G1 X103.866 Y99.927 E.03037
G1 X103.527 Y100.697 E.03037
G1 X103.1 Y101.421 E.03037
G1 X102.594 Y102.082 E.03006
G1 X102.003 Y102.693 E.03069
G1 X101.35 Y103.223 E.03036
G1 X100.639 Y103.672 E.03036
G1 X99.866 Y104.038 E.03088
G1 X99.091 Y104.3 E.02955
G1 X98.25 Y104.478 E.03104
G1 X97.413 Y104.551 E.03031
G1 X96.582 Y104.526 E.03003
G1 X96.529 Y104.518 E.00192
G1 E-1.2 F2400
;WIPE_START
G1 F9000
G1 X95.733 Y104.398
G1 X94.944 Y104.182
G1 X94.595 Y104.041
;WIPE_END
G1 X102.802 Y94.154 Z.4
G1 Z.4
G1 Z.2
G1 E1.2 F1800
;TYPE:Bottom surface
;WIDTH:0.508874
G1 F4800
G1 X101.43 Y92.782 E.07143
G2 X99.635 Y91.645 I-4.552 J5.205 E.07851
G1 X103.007 Y95.018 E.17555
G1 X103.115 Y95.262 E.00984
G1 X103.339 Y96.009 E.02867
G1 X98.667 Y91.337 E.24318
G2 X97.873 Y91.202 I-.969 J3.299 E.02971
G1 X103.47 Y96.799 E.29134
G1 X103.507 Y97.494 E.02564
G1 X97.179 Y91.166 E.32941
G1 X96.55 Y91.197 E.02315
G1 X103.47 Y98.116 E.36019
G1 X103.378 Y98.684 E.02114
G1 X95.977 Y91.282 E.38525
G1 X95.453 Y91.418 E.01991
G1 X103.248 Y99.212 E.40574
G3 X103.087 Y99.711 I-2.172 J-.425 E.01932
G1 X94.96 Y91.583 E.42305
G1 X94.492 Y91.775 E.0186
G1 X102.886 Y100.168 E.43691
G3 X102.657 Y100.598 I-1.918 J-.748 E.01797
G1 X94.068 Y92.009 E.44708
G2 X93.663 Y92.263 I.878 J1.842 E.01763
G1 X102.408 Y101.008 E.45519
G1 X102.123 Y101.382 E.0173
G1 X93.279 Y92.538 E.46033
G2 X92.931 Y92.849 I1.119 J1.602 E.01722
M73 P2 R15
G1 X101.817 Y101.735 E.46253
G1 X101.493 Y102.07 E.01715
G1 X92.599 Y93.176 E.46295
G1 X92.294 Y93.53 E.0172
G1 X101.133 Y102.369 E.46009
G3 X100.757 Y102.652 I-1.375 J-1.438 E.01736
G1 X92.017 Y93.912 E.45491
G2 X91.758 Y94.312 I1.547 J1.289 E.01757
G1 X100.353 Y102.907 E.44739
G3 X99.916 Y103.129 I-1.141 J-1.697 E.01807
G1 X91.534 Y94.747 E.43631
G2 X91.338 Y95.21 I1.846 J1.054 E.01855
G1 X99.46 Y103.332 E.42274
G1 X98.967 Y103.498 E.01913
G1 X91.168 Y95.699 E.40598
G1 X91.04 Y96.229 E.0201
G1 X98.432 Y103.622 E.3848
G3 X97.86 Y103.709 I-.648 J-2.336 E.02134
G1 X90.957 Y96.806 E.35931
G2 X90.924 Y97.432 I2.612 J.451 E.02313
G1 X97.238 Y103.746 E.32864
G1 X96.545 Y103.712 E.02554
G1 X90.96 Y98.127 E.29071
G1 X90.968 Y98.198 E.00266
G2 X91.098 Y98.924 I3.111 J-.183 E.0272
G1 X95.747 Y103.572 E.24195
G3 X94.761 Y103.245 I.891 J-4.334 E.03833
G1 X91.411 Y99.896 E.17433
G1 X91.448 Y99.994 E.00383
G2 X92.657 Y101.801 I6.346 J-2.939 E.08035
G1 X93.899 Y103.042 E.06464
G1 X94.266 Y103.113 F9000
;TYPE:Gap infill
;WIDTH:0.113614
G1 F1800
G1 X94.141 Y103.019 E.00087
;WIDTH:0.129458
G1 X94.016 Y102.925 E.00107
G1 E-1.2 F2400
;WIPE_START
G1 F9000
G1 X94.141 Y103.019
;WIPE_END
G1 X91.676 Y100.106 Z.4
G1 X91.316 Y99.68 Z.4
G1 Z.2
G1 E1.2 F1800
;WIDTH:0.113522
G1 X91.085 Y99.268 E.00264
G1 E-1.2 F2400
;WIPE_START
G1 F9000
G1 X91.316 Y99.68
;WIPE_END
G1 X94.805 Y98.135 Z.4
G1 X102.901 Y94.548 Z.4
G1 Z.2
G1 E1.2 F1800
;WIDTH:0.114315
G1 X102.793 Y94.409 E.00099
;WIDTH:0.130859
G1 X102.686 Y94.27 E.00122
; stop printing object Object_1 id:7811887588677804407 copy 0
; printing object Object_2 id:0 copy 0
G1 E-1.2 F2400
;WIPE_START
G1 F9000
G1 X102.793 Y94.409
;WIPE_END
G1 X103.886 Y98.066 Z.4
G1 X113.142 Y129.048 Z.4
G1 Z.2
G1 E1.2 F1800
;TYPE:Inner wall
;WIDTH:0.499999
G1 X112.195 Y128.917 E.03452
G1 X110.651 Y128.526 E.05751
G1 X109.16 Y127.968 E.05749
G1 X107.74 Y127.249 E.05749
G1 X106.407 Y126.378 E.05749
G1 X105.178 Y125.366 E.05749
G1 X104.067 Y124.224 E.05749
G1 X103.09 Y122.968 E.05749
G1 X102.256 Y121.612 E.05747
G1 X101.571 Y120.156 E.05809
G1 X101.059 Y118.665 E.0569
G1 X100.711 Y117.112 E.05749
G1 X100.536 Y115.529 E.05749
G1 X100.536 Y113.937 E.05749
G1 X100.711 Y112.355 E.05749
G1 X101.059 Y110.801 E.05749
G1 X101.576 Y109.295 E.05749
G1 X102.256 Y107.855 E.05749
G1 X103.09 Y106.499 E.05749
G1 X104.067 Y105.242 E.05749
G1 X105.178 Y104.101 E.05749
G1 X106.407 Y103.089 E.05749
G1 X107.74 Y102.218 E.05749
G1 X109.16 Y101.499 E.05749
G1 X110.651 Y100.941 E.05749
G1 X112.195 Y100.55 E.05749
G1 X113.772 Y100.331 E.05749
G1 X115.364 Y100.287 E.05749
G1 X116.934 Y100.417 E.0569
G1 X118.514 Y100.724 E.05809
G1 X120.033 Y101.199 E.05747
G1 X121.491 Y101.839 E.05749
G1 X122.87 Y102.635 E.05749
G1 X124.153 Y103.578 E.05749
G1 X125.324 Y104.656 E.05749
G1 X126.37 Y105.856 E.05747
G1 X127.285 Y107.18 E.05809
G1 X128.035 Y108.566 E.0569
G1 X128.634 Y110.041 E.05749
G1 X129.067 Y111.573 E.05749
G1 X129.329 Y113.143 E.05749
G3 X129.408 Y114.898 I-25.655 J2.028 E.06343
G1 X129.329 Y116.323 E.05152
G1 X129.067 Y117.893 E.05749
G1 X128.634 Y119.426 E.05749
G1 X128.035 Y120.901 E.05749
G1 X127.277 Y122.301 E.05749
G1 X126.37 Y123.61 E.05749
G1 X125.335 Y124.798 E.0569
G1 X124.152 Y125.889 E.05809
G1 X122.87 Y126.832 E.05747
G1 X121.491 Y127.628 E.05749
G1 X120.033 Y128.267 E.05749
G1 X118.513 Y128.743 E.05749
G1 X116.949 Y129.048 E.05754
G1 X115.384 Y129.178 E.05672
G1 X113.757 Y129.134 E.05874
G1 X113.182 Y129.054 E.02097
G1 X113.575 Y129.57 F9000
;TYPE:Outer wall
G1 F1800
G1 X112.108 Y129.366 E.05348
G1 X110.515 Y128.963 E.05932
G1 X108.976 Y128.387 E.05931
M73 P3 R15
G1 X107.511 Y127.645 E.05931
G1 X106.136 Y126.747 E.05931
G1 X104.868 Y125.702 E.05931
G1 X103.722 Y124.525 E.05931
G1 X102.713 Y123.229 E.05931
G1 X101.853 Y121.829 E.0593
G1 X101.147 Y120.328 E.05991
G1 X100.619 Y118.79 E.05871
G1 X100.259 Y117.187 E.05931
G1 X100.079 Y115.554 E.05931
G1 X100.079 Y113.912 E.05931
G1 X100.259 Y112.279 E.05931
G1 X100.619 Y110.676 E.05931
G1 X101.152 Y109.123 E.05931
G1 X101.853 Y107.637 E.05931
G1 X102.713 Y106.238 E.05931
G1 X103.722 Y104.941 E.05931
G1 X104.868 Y103.764 E.05931
G1 X106.136 Y102.72 E.05931
G1 X107.511 Y101.821 E.05931
G1 X108.976 Y101.08 E.05931
G1 X110.515 Y100.504 E.05931
G1 X112.107 Y100.1 E.05931
G1 X113.734 Y99.875 E.05931
G1 X115.376 Y99.829 E.05931
G1 X116.997 Y99.964 E.05871
G1 X118.626 Y100.28 E.05992
G1 X120.193 Y100.77 E.0593
G1 X121.698 Y101.43 E.05931
G1 X123.12 Y102.252 E.05931
G1 X124.444 Y103.224 E.05931
G1 X125.652 Y104.337 E.05931
G1 X126.731 Y105.575 E.0593
G1 X127.675 Y106.94 E.05992
G1 X128.449 Y108.37 E.05871
G1 X129.067 Y109.892 E.05931
G1 X129.514 Y111.473 E.05931
G1 X129.784 Y113.093 E.05931
G3 X129.864 Y114.923 I-25.409 J2.027 E.06616
G1 X129.784 Y116.373 E.05244
G1 X129.514 Y117.994 E.05931
G1 X129.067 Y119.574 E.05931
M73 P3 R14
G1 X128.449 Y121.096 E.05931
G1 X127.667 Y122.541 E.05931
G1 X126.731 Y123.891 E.05931
G1 X125.663 Y125.117 E.05871
G1 X124.444 Y126.242 E.05991
G1 X123.12 Y127.215 E.0593
G1 X121.698 Y128.036 E.05931
G1 X120.193 Y128.696 E.05931
G1 X118.626 Y129.186 E.05931
G1 X117.012 Y129.501 E.05936
G1 X115.396 Y129.636 E.05854
G1 X113.719 Y129.59 E.06056
G1 X113.614 Y129.576 E.00384
G1 E-1.2 F2400
;WIPE_START
G1 F9000
G1 X112.108 Y129.366
G1 X111.643 Y129.249
;WIPE_END
G1 X110.253 Y125.695 Z.4
G1 X106.815 Y116.912 Z.4
G1 Z.2
G1 E1.2 F1800
;TYPE:Inner wall
G1 X106.623 Y116.109 E.02981
G3 X106.51 Y114.679 I26.056 J-2.77 E.05179
G1 X106.61 Y113.41 E.04598
G1 X106.872 Y112.32 E.04047
G3 X107.423 Y110.904 I17.557 J6.023 E.05487
G1 X108.121 Y109.761 E.04835
G1 X108.984 Y108.751 E.04795
G1 X109.952 Y107.924 E.04598
G3 X111.175 Y107.175 I13.747 J21.061 E.05179
G1 X112.351 Y106.687 E.04598
G1 X113.472 Y106.418 E.04161
G3 X114.953 Y106.274 I2.817 J21.281 E.05374
G1 X116.234 Y106.373 E.04639
G3 X117.589 Y106.691 I-11.531 J52.162 E.05027
G1 X118.756 Y107.175 E.04561
G3 X119.979 Y107.924 I-11.906 J20.802 E.05179
G1 X120.947 Y108.751 E.04598
G1 X121.715 Y109.65 E.04268
G3 X122.503 Y110.893 I-21.614 J14.58 E.05313
G1 X122.991 Y112.069 E.04598
G3 X123.325 Y113.464 I-27.709 J7.39 E.05178
G1 X123.421 Y114.679 E.04403
G3 X123.309 Y116.109 I-22.656 J-1.064 E.05179
G1 X123.011 Y117.347 E.04598
G1 X122.546 Y118.47 E.04389
G3 X121.81 Y119.706 I-28.233 J-15.995 E.05193
G1 X120.982 Y120.674 E.04598
G3 X119.892 Y121.605 I-18.674 J-20.76 E.05178
G1 X118.806 Y122.271 E.04599
G3 X117.522 Y122.793 I-10.881 J-24.916 E.05004
G1 X116.298 Y123.087 E.04546
G1 X115.063 Y123.185 E.04473
G3 X113.64 Y123.088 I1.765 J-36.575 E.05149
G1 X112.414 Y122.794 E.04553
G3 X111.079 Y122.243 I9.723 J-25.423 E.05217
G1 X109.993 Y121.577 E.04598
G3 X108.949 Y120.674 I15.068 J-18.48 E.04986
G1 X108.121 Y119.706 E.04598
G1 X107.456 Y118.62 E.04598
G3 X106.92 Y117.347 I60.826 J-26.381 E.04986
G1 X106.825 Y116.951 E.01473
G1 X107.361 Y117.217 F9000
;TYPE:Outer wall
G1 F1800
G1 X107.356 Y117.206 E.00046
G1 X107.067 Y116.002 E.04468
G3 X106.966 Y114.715 I61.039 J-5.452 E.04662
G1 X107.063 Y113.482 E.04468
G1 X107.316 Y112.427 E.03917
G3 X107.832 Y111.112 I17.928 J6.274 E.051
G1 X108.492 Y110.03 E.04576
G1 X109.308 Y109.075 E.04534
G1 X110.249 Y108.272 E.04468
G3 X111.35 Y107.597 I30.919 J49.22 E.04662
G1 X112.493 Y107.124 E.04468
G1 X113.579 Y106.863 E.04031
G3 X114.953 Y106.733 I2.833 J22.625 E.04986
G1 X116.199 Y106.829 E.0451
G3 X117.455 Y107.13 I-15.686 J68.115 E.04663
G1 X118.581 Y107.597 E.04403
G3 X119.682 Y108.272 I-27.963 J46.866 E.04662
G1 X120.623 Y109.075 E.04468
G1 X121.368 Y109.947 E.04138
G3 X122.095 Y111.101 I-24.377 J16.169 E.04925
G1 X122.568 Y112.244 E.04468
G3 X122.87 Y113.499 I-66.66 J16.667 E.04662
G1 X122.965 Y114.715 E.04403
G3 X122.864 Y116.002 I-50.603 J-3.335 E.04662
G1 X122.575 Y117.206 E.04468
G1 X122.124 Y118.295 E.04259
G3 X121.439 Y119.436 I-34.835 J-20.145 E.04805
G1 X120.635 Y120.377 E.04468
G3 X119.653 Y121.216 I-43.642 J-50.104 E.04662
G1 X118.598 Y121.862 E.04468
G3 X117.416 Y122.349 I-22.998 J-54.248 E.04616
G1 X116.226 Y122.634 E.04417
G1 X115.027 Y122.729 E.04344
G3 X113.712 Y122.636 I2.746 J-47.852 E.04759
G1 X112.521 Y122.35 E.04424
G3 X111.318 Y121.853 I23.921 J-59.607 E.04699
G1 X110.263 Y121.206 E.04469
G1 X109.461 Y120.522 E.03804
G3 X108.492 Y119.436 I11.831 J-11.533 E.05257
G1 X107.846 Y118.381 E.04468
G1 X107.376 Y117.254 E.04407
G1 E-1.2 F2400
;WIPE_START
G1 F9000
G1 X107.356 Y117.206
G1 X107.067 Y116.002
G1 X107.011 Y115.295
;WIPE_END
G1 X110.485 Y113.715 Z.4
G1 X126.578 Y106.399 Z.4
G1 Z.2
G1 E1.2 F1800
;TYPE:Bottom surface
;WIDTH:0.505189
G1 F4800
G1 X125.037 Y104.857 E.07959
G1 X123.934 Y103.843 E.05471
G1 X122.682 Y102.922 E.05676
G1 X122.128 Y102.602 E.02338
G1 X127.119 Y107.594 E.25777
G1 X127.724 Y108.712 E.04643
G1 X127.821 Y108.949 E.00933
G1 X120.767 Y101.896 E.36424
G1 X119.912 Y101.521 E.03409
G1 X119.66 Y101.441 E.00968
G1 X128.268 Y110.05 E.44455
G1 X128.543 Y110.979 E.03538
G1 X118.708 Y101.144 E.50789
G2 X117.856 Y100.945 I-1.315 J3.714 E.03202
G1 X128.767 Y111.857 E.56347
G1 X128.898 Y112.641 E.02905
M73 P4 R14
G1 X117.045 Y100.788 E.61213
G1 X116.887 Y100.757 E.00586
G1 X116.313 Y100.71 E.02105
G1 X129 Y113.397 E.6552
G1 X129.038 Y114.089 E.0253
G1 X115.6 Y100.651 E.69398
G1 X115.5 Y100.642 E.00364
G2 X114.937 Y100.642 I-.284 J2.544 E.02061
G1 X129.071 Y114.776 E.72991
G1 X129.037 Y115.395 E.02266
G1 X114.301 Y100.659 E.761
G2 X113.678 Y100.69 I-.172 J2.83 E.02282
G1 X129.003 Y116.015 E.7914
G3 X128.935 Y116.601 I-2.681 J-.012 E.02159
G1 X122.381 Y110.046 E.3385
G1 X122.098 Y109.578 E.01999
G1 X121.161 Y108.484 E.0526
G1 X120.078 Y107.573 E.05166
G1 X119.641 Y107.306 E.01871
G1 X113.104 Y100.77 E.33757
G1 X112.53 Y100.849 E.02117
G1 X118.294 Y106.613 E.29766
G1 X117.753 Y106.388 E.0214
G1 X117.304 Y106.277 E.01691
G1 X111.984 Y100.957 E.27473
G1 X111.462 Y101.089 E.01965
G1 X116.434 Y106.061 E.25678
G1 X115.717 Y105.998 E.02629
G1 X110.94 Y101.221 E.24668
G2 X110.448 Y101.383 I.484 J2.305 E.01895
G1 X115.011 Y105.946 E.23564
G1 X114.881 Y105.936 E.00476
G1 X114.387 Y105.976 E.01809
G1 X109.973 Y101.561 E.22799
G1 X109.497 Y101.739 E.01855
G1 X113.782 Y106.024 E.2213
G2 X113.231 Y106.127 I.059 J1.844 E.02055
G1 X109.045 Y101.941 E.21616
G1 X108.611 Y102.161 E.01776
G1 X112.703 Y106.252 E.21127
G2 X112.191 Y106.394 I.207 J1.74 E.01947
G1 X108.177 Y102.38 E.20726
G2 X107.758 Y102.615 I.851 J2.012 E.01757
G1 X111.725 Y106.582 E.20487
G1 X111.26 Y106.771 E.01833
G1 X107.363 Y102.873 E.20125
G1 X106.967 Y103.132 E.01725
G1 X110.825 Y106.989 E.1992
G1 X110.418 Y107.236 E.01738
G1 X106.576 Y103.394 E.19842
G1 X106.217 Y103.689 E.01696
G1 X110.011 Y107.483 E.19591
G2 X109.627 Y107.753 I.628 J1.296 E.01721
G1 X105.859 Y103.984 E.19463
G1 X105.5 Y104.279 E.01696
G1 X109.275 Y108.055 E.19497
G1 X108.923 Y108.356 E.01693
G1 X105.169 Y104.602 E.1939
G1 X104.846 Y104.933 E.01688
G1 X108.596 Y108.683 E.19363
G1 X108.297 Y109.037 E.01694
G1 X104.524 Y105.264 E.19483
G2 X104.216 Y105.61 I1.405 J1.565 E.01694
G1 X107.998 Y109.392 E.19531
G2 X107.717 Y109.766 I1.046 J1.077 E.01712
G1 X103.929 Y105.978 E.19562
G1 X103.643 Y106.345 E.01701
