;TIME:711.58
;Filament used:0.65800m
;Layer height:0.200
; HEADER_BLOCK_START
; generated by Creality_Print V6.2.2.3134 on 2025-08-30 at 01:31:48
; total layer number: 100
; filament_density: 1.24
; filament_diameter: 1.75
; max_z_height: 20.00
; creality_uuid: 138b7c7f-a9d1-455f-8666-2f5b44a1c554
; HEADER_BLOCK_END

; MINX = 102.50
; MINY = 102.50
; MINZ = 0.00
; MAXX = 117.50
; MAXY = 117.50
; MAXZ = 20.00

; THUMBNAIL_BLOCK_START

;
; THUMBNAIL_BLOCK_END

; THUMBNAIL_BLOCK_START

;
; THUMBNAIL_BLOCK_END

; external perimeters extrusion width = 0.42mm
; perimeters extrusion width = 0.45mm
; infill extrusion width = 0.45mm
; solid infill extrusion width = 0.42mm
; top infill extrusion width = 0.42mm
; first layer extrusion width = 0.50mm

; EXECUTABLE_BLOCK_START
M73 P0 R11
M201 X5000 Y5000 Z500 E5000
M203 X500 Y500 Z30 E100
M204 P5000 R2500 T5000 ; sets acceleration (P, T) and retract acceleration (R), mm/sec^2
M205 X10.00 Y10.00 Z0.40 E5.00 ; sets the jerk limits, mm/sec
;TYPE:Custom
M220 S100 ;Reset Feedrate 
M221 S100 ;Reset Flowrate 
 
M140 S50 ;Set final bed temp 
G28 ;Home 
 
G92 E0 ;Reset Extruder 
G1 Z2.0 F3000 ;Move Z Axis up 
M104 S190 ;Set final nozzle temp 
G1 X-2.1 Y20 Z0.28 F5000.0 ;Move to start position 
M190 S50 ;Wait for bed temp to stabilize 
M109 S190 ;Wait for nozzle temp to stabilize 
G1 X-2.1 Y145.0 Z0.28 F1500.0 E15 ;Draw the first line 
G1 X-2.4 Y145.0 Z0.28 F5000.0 ;Move to side a little 
G1 X-2.4 Y20 Z0.28 F1500.0 E30 ;Draw the second line 
G92 E0  ;Reset Extruder 
G1 E-1.0000 F1800 ;Retract a bit 
M73 P1 R11
G1 Z2.0 F3000 ;Move Z Axis up 
G1 E0.0000 F1800
G90
G21
M83 ; use relative distances for extrusion
;filament start gcode
G1 E-1.2 F2400
M106 S0
;LAYER_CHANGE
;Z:0.2
;HEIGHT:0.2
;BEFORE_LAYER_CHANGE
;0.2
G92 E0

;_SET_FAN_SPEED_CHANGING_LAYER
M204 P500
M205 X10 Y10
; printing object Object_1 id:0 copy 0
M204 T500
G1 X116.6 Y110.622 Z.2 F9000
G1 E1.2 F1800
;TYPE:Inner wall
;WIDTH:0.499999
G1 X116.583 Y110.877 E.00921
G1 X116.415 Y111.719 E.031
G1 X116.136 Y112.541 E.03137
G1 X115.751 Y113.321 E.03136
G1 X115.269 Y114.043 E.03137
G1 X114.696 Y114.696 E.03136
G1 X114.043 Y115.269 E.03136
G1 X113.321 Y115.751 E.03137
G1 X112.541 Y116.136 E.03136
G1 X111.719 Y116.415 E.03137
G1 X110.867 Y116.584 E.03137
G1 X110 Y116.641 E.03136
G1 X109.133 Y116.584 E.03136
G1 X108.281 Y116.415 E.03137
G1 X107.459 Y116.136 E.03137
G1 X106.679 Y115.751 E.03136
G1 X105.957 Y115.269 E.03137
G1 X105.304 Y114.696 E.03136
G1 X104.731 Y114.043 E.03136
G1 X104.249 Y113.321 E.03137
G1 X103.864 Y112.541 E.03136
G1 X103.585 Y111.719 E.03137
G1 X103.416 Y110.867 E.03137
G1 X103.359 Y110 E.03136
G1 X103.416 Y109.133 E.03136
G1 X103.585 Y108.281 E.03137
G1 X103.864 Y107.459 E.03137
G1 X104.249 Y106.679 E.03136
G1 X104.731 Y105.957 E.03137
G1 X105.304 Y105.304 E.03136
G1 X105.957 Y104.731 E.03136
G1 X106.679 Y104.249 E.03137
G1 X107.459 Y103.864 E.03136
G1 X108.281 Y103.585 E.03137
G1 X109.133 Y103.416 E.03136
G1 X110.005 Y103.359 E.03154
G1 X110.867 Y103.416 E.0312
G1 X111.719 Y103.585 E.03137
G1 X112.541 Y103.864 E.03137
G1 X113.321 Y104.249 E.03136
G1 X114.043 Y104.731 E.03137
G1 X114.696 Y105.304 E.03136
G1 X115.269 Y105.957 E.03136
G1 X115.751 Y106.679 E.03137
G1 X116.136 Y107.459 E.03136
G1 X116.415 Y108.281 E.03137
G3 X116.633 Y110.123 I-8.047 J1.886 E.06711
G1 X116.602 Y110.582 E.01661
G1 X117.087 Y110.111 F9000
;TYPE:Outer wall
G1 F1800
G1 X117.089 Y110.154 E.00154
G1 X117.037 Y110.937 E.02834
G1 X116.857 Y111.837 E.03316
G1 X116.559 Y112.717 E.03353
G1 X116.148 Y113.55 E.03353
G1 X115.632 Y114.322 E.03353
G1 X115.02 Y115.02 E.03353
G1 X114.322 Y115.632 E.03353
G1 X113.55 Y116.148 E.03353
G1 X112.717 Y116.559 E.03353
G1 X111.837 Y116.857 E.03353
G1 X110.927 Y117.038 E.03353
G1 X110 Y117.099 E.03353
G1 X109.073 Y117.038 E.03353
G1 X108.163 Y116.857 E.03353
G1 X107.283 Y116.559 E.03353
G1 X106.45 Y116.148 E.03353
G1 X105.678 Y115.632 E.03353
G1 X104.98 Y115.02 E.03353
G1 X104.368 Y114.322 E.03353
G1 X103.852 Y113.55 E.03353
G1 X103.441 Y112.717 E.03353
G1 X103.143 Y111.837 E.03353
G1 X102.962 Y110.927 E.03353
G1 X102.901 Y110 E.03353
G1 X102.962 Y109.073 E.03353
G1 X103.143 Y108.163 E.03353
G1 X103.441 Y107.283 E.03353
M73 P2 R11
G1 X103.852 Y106.45 E.03353
G1 X104.368 Y105.678 E.03353
G1 X104.98 Y104.98 E.03353
G1 X105.678 Y104.368 E.03353
G1 X106.45 Y103.852 E.03353
G1 X107.283 Y103.441 E.03353
G1 X108.163 Y103.143 E.03353
G1 X109.073 Y102.962 E.03352
G1 X110.005 Y102.901 E.0337
G1 X110.927 Y102.962 E.03336
G1 X111.837 Y103.143 E.03353
G1 X112.717 Y103.441 E.03353
G1 X113.55 Y103.852 E.03353
G1 X114.322 Y104.368 E.03353
G1 X115.02 Y104.98 E.03353
G1 X115.632 Y105.678 E.03353
G1 X116.148 Y106.45 E.03353
G1 X116.559 Y107.283 E.03353
G1 X116.857 Y108.163 E.03353
G3 X117.065 Y109.528 I-8.621 J2.012 E.04992
G1 X117.086 Y110.071 E.01962
G1 E-1.2 F2400
;WIPE_START
G1 F9000
G1 X117.089 Y110.154
G1 X117.037 Y110.937
G1 X116.857 Y111.837
G1 X116.788 Y112.04
;WIPE_END
G1 X112.997 Y112.477 Z.4
G1 X111.117 Y112.694 Z.4
G1 Z.2
G1 E1.2 F1800
;TYPE:Inner wall
G1 X111.111 Y112.697 E.00022
G1 X110.433 Y112.885 E.02539
G1 X109.731 Y112.905 E.02539
G3 X108.412 Y112.447 I.402 J-3.287 E.05079
G1 X107.872 Y111.995 E.02539
G1 X107.457 Y111.428 E.02539
G1 X107.189 Y110.778 E.02539
G1 X107.084 Y110.083 E.02539
G1 X107.149 Y109.382 E.02539
G3 X107.457 Y108.572 I4.068 J1.079 E.03136
G1 X107.763 Y108.128 E.01946
G1 X108.276 Y107.647 E.02539
G1 X108.889 Y107.303 E.02539
G1 X109.567 Y107.115 E.02539
G1 X110.269 Y107.095 E.02539
G3 X111.588 Y107.553 I-.402 J3.287 E.05079
G1 X112.127 Y108.003 E.02532
G1 X112.538 Y108.563 E.02508
G1 X112.806 Y109.206 E.02517
G1 X112.915 Y109.914 E.02587
G1 X112.85 Y110.621 E.02561
G3 X112.544 Y111.427 I-4.067 J-1.082 E.0312
G1 X112.244 Y111.863 E.01912
G1 X111.727 Y112.351 E.02567
G1 X111.151 Y112.674 E.02382
G1 X111.331 Y112.059 F9000
;TYPE:Outer wall
G1 F1800
G1 X110.899 Y112.292 E.01772
G1 X110.324 Y112.441 E.02143
G1 X109.731 Y112.447 E.02143
G1 X109.153 Y112.312 E.02143
G1 X108.692 Y112.078 E.01864
G1 X108.175 Y111.653 E.02416
G1 X107.833 Y111.169 E.02143
G1 X107.616 Y110.616 E.02143
G1 X107.538 Y110.028 E.02143
G1 X107.603 Y109.438 E.02143
G1 X107.807 Y108.88 E.02143
G1 X108.122 Y108.412 E.02038
G1 X108.579 Y107.989 E.02246
G1 X109.101 Y107.708 E.02143
G1 X109.676 Y107.559 E.02143
G1 X110.269 Y107.553 E.02143
G1 X110.847 Y107.688 E.02143
G1 X111.308 Y107.922 E.01864
G1 X111.824 Y108.345 E.0241
G1 X112.162 Y108.823 E.02112
G1 X112.379 Y109.37 E.02127
G1 X112.462 Y109.972 E.02191
G1 X112.396 Y110.565 E.02156
G1 X112.193 Y111.119 E.02131
G1 X111.877 Y111.591 E.0205
G1 X111.422 Y112.01 E.02233
G1 X111.366 Y112.04 E.0023
G1 E-1.2 F2400
;WIPE_START
G1 F9000
G1 X110.899 Y112.292
G1 X110.324 Y112.441
G1 X109.731 Y112.447
G1 X109.456 Y112.383
;WIPE_END
G1 X113.3 Y104.4 Z.4
G1 Z.4
G1 Z.2
G1 E1.2 F1800
;TYPE:Bottom surface
;WIDTH:0.509103
G1 F4800
G1 X114.494 Y105.594 E.06219
G1 X114.996 Y106.166 E.02802
G1 X115.454 Y106.851 E.03034
G1 X115.806 Y107.565 E.0293
G1 X112.435 Y104.194 E.17553
G1 X111.63 Y103.917 E.03137
G1 X111.466 Y103.884 E.00615
G1 X116.116 Y108.534 E.24214
G1 X116.242 Y109.168 E.02382
G1 X116.253 Y109.331 E.00599
G1 X110.669 Y103.746 E.29082
G1 X110.104 Y103.709 E.02085
G2 X109.968 Y103.705 I-.084 J.515 E.005
G1 X116.295 Y110.032 E.32951
G1 X116.254 Y110.65 E.02282
G1 X109.349 Y103.745 E.35961
G2 X108.78 Y103.836 I.056 J2.195 E.02128
G1 X116.165 Y111.22 E.38458
G3 X116.04 Y111.755 I-2.102 J-.206 E.02028
G1 X112.973 Y108.688 E.15974
G2 X112.824 Y108.373 I-1.323 J.436 E.01286
G2 X112.364 Y107.756 I-2.872 J1.656 E.0284
G1 X111.842 Y107.305 E.02541
G1 X111.323 Y107.038 E.0215
G1 X108.245 Y103.96 E.1603
G1 X107.753 Y104.127 E.01914
G1 X110.387 Y106.761 E.13722
G1 X109.72 Y106.753 E.02459
G1 X107.294 Y104.328 E.12632
G1 X106.853 Y104.545 E.01813
G1 X109.168 Y106.861 E.12057
G2 X108.676 Y107.028 I.359 J1.855 E.01919
G1 X106.457 Y104.809 E.11556
G2 X106.074 Y105.085 I.855 J1.595 E.01745
G1 X108.247 Y107.258 E.11316
G1 X108.157 Y107.306 E.00375
G1 X107.88 Y107.55 E.0136
G1 X105.723 Y105.393 E.11235
G2 X105.393 Y105.723 I1.087 J1.417 E.01722
G1 X107.535 Y107.865 E.11158
G1 X107.268 Y108.257 E.01747
G1 X105.085 Y106.074 E.11368
G2 X104.809 Y106.458 I1.319 J1.239 E.01745
G1 X107.031 Y108.679 E.11572
G1 X106.85 Y109.158 E.01883
G1 X104.545 Y106.853 E.12002
G1 X104.328 Y107.294 E.01813
G1 X106.762 Y109.729 E.12677
G2 X106.783 Y110.41 I2.028 J.276 E.0252
G1 X103.964 Y107.591 E.14681
G1 E-1.2 F2400
;WIPE_START
G1 F9000
G1 X105.379 Y109.005
;WIPE_END
G1 X109.191 Y109.177 Z.4
G1 X112.973 Y109.347 Z.4
G1 Z.2
M73 P3 R11
G1 E1.2 F1800
G1 F4800
G1 X115.873 Y112.247 E.15102
G3 X115.672 Y112.706 I-1.841 J-.534 E.01848
G1 X113.238 Y110.271 E.12677
G3 X113.147 Y110.84 I-2.389 J-.09 E.02125
G1 X115.455 Y113.147 E.12016
G1 X115.191 Y113.543 E.01751
G1 X112.969 Y111.321 E.1157
G3 X112.732 Y111.743 I-1.024 J-.296 E.01799
G1 X114.915 Y113.926 E.11367
G1 X114.607 Y114.277 E.0172
G1 X112.465 Y112.135 E.11155
G1 X112.119 Y112.449 E.01719
G1 X114.277 Y114.607 E.11238
G1 X113.926 Y114.915 E.0172
G1 X111.753 Y112.742 E.11316
G1 X111.324 Y112.972 E.01794
G1 X113.542 Y115.191 E.11554
G1 X113.149 Y115.454 E.01744
G1 X110.828 Y113.136 E.12078
G1 X110.341 Y113.246 E.01838
G1 X110.278 Y113.245 E.00233
G1 X112.706 Y115.672 E.12642
G3 X112.247 Y115.873 I-.992 J-1.64 E.01848
G1 X109.342 Y112.968 E.15132
G1 E-1.2 F2400
;WIPE_START
G1 F9000
G1 X110.756 Y114.382
;WIPE_END
G1 X111.917 Y116.203 Z.4
G1 Z.2
G1 E1.2 F1800
G1 F4800
G1 X108.699 Y112.985 E.16758
G3 X108.056 Y112.617 I1.227 J-2.889 E.02735
G1 X107.553 Y112.161 E.02502
G1 X107.099 Y111.496 E.02963
G1 X107.03 Y111.315 E.00713
G1 X103.96 Y108.245 E.15991
G2 X103.835 Y108.78 I1.971 J.739 E.02029
G1 X111.22 Y116.165 E.38457
G3 X110.651 Y116.255 I-.628 J-2.115 E.02127
G1 X103.745 Y109.349 E.35964
G1 X103.705 Y109.968 E.02283
G1 X110.032 Y116.295 E.32953
G1 X109.331 Y116.254 E.02586
G1 X103.746 Y110.669 E.29085
G1 X103.756 Y110.822 E.00565
G1 X103.885 Y111.466 E.02419
G1 X108.534 Y116.115 E.24212
G1 X108.37 Y116.083 E.00614
G1 X107.564 Y115.806 E.03138
G1 X104.194 Y112.436 E.17551
G1 X104.546 Y113.149 E.02928
G1 X105.004 Y113.834 E.03034
G1 X105.506 Y114.407 E.02807
G1 X106.699 Y115.6 E.06212
G1 E-1.2 F2400
;WIPE_START
G1 F9000
G1 X105.506 Y114.407
G1 X105.3 Y114.171
;WIPE_END
G1 X107.714 Y111.216 Z.4
G1 X113.185 Y104.515 Z.4
G1 Z.2
G1 E1.2 F1800
;TYPE:Gap infill
;WIDTH:0.147161
G1 X113.067 Y104.43 E.0012
;WIDTH:0.130697
G1 X112.949 Y104.346 E.00101
G1 E-1.2 F2400
;WIPE_START
G1 F9000
G1 X113.067 Y104.43
;WIPE_END
G1 X111.264 Y107.794 Z.4
G1 X107.051 Y115.654 Z.4
G1 Z.2
G1 E1.2 F1800
;WIDTH:0.114248
G1 X106.933 Y115.569 E.00082
;WIDTH:0.130726
G1 X106.814 Y115.485 E.00101
G1 E-1.2 F2400
;WIPE_START
G1 F9000
G1 X106.933 Y115.569
;WIPE_END
G1 X106.958 Y111.753 Z.4
G1 X106.963 Y110.897 Z.4
G1 Z.2
G1 E1.2 F1800
;WIDTH:0.131425
G1 X106.823 Y110.65 E.00198
; stop printing object Object_1 id:0 copy 0
;TIME_ELAPSED:27.517626

M106 S255
;LAYER_CHANGE
;Z:0.4
;HEIGHT:0.2
;BEFORE_LAYER_CHANGE
;0.4
G92 E0

G1 E-1.2 F2400
;WIPE_START
G1 F9000
G1 X106.963 Y110.897
;WIPE_END
;_SET_FAN_SPEED_CHANGING_LAYER
M204 P2500
; printing object Object_1 id:0 copy 0
M204 T2500
G1 X110.777 Y110.766 Z.4
G1 X116.86 Y110.558 Z.4
G1 E1.2 F1800
M204 P2000
;TYPE:Inner wall
;WIDTH:0.449999
G1 F5400
G1 X116.838 Y110.896 E.01089
G1 X116.662 Y111.785 E.02914
G1 X116.372 Y112.639 E.02901
G1 X115.973 Y113.448 E.02901
G1 X115.479 Y114.187 E.02855
G1 X114.876 Y114.877 E.02948
G1 X114.198 Y115.471 E.02899
G1 X113.448 Y115.973 E.02901
G1 X112.639 Y116.372 E.02901
G1 X111.785 Y116.662 E.02901
G1 X110.9 Y116.838 E.02901
G1 X110 Y116.897 E.02901
G1 X109.1 Y116.838 E.02901
G1 X108.215 Y116.662 E.02901
G1 X107.361 Y116.372 E.02901
G1 X106.552 Y115.973 E.02901
G1 X105.813 Y115.479 E.02855
G1 X105.123 Y114.876 E.02948
G1 X104.529 Y114.198 E.02899
G1 X104.027 Y113.448 E.02901
G1 X103.628 Y112.639 E.02901
G1 X103.338 Y111.785 E.02901
G1 X103.162 Y110.9 E.02901
G1 X103.103 Y110 E.02901
G1 X103.162 Y109.1 E.02901
G1 X103.338 Y108.215 E.02901
G1 X103.628 Y107.361 E.02901
G1 X104.027 Y106.552 E.02901
G1 X104.521 Y105.813 E.02855
G1 X105.124 Y105.123 E.02948
G1 X105.802 Y104.529 E.02899
G1 X106.552 Y104.027 E.02901
G1 X107.361 Y103.628 E.02901
G1 X108.215 Y103.338 E.02901
G1 X109.099 Y103.162 E.02899
G1 X110.014 Y103.104 E.02948
G1 X110.9 Y103.162 E.02855
G1 X111.785 Y103.338 E.02901
G1 X112.639 Y103.628 E.02901
G1 X113.448 Y104.027 E.02901
G1 X114.187 Y104.521 E.02855
G1 X114.877 Y105.124 E.02948
G1 X115.471 Y105.802 E.02899
G1 X115.973 Y106.552 E.02901
G1 X116.372 Y107.361 E.02901
G1 X116.662 Y108.215 E.02902
G3 X116.887 Y110.142 I-8.44 J1.965 E.0625
G1 X116.863 Y110.518 E.01214
G1 X117.277 Y110.095 F9000
M204 P1000
;TYPE:Outer wall
;WIDTH:0.419999
G1 F3600
G1 X117.279 Y110.167 E.00216
G1 X117.228 Y110.947 E.02328
G1 X117.041 Y111.887 E.02853
G1 X116.735 Y112.79 E.0284
G1 X116.313 Y113.645 E.0284
G1 X115.791 Y114.426 E.02797
G1 X115.154 Y115.155 E.02884
G1 X114.438 Y115.783 E.0284
G1 X113.645 Y116.313 E.0284
G1 X112.79 Y116.735 E.0284
M73 P4 R11
G1 X111.887 Y117.041 E.0284
G1 X110.951 Y117.227 E.0284
G1 X110 Y117.29 E.0284
G1 X109.049 Y117.227 E.0284
G1 X108.113 Y117.041 E.0284
G1 X107.21 Y116.735 E.0284
G1 X106.355 Y116.313 E.0284
G1 X105.574 Y115.791 E.02797
G1 X104.845 Y115.154 E.02884
G1 X104.217 Y114.438 E.0284
G1 X103.687 Y113.645 E.0284
G1 X103.265 Y112.79 E.0284
G1 X102.959 Y111.887 E.0284
G1 X102.773 Y110.951 E.0284
G1 X102.71 Y110 E.0284
G1 X102.773 Y109.049 E.0284
G1 X102.959 Y108.113 E.0284
G1 X103.265 Y107.21 E.0284
G1 X103.687 Y106.355 E.0284
G1 X104.209 Y105.574 E.02797
G1 X104.846 Y104.845 E.02884
G1 X105.562 Y104.217 E.0284
G1 X106.355 Y103.687 E.0284
G1 X107.21 Y103.265 E.0284
G1 X108.113 Y102.959 E.0284
G1 X109.048 Y102.773 E.0284
G1 X110.014 Y102.711 E.02884
G1 X110.951 Y102.773 E.02797
G1 X111.887 Y102.959 E.0284
G1 X112.79 Y103.265 E.0284
G1 X113.645 Y103.687 E.0284
G1 X114.426 Y104.209 E.02797
G1 X115.155 Y104.846 E.02884
G1 X115.783 Y105.562 E.0284
G1 X116.313 Y106.355 E.0284
G1 X116.735 Y107.21 E.0284
G1 X117.041 Y108.113 E.02841
G1 X117.222 Y109.018 E.02747
G3 X117.265 Y109.646 I-13.424 J1.232 E.01876
G1 X117.276 Y110.055 E.01218
G1 E-1.2 F2400
;WIPE_START
G1 F9000
G1 X117.279 Y110.167
G1 X117.228 Y110.947
G1 X117.041 Y111.887
G1 X116.994 Y112.027
;WIPE_END
G1 X113.186 Y112.29 Z.6
G1 X111.056 Y112.437 Z.6
G1 Z.4
G1 E1.2 F1800
M204 P2000
;TYPE:Inner wall
;WIDTH:0.449999
G1 F5400
G1 X111.009 Y112.463 E.00172
G1 X110.39 Y112.633 E.02063
G1 X109.749 Y112.65 E.02063
G1 X109.122 Y112.512 E.02063
G1 X108.599 Y112.257 E.01873
G1 X108.055 Y111.817 E.02249
G1 X107.677 Y111.298 E.02063
G1 X107.434 Y110.705 E.02063
G1 X107.339 Y110.07 E.02063
G1 X107.4 Y109.431 E.02063
G3 X107.677 Y108.702 I3.773 J1.014 E.02513
G1 X107.962 Y108.288 E.01616
G1 X108.431 Y107.85 E.02063
G1 X108.972 Y107.547 E.01995
G1 X109.604 Y107.369 E.02112
G1 X110.251 Y107.35 E.02081
G1 X110.878 Y107.488 E.02063
G1 X111.401 Y107.743 E.01873
G1 X111.948 Y108.187 E.02264
G1 X112.307 Y108.676 E.01949
G1 X112.558 Y109.27 E.02076
G1 X112.66 Y109.927 E.02137
G1 X112.605 Y110.541 E.01982
G3 X112.325 Y111.295 I-3.656 J-.927 E.02593
G1 X112.016 Y111.74 E.01742
G1 X111.574 Y112.146 E.0193
G1 X111.091 Y112.417 E.01782
G1 X111.261 Y111.881 F9000
M204 P1000
;TYPE:Outer wall
;WIDTH:0.419999
G1 F3600
G1 X110.827 Y112.116 E.0147
G1 X110.296 Y112.252 E.01631
G1 X109.749 Y112.257 E.01631
G1 X109.216 Y112.132 E.01631
G1 X108.728 Y111.882 E.01631
G1 X108.315 Y111.523 E.01631
G1 X107.999 Y111.076 E.01631
G1 X107.8 Y110.566 E.01631
G1 X107.729 Y110.023 E.01631
G1 X107.789 Y109.479 E.01631
G1 X107.978 Y108.965 E.01631
G1 X108.272 Y108.53 E.01562
G1 X108.691 Y108.144 E.01698
G1 X109.155 Y107.894 E.01568
G1 X109.702 Y107.748 E.01687
G1 X110.251 Y107.743 E.01636
G1 X110.784 Y107.868 E.01631
G1 X111.272 Y108.118 E.01631
G1 X111.688 Y108.48 E.01644
G1 X111.985 Y108.899 E.01529
G1 X112.194 Y109.414 E.01657
G1 X112.271 Y109.976 E.0169
G1 X112.216 Y110.495 E.01553
