;TIME:1297.42
;Filament used:1.97178m
;Layer height:0.200
; HEADER_BLOCK_START
; generated by Creality_Print V6.2.2.3134 on 2025-08-30 at 16:04:59
; total layer number: 50
; filament_density: 1.24
; filament_diameter: 1.75
; max_z_height: 10.00
; creality_uuid: 2ed7f388-42e4-427d-ad49-5b083c98c5d5
; HEADER_BLOCK_END

; MINX = 84.05
; MINY = 91.48
; MINZ = 0.00
; MAXX = 135.95
; MAXY = 128.52
; MAXZ = 10.00

; THUMBNAIL_BLOCK_START

;
; THUMBNAIL_BLOCK_END

; THUMBNAIL_BLOCK_START

;
; THUMBNAIL_BLOCK_END

; external perimeters extrusion width = 0.42mm
; perimeters extrusion width = 0.45mm
; infill extrusion width = 0.45mm
; solid infill extrusion width = 0.42mm
; top infill extrusion width = 0.42mm
; first layer extrusion width = 0.50mm

; external perimeters extrusion width = 0.42mm
; perimeters extrusion width = 0.45mm
; infill extrusion width = 0.45mm
; solid infill extrusion width = 0.42mm
; top infill extrusion width = 0.42mm
; first layer extrusion width = 0.50mm

; external perimeters extrusion width = 0.42mm
; perimeters extrusion width = 0.45mm
; infill extrusion width = 0.45mm
; solid infill extrusion width = 0.42mm
; top infill extrusion width = 0.42mm
; first layer extrusion width = 0.50mm

; EXECUTABLE_BLOCK_START
M73 P0 R21
M201 X5000 Y5000 Z500 E5000
M203 X500 Y500 Z30 E100
M204 P5000 R2500 T5000 ; sets acceleration (P, T) and retract acceleration (R), mm/sec^2
M205 X10.00 Y10.00 Z0.40 E5.00 ; sets the jerk limits, mm/sec
;TYPE:Custom
M220 S100 ;Reset Feedrate 
M221 S100 ;Reset Flowrate 
 
M140 S50 ;Set final bed temp 
G28 ;Home 
 
G92 E0 ;Reset Extruder 
G1 Z2.0 F3000 ;Move Z Axis up 
M104 S190 ;Set final nozzle temp 
G1 X-2.1 Y20 Z0.28 F5000.0 ;Move to start position 
M190 S50 ;Wait for bed temp to stabilize 
M109 S190 ;Wait for nozzle temp to stabilize 
G1 X-2.1 Y145.0 Z0.28 F1500.0 E15 ;Draw the first line 
G1 X-2.4 Y145.0 Z0.28 F5000.0 ;Move to side a little 
G1 X-2.4 Y20 Z0.28 F1500.0 E30 ;Draw the second line 
G92 E0  ;Reset Extruder 
G1 E-1.0000 F1800 ;Retract a bit 
G1 Z2.0 F3000 ;Move Z Axis up 
G1 E0.0000 F1800
G90
G21
M83 ; use relative distances for extrusion
;filament start gcode
G1 E-1.2 F2400
M106 S0
;LAYER_CHANGE
;Z:0.2
;HEIGHT:0.2
;BEFORE_LAYER_CHANGE
;0.2
G92 E0

;_SET_FAN_SPEED_CHANGING_LAYER
M204 P500
M205 X10 Y10
; printing object Object_3 id:25 copy 0
M204 T500
G1 X134.05 Y109.895 Z.2 F9000
G1 E1.2 F1800
;TYPE:Inner wall
;WIDTH:0.389565
G1 X134.409 Y110.744 E.02523
;WIDTH:0.375633
G1 X134.82 Y112.14 E.03827
;WIDTH:0.377727
G1 X135.068 Y113.573 E.03845
;WIDTH:0.380339
G1 X135.152 Y115.024 E.03874
;WIDTH:0.383249
G1 X135.068 Y116.475 E.03907
;WIDTH:0.385837
G1 X134.82 Y117.907 E.03936
;WIDTH:0.387907
G1 X134.438 Y119.208 E.03697
G1 X134.296 Y119.573 E.01065
;WIDTH:0.389345
G1 X133.895 Y120.52 E.02815
G1 X133.66 Y120.965 E.01376
;WIDTH:0.390717
G1 X133.194 Y121.787 E.02596
G1 X132.862 Y122.271 E.01613
;WIDTH:0.391414
G3 X131.913 Y123.472 I-7.51 J-4.958 E.04218
;WIDTH:0.391656
G3 X130.827 Y124.55 I-6.885 J-5.848 E.04221
;WIDTH:0.391415
G3 X129.62 Y125.491 I-6.159 J-6.664 E.04219
;WIDTH:0.390736
G1 X129.196 Y125.779 E.01407
G1 X127.95 Y126.467 E.03912
;WIDTH:0.389565
G1 X126.727 Y126.984 E.03636
;WIDTH:0.375627
G1 X125.333 Y127.394 E.0382
;WIDTH:0.377727
G1 X123.901 Y127.642 E.03843
;WIDTH:0.380339
G1 X122.45 Y127.725 E.03873
;WIDTH:0.38325
G1 X120.999 Y127.642 E.03907
;WIDTH:0.385838
G1 X119.567 Y127.394 E.03936
;WIDTH:0.387909
G1 X118.265 Y127.012 E.03698
M73 P1 R21
G1 X117.901 Y126.87 E.01065
;WIDTH:0.389567
G1 X116.95 Y126.467 E.02828
G1 X116.509 Y126.234 E.01366
;WIDTH:0.390738
G1 X115.687 Y125.768 E.02594
G1 X115.203 Y125.436 E.01614
;WIDTH:0.391416
G3 X114.002 Y124.487 I4.958 J-7.509 E.04218
;WIDTH:0.391658
G3 X112.923 Y123.401 I5.848 J-6.885 E.04221
;WIDTH:0.391416
G3 X111.983 Y122.194 I6.665 J-6.159 E.04219
;WIDTH:0.390738
G1 X111.695 Y121.77 E.01407
G1 X111.007 Y120.524 E.03912
;WIDTH:0.389567
G1 X110.491 Y119.304 E.03627
;WIDTH:0.375633
G1 X110.08 Y117.907 E.03827
;WIDTH:0.377729
G1 X109.832 Y116.475 E.03845
;WIDTH:0.38034
G1 X109.748 Y115.024 E.03874
;WIDTH:0.38325
G1 X109.832 Y113.573 E.03907
;WIDTH:0.385838
G1 X110.08 Y112.141 E.03936
;WIDTH:0.387909
G1 X110.462 Y110.839 E.03697
G1 X110.604 Y110.475 E.01065
;WIDTH:0.389346
G1 X111.005 Y109.528 E.02815
G1 X111.24 Y109.083 E.01376
;WIDTH:0.390718
G1 X111.706 Y108.261 E.02596
G1 X112.038 Y107.777 E.01613
;WIDTH:0.391417
G3 X112.987 Y106.576 I7.509 J4.958 E.04218
;WIDTH:0.391657
G3 X114.073 Y105.497 I6.885 J5.848 E.04221
;WIDTH:0.391416
G3 X115.28 Y104.557 I6.159 J6.664 E.04219
;WIDTH:0.390738
G1 X115.704 Y104.269 E.01407
G1 X116.95 Y103.581 E.03912
;WIDTH:0.389568
G1 X118.173 Y103.063 E.03636
;WIDTH:0.375628
G1 X119.567 Y102.653 E.0382
;WIDTH:0.377728
G1 X120.999 Y102.405 E.03843
;WIDTH:0.379595
G1 X122.457 Y102.323 E.03884
;WIDTH:0.383279
G1 X123.901 Y102.405 E.03889
;WIDTH:0.385837
G1 X125.333 Y102.653 E.03936
;WIDTH:0.387907
G1 X126.634 Y103.036 E.03697
G1 X126.999 Y103.178 E.01065
;WIDTH:0.389565
G1 X127.95 Y103.581 E.02828
G1 X128.391 Y103.814 E.01366
;WIDTH:0.390736
G1 X129.213 Y104.279 E.02594
G1 X129.697 Y104.612 E.01614
;WIDTH:0.391415
G3 X130.898 Y105.56 I-4.958 J7.509 E.04218
;WIDTH:0.391656
G3 X131.977 Y106.646 I-5.848 J6.885 E.04221
;WIDTH:0.391416
G3 X132.917 Y107.854 I-6.664 J6.159 E.04219
;WIDTH:0.390736
G1 X133.205 Y108.278 E.01407
G1 X133.893 Y109.524 E.03912
;WIDTH:0.389565
G1 X134.035 Y109.858 E.00995
G1 E-1.2 F2400
;WIPE_START
G1 F9000
G1 X134.409 Y110.744
G1 X134.703 Y111.74
;WIPE_END
G1 X130.892 Y111.954 Z.4
G1 X110.254 Y113.113 Z.4
G1 Z.2
G1 E1.2 F1800
;WIDTH:0.377728
G1 X110.433 Y112.114 E.02683
;WIDTH:0.375629
G1 X110.862 Y110.71 E.03858
;WIDTH:0.389346
G3 X111.526 Y109.248 I21.109 J8.691 E.04394
;WIDTH:0.390718
G3 X112.284 Y107.997 I20.626 J11.652 E.0402
;WIDTH:0.391417
G3 X113.176 Y106.858 I20.279 J14.949 E.03983
;WIDTH:0.391657
G3 X114.228 Y105.799 I16.866 J15.714 E.04111
;WIDTH:0.391416
G1 X114.75 Y105.371 E.0186
G1 X115.399 Y104.875 E.02248
;WIDTH:0.390738
G3 X116.793 Y104.029 I13.082 J19.964 E.04481
;WIDTH:0.389568
G1 X118.136 Y103.436 E.0402
;WIDTH:0.387909
G1 X119.54 Y103.007 E.04001
;WIDTH:0.385838
G1 X120.985 Y102.747 E.03976
;WIDTH:0.383222
G1 X122.442 Y102.661 E.03925
;WIDTH:0.381154
G1 X123.915 Y102.747 E.03942
;WIDTH:0.377728
G1 X125.36 Y103.007 E.03882
;WIDTH:0.375627
G1 X126.764 Y103.436 E.03858
;WIDTH:0.389565
G3 X128.226 Y104.099 I-8.549 J20.804 E.04397
;WIDTH:0.390736
G3 X129.477 Y104.858 I-11.767 J20.807 E.0402
;WIDTH:0.391415
G3 X130.616 Y105.749 I-14.948 J20.278 E.03983
;WIDTH:0.391656
G3 X131.675 Y106.801 I-15.713 J16.865 E.04111
;WIDTH:0.391416
G3 X132.599 Y107.973 I-17.227 J14.534 E.04109
;WIDTH:0.390736
G3 X133.445 Y109.367 I-19.963 J13.082 E.04481
;WIDTH:0.389565
G1 X134.033 Y110.701 E.03991
;WIDTH:0.388581
G1 X134.467 Y112.113 E.04035
;WIDTH:0.385836
G1 X134.727 Y113.559 E.03978
;WIDTH:0.383249
G1 X134.814 Y115.024 E.03946
;WIDTH:0.380339
G1 X134.727 Y116.489 E.03912
;WIDTH:0.377727
G1 X134.467 Y117.934 E.03882
;WIDTH:0.375628
G1 X134.038 Y119.338 E.03858
;WIDTH:0.389345
G3 X133.374 Y120.8 I-21.11 J-8.692 E.04395
;WIDTH:0.390717
G3 X132.616 Y122.051 I-20.625 J-11.651 E.0402
;WIDTH:0.391414
G3 X131.724 Y123.19 I-20.274 J-14.945 E.03983
;WIDTH:0.391656
G3 X130.672 Y124.248 I-16.864 J-15.713 E.04111
;WIDTH:0.391415
G3 X129.501 Y125.172 I-14.535 J-17.228 E.04109
;WIDTH:0.390736
G3 X128.107 Y126.019 I-13.082 J-19.963 E.04481
;WIDTH:0.389565
G1 X126.764 Y126.611 E.04019
;WIDTH:0.387907
G1 X125.36 Y127.041 E.04
;WIDTH:0.385837
G1 X123.915 Y127.3 E.03976
;WIDTH:0.383249
G1 X122.45 Y127.388 E.03946
;WIDTH:0.38034
G1 X120.985 Y127.3 E.03912
;WIDTH:0.377728
G1 X119.54 Y127.041 E.03882
;WIDTH:0.375628
G1 X118.136 Y126.611 E.03858
;WIDTH:0.389567
G3 X116.674 Y125.949 I8.549 J-20.804 E.04397
;WIDTH:0.390738
G3 X115.423 Y125.19 I11.768 J-20.808 E.0402
;WIDTH:0.391416
G3 X114.284 Y124.298 I14.948 J-20.277 E.03983
;WIDTH:0.391658
G3 X113.225 Y123.246 I15.713 J-16.865 E.04111
;WIDTH:0.391416
G3 X112.301 Y122.074 I17.227 J-14.534 E.04109
;WIDTH:0.390738
G3 X111.455 Y120.681 I19.964 J-13.082 E.04481
;WIDTH:0.389567
G1 X110.867 Y119.347 E.03991
;WIDTH:0.388583
G1 X110.433 Y117.935 E.04035
;WIDTH:0.385838
G1 X110.173 Y116.489 E.03978
;WIDTH:0.38325
G1 X110.086 Y115.024 E.03946
;WIDTH:0.38034
G1 X110.173 Y113.559 E.03912
;WIDTH:0.377728
G1 X110.247 Y113.152 E.01093
G1 X110.573 Y113.572 F9000
;TYPE:Outer wall
;WIDTH:0.499999
G1 F1800
G1 X110.832 Y112.16 E.05181
G3 X111.267 Y110.768 I126.998 J38.962 E.05267
G1 X111.849 Y109.476 E.05117
G3 X112.604 Y108.224 I212.248 J127.247 E.05277
G1 X113.485 Y107.1 E.05156
G3 X114.505 Y106.077 I226.607 J225.065 E.05217
G1 X114.999 Y105.688 E.02268
G1 X115.642 Y105.185 E.02949
G3 X116.889 Y104.429 I118.755 J194.533 E.05267
G1 X118.207 Y103.836 E.05217
G1 X119.586 Y103.406 E.05217
G1 X121.008 Y103.145 E.05217
G1 X122.436 Y103.059 E.05166
G1 X123.892 Y103.145 E.05267
G1 X125.314 Y103.406 E.05218
G3 X126.706 Y103.841 I-38.937 J126.92 E.05267
G1 X127.998 Y104.423 E.05117
G3 X129.249 Y105.178 I-127.084 J211.979 E.05277
G1 X130.374 Y106.059 E.05156
G3 X131.397 Y107.079 I-225.065 J226.607 E.05217
G3 X132.289 Y108.216 I-213.86 J168.866 E.05217
G3 X133.045 Y109.463 I-194.356 J118.648 E.05267
G1 X133.632 Y110.768 E.05166
G1 X134.068 Y112.16 E.05267
G1 X134.329 Y113.582 E.05218
G1 X134.416 Y115.024 E.05217
G1 X134.329 Y116.466 E.05217
G1 X134.068 Y117.887 E.05217
G3 X133.633 Y119.28 I-126.858 J-38.918 E.05267
G1 X133.051 Y120.572 E.05117
G3 X132.296 Y121.823 I-212.038 J-127.119 E.05277
G1 X131.415 Y122.948 E.05156
G3 X130.395 Y123.971 I-226.512 J-224.97 E.05217
G3 X129.258 Y124.863 I-168.909 J-213.916 E.05217
G3 X128.011 Y125.619 I-118.584 J-194.25 E.05267
G1 X126.693 Y126.212 E.05217
G1 X125.314 Y126.642 E.05217
G1 X123.892 Y126.902 E.05217
G1 X122.45 Y126.99 E.05217
G1 X121.008 Y126.902 E.05217
G1 X119.586 Y126.642 E.05217
G3 X118.194 Y126.206 I38.98 J-127.057 E.05267
G1 X116.902 Y125.625 E.05117
G3 X115.651 Y124.869 I127.184 J-212.146 E.05277
G1 X114.526 Y123.989 E.05156
G3 X113.503 Y122.968 I225.165 J-226.708 E.05217
G3 X112.611 Y121.832 I213.86 J-168.866 E.05217
G3 X111.855 Y120.585 I194.445 J-118.701 E.05267
G1 X111.268 Y119.28 E.05166
G1 X110.832 Y117.888 E.05267
G1 X110.571 Y116.466 E.05218
G1 X110.484 Y115.024 E.05217
G1 X110.57 Y113.612 E.05109
G1 E-1.2 F2400
;WIPE_START
G1 F9000
G1 X110.832 Y112.16
G1 X110.989 Y111.659
;WIPE_END
G1 X114.787 Y111.286 Z.4
G1 X134.255 Y109.375 Z.4
G1 Z.2
G1 E1.2 F1800
G3 X134.814 Y110.697 I-13.968 J6.69 E.05187
G1 X135.221 Y112.109 E.05304
G1 X135.467 Y113.557 E.05304
G1 X135.549 Y115.024 E.05304
G1 X135.467 Y116.491 E.05304
G1 X135.221 Y117.939 E.05304
G1 X134.814 Y119.35 E.05304
G1 X134.258 Y120.694 E.0525
G1 X133.541 Y121.993 E.05358
G1 X132.691 Y123.191 E.05303
G1 X131.713 Y124.287 E.05304
G1 X130.617 Y125.265 E.05304
G1 X129.419 Y126.115 E.05304
G1 X128.134 Y126.826 E.05304
G1 X126.776 Y127.388 E.05304
G1 X125.365 Y127.795 E.05304
G1 X123.917 Y128.041 E.05304
G1 X122.45 Y128.123 E.05304
G1 X120.983 Y128.041 E.05304
G1 X119.535 Y127.795 E.05304
G1 X118.124 Y127.388 E.05304
G1 X116.766 Y126.826 E.05304
G1 X115.481 Y126.115 E.05304
G1 X114.283 Y125.265 E.05304
G1 X113.187 Y124.287 E.05304
G1 X112.209 Y123.191 E.05304
G1 X111.358 Y121.993 E.05304
G1 X110.648 Y120.707 E.05304
G1 X110.086 Y119.35 E.05304
G1 X109.679 Y117.939 E.05304
G1 X109.433 Y116.491 E.05304
G1 X109.351 Y115.024 E.05304
G1 X109.433 Y113.557 E.05304
G1 X109.679 Y112.109 E.05304
G1 X110.086 Y110.697 E.05304
G1 X110.642 Y109.354 E.0525
G1 X111.359 Y108.054 E.05358
G1 X112.209 Y106.857 E.05303
G1 X113.187 Y105.761 E.05304
G1 X114.283 Y104.782 E.05304
G1 X115.481 Y103.932 E.05304
G1 X116.766 Y103.222 E.05304
G1 X118.124 Y102.66 E.05304
G1 X119.535 Y102.253 E.05304
G1 X120.983 Y102.007 E.05303
G1 X122.465 Y101.925 E.05358
G1 X123.917 Y102.007 E.0525
G1 X125.365 Y102.253 E.05304
G1 X126.776 Y102.66 E.05304
G1 X128.134 Y103.222 E.05304
G1 X129.419 Y103.932 E.05304
G1 X130.617 Y104.782 E.05304
G1 X131.713 Y105.761 E.05304
G1 X132.691 Y106.857 E.05304
G1 X133.542 Y108.055 E.05304
G3 X134.237 Y109.339 I-13.255 J8.011 E.05275
; stop printing object Object_3 id:25 copy 0
; printing object Object_1 id:7811887588677804407 copy 0
G1 E-1.2 F2400
;WIPE_START
G1 F9000
G1 X134.814 Y110.697
G1 X134.959 Y111.201
;WIPE_END
G1 X131.212 Y110.479 Z.4
G1 X105.852 Y105.597 Z.4
G1 Z.2
G1 E1.2 F1800
;TYPE:Inner wall
G1 X105.791 Y105.598 E.00219
G3 X112.614 Y98.581 I.206 J-6.625 E1.10616
G1 X112.614 Y99.366 E.02836
M73 P2 R21
G3 X106.588 Y105.575 I-6.617 J-.393 E.34038
G1 X105.892 Y105.596 E.02516
G1 X106.355 Y106.057 F9000
;TYPE:Outer wall
G1 F1800
G1 X106.224 Y106.068 E.00475
G1 X105.354 Y106.043 E.03142
G1 X104.525 Y105.918 E.0303
G1 X103.715 Y105.696 E.03034
G1 X102.943 Y105.383 E.03006
G1 X102.207 Y104.976 E.03037
G1 X101.523 Y104.486 E.03037
G1 X100.903 Y103.918 E.03037
G1 X100.354 Y103.281 E.03036
G1 X99.88 Y102.576 E.03069
G1 X99.499 Y101.835 E.03006
G1 X99.207 Y101.047 E.03037
G1 X99.009 Y100.229 E.03037
G1 X98.91 Y99.394 E.03037
G1 X98.91 Y98.553 E.03037
G1 X99.009 Y97.717 E.03037
G1 X99.207 Y96.9 E.03037
G1 X99.499 Y96.111 E.03037
G1 X99.884 Y95.363 E.03037
G1 X100.353 Y94.665 E.03037
G1 X100.903 Y94.028 E.03037
G1 X101.523 Y93.461 E.03036
G1 X102.214 Y92.966 E.03069
G1 X102.943 Y92.564 E.03006
G1 X103.723 Y92.248 E.03037
G1 X104.534 Y92.026 E.03037
G1 X105.366 Y91.902 E.03037
G1 X106.207 Y91.877 E.03037
G1 X107.036 Y91.951 E.03006
G1 X107.868 Y92.125 E.03069
G1 X108.664 Y92.394 E.03036
G1 X109.424 Y92.756 E.03037
G1 X110.135 Y93.205 E.03037
G1 X110.788 Y93.735 E.03037
G1 X111.374 Y94.339 E.03037
G1 X111.885 Y95.007 E.03037
G1 X112.308 Y95.724 E.03006
G1 X112.651 Y96.502 E.03069
G3 X113.071 Y98.554 I-8.393 J2.784 E.07581
G1 X113.046 Y99.813 E.04547
G1 X112.897 Y100.641 E.03037
G1 X112.651 Y101.445 E.03037
G1 X112.312 Y102.215 E.03037
G1 X111.885 Y102.939 E.03037
G1 X111.374 Y103.608 E.03037
G1 X110.788 Y104.211 E.03037
G1 X110.135 Y104.741 E.03037
G1 X109.424 Y105.19 E.03037
G1 X108.663 Y105.553 E.03041
G1 X107.873 Y105.82 E.03013
G1 X107.035 Y105.996 E.0309
G1 X106.395 Y106.053 E.0232
G1 E-1.2 F2400
;WIPE_START
G1 F9000
G1 X106.224 Y106.068
G1 X105.354 Y106.043
G1 X104.525 Y105.918
G1 X104.41 Y105.887
;WIPE_END
G1 X111.587 Y95.672 Z.4
G1 Z.4
G1 Z.2
G1 E1.2 F1800
;TYPE:Bottom surface
;WIDTH:0.508873
G1 F4800
G1 X110.215 Y94.3 E.07143
G2 X108.42 Y93.164 I-4.552 J5.205 E.07851
G1 X111.792 Y96.536 E.17555
G1 X111.9 Y96.781 E.00984
G1 X112.124 Y97.527 E.02867
G1 X107.452 Y92.855 E.24318
G2 X106.658 Y92.72 I-.969 J3.299 E.02971
G1 X112.255 Y98.317 E.29134
G1 X112.292 Y99.013 E.02564
G1 X105.964 Y92.685 E.32941
G1 X105.335 Y92.715 E.02315
G1 X112.255 Y99.635 E.36019
G1 X112.163 Y100.202 E.02114
G1 X104.762 Y92.801 E.38525
G1 X104.238 Y92.936 E.01991
G1 X112.033 Y100.731 E.40574
G3 X111.872 Y101.229 I-2.172 J-.425 E.01932
G1 X103.745 Y93.102 E.42305
G1 X103.277 Y93.293 E.0186
G1 X111.671 Y101.687 E.43691
G3 X111.442 Y102.116 I-1.918 J-.748 E.01797
G1 X102.853 Y93.527 E.44708
G2 X102.448 Y93.782 I.878 J1.842 E.01763
G1 X111.193 Y102.527 E.45519
G1 X110.908 Y102.9 E.0173
G1 X102.064 Y94.057 E.46033
G2 X101.716 Y94.368 I1.119 J1.602 E.01722
G1 X110.603 Y103.254 E.46256
G1 X110.278 Y103.589 E.01715
G1 X101.384 Y94.695 E.46295
G1 X101.079 Y95.049 E.0172
G1 X109.918 Y103.887 E.46009
G3 X109.542 Y104.17 I-1.374 J-1.438 E.01736
G1 X100.802 Y95.431 E.45491
G2 X100.543 Y95.83 I1.547 J1.289 E.01757
G1 X109.138 Y104.425 E.44739
G3 X108.702 Y104.648 I-1.154 J-1.717 E.01806
G1 X100.319 Y96.266 E.43634
G2 X100.123 Y96.729 I1.846 J1.054 E.01855
G1 X108.245 Y104.85 E.42273
G1 X107.752 Y105.016 E.01913
G1 X99.953 Y97.217 E.40598
G1 X99.825 Y97.748 E.0201
G1 X107.217 Y105.14 E.38481
G3 X106.645 Y105.228 I-.653 J-2.364 E.02134
G1 X99.742 Y98.324 E.35933
G2 X99.709 Y98.951 I2.612 J.451 E.02313
G1 X106.021 Y105.262 E.32854
G1 X105.331 Y105.231 E.02544
G1 X99.745 Y99.645 E.29075
G2 X99.883 Y100.443 I3.417 J-.183 E.02986
G1 X104.531 Y105.09 E.24194
