;TIME:891.15
;Filament used:1.15662m
;Layer height:0.200
; HEADER_BLOCK_START
; generated by Creality_Print V6.2.2.3134 on 2025-08-30 at 14:21:57
; total layer number: 50
; filament_density: 1.24
; filament_diameter: 1.75
; max_z_height: 10.00
; creality_uuid: 996d2eb5-e94f-4cab-9586-167131fb45a0
; HEADER_BLOCK_END

; MINX = 97.21
; MINY = 92.39
; MINZ = 0.00
; MAXX = 122.79
; MAXY = 127.61
; MAXZ = 10.00

; THUMBNAIL_BLOCK_START

;
; THUMBNAIL_BLOCK_END

; THUMBNAIL_BLOCK_START

;
; THUMBNAIL_BLOCK_END

; external perimeters extrusion width = 0.42mm
; perimeters extrusion width = 0.45mm
; infill extrusion width = 0.45mm
; solid infill extrusion width = 0.42mm
; top infill extrusion width = 0.42mm
; first layer extrusion width = 0.50mm

; external perimeters extrusion width = 0.42mm
; perimeters extrusion width = 0.45mm
; infill extrusion width = 0.45mm
; solid infill extrusion width = 0.42mm
; top infill extrusion width = 0.42mm
; first layer extrusion width = 0.50mm

; EXECUTABLE_BLOCK_START
M73 P0 R14
M201 X5000 Y5000 Z500 E5000
M203 X500 Y500 Z30 E100
M204 P5000 R2500 T5000 ; sets acceleration (P, T) and retract acceleration (R), mm/sec^2
M205 X10.00 Y10.00 Z0.40 E5.00 ; sets the jerk limits, mm/sec
;TYPE:Custom
M220 S100 ;Reset Feedrate 
M221 S100 ;Reset Flowrate 
 
M140 S50 ;Set final bed temp 
G28 ;Home 
 
G92 E0 ;Reset Extruder 
G1 Z2.0 F3000 ;Move Z Axis up 
M104 S190 ;Set final nozzle temp 
G1 X-2.1 Y20 Z0.28 F5000.0 ;Move to start position 
M190 S50 ;Wait for bed temp to stabilize 
M109 S190 ;Wait for nozzle temp to stabilize 
G1 X-2.1 Y145.0 Z0.28 F1500.0 E15 ;Draw the first line 
G1 X-2.4 Y145.0 Z0.28 F5000.0 ;Move to side a little 
G1 X-2.4 Y20 Z0.28 F1500.0 E30 ;Draw the second line 
G92 E0  ;Reset Extruder 
G1 E-1.0000 F1800 ;Retract a bit 
M73 P1 R14
G1 Z2.0 F3000 ;Move Z Axis up 
G1 E0.0000 F1800
G90
G21
M83 ; use relative distances for extrusion
;filament start gcode
G1 E-1.2 F2400
M106 S0
;LAYER_CHANGE
;Z:0.2
;HEIGHT:0.2
;BEFORE_LAYER_CHANGE
;0.2
G92 E0

;_SET_FAN_SPEED_CHANGING_LAYER
M204 P500
M205 X10 Y10
; printing object Object_1 id:788358112 copy 0
M204 T500
G1 X103.537 Y106.409 Z.2 F9000
G1 E1.2 F1800
;TYPE:Inner wall
;WIDTH:0.499999
G1 X102.945 Y106.282 E.02187
G3 X111.317 Y99.497 I1.755 J-6.392 E1.04953
G1 X111.317 Y100.283 E.02836
G3 X103.71 Y106.444 I-6.617 J-.393 E.3976
G1 X103.577 Y106.417 E.00493
G1 X103.999 Y106.951 F9000
;TYPE:Outer wall
G1 F1800
G1 X103.232 Y106.836 E.02803
G1 X102.421 Y106.614 E.03035
G1 X101.646 Y106.299 E.03021
G1 X100.909 Y105.893 E.03037
G1 X100.226 Y105.403 E.03037
G1 X99.605 Y104.835 E.03037
G1 X99.056 Y104.198 E.03036
G1 X98.582 Y103.492 E.03069
G1 X98.202 Y102.752 E.03006
G1 X97.909 Y101.963 E.03037
G1 X97.711 Y101.146 E.03037
G1 X97.612 Y100.31 E.03037
G1 X97.612 Y99.469 E.03037
G1 X97.711 Y98.634 E.03037
G1 X97.909 Y97.816 E.03037
G1 X98.202 Y97.028 E.03037
G1 X98.586 Y96.28 E.03037
G1 X99.056 Y95.582 E.03037
G1 X99.605 Y94.945 E.03037
G1 X100.225 Y94.377 E.03036
G1 X100.917 Y93.882 E.03069
G1 X101.646 Y93.481 E.03006
G1 X102.425 Y93.164 E.03037
G1 X103.236 Y92.943 E.03037
G1 X104.068 Y92.819 E.03037
G1 X104.909 Y92.794 E.03037
G1 X105.738 Y92.868 E.03006
G1 X106.57 Y93.042 E.03069
G1 X107.367 Y93.311 E.03036
G1 X108.126 Y93.673 E.03037
G1 X108.837 Y94.122 E.03037
G1 X109.491 Y94.652 E.03037
G1 X110.077 Y95.255 E.03037
G1 X110.587 Y95.924 E.03037
G1 X111.01 Y96.641 E.03006
G1 X111.354 Y97.418 E.03069
G3 X111.773 Y99.47 I-8.393 J2.784 E.07581
G1 X111.748 Y100.729 E.04547
G1 X111.599 Y101.557 E.03037
G1 X111.354 Y102.362 E.03037
G1 X111.015 Y103.132 E.03037
G1 X110.587 Y103.856 E.03037
G1 X110.077 Y104.524 E.03037
G1 X109.491 Y105.128 E.03037
G1 X108.837 Y105.658 E.03037
G1 X108.126 Y106.107 E.03037
G1 X107.362 Y106.47 E.03055
G1 X106.565 Y106.739 E.03039
G1 X105.741 Y106.912 E.0304
G1 X104.928 Y106.985 E.02947
G1 X104.062 Y106.96 E.03126
G1 X104.039 Y106.957 E.00085
G1 E-1.2 F2400
;WIPE_START
G1 F9000
G1 X103.232 Y106.836
G1 X102.421 Y106.614
G1 X102.103 Y106.485
;WIPE_END
G1 X110.29 Y96.589 Z.4
G1 Z.4
G1 Z.2
G1 E1.2 F1800
;TYPE:Bottom surface
;WIDTH:0.508873
G1 F4800
G1 X108.917 Y95.217 E.07143
G2 X107.122 Y94.08 I-4.552 J5.205 E.07851
G1 X110.495 Y97.453 E.17555
G1 X110.603 Y97.697 E.00984
G1 X110.827 Y98.444 E.02867
G1 X106.155 Y93.772 E.24318
G2 X105.361 Y93.637 I-.969 J3.299 E.02971
G1 X110.958 Y99.234 E.29134
G1 X110.994 Y99.929 E.02564
G1 X104.666 Y93.601 E.32941
G1 X104.038 Y93.632 E.02315
G1 X110.957 Y100.551 E.36019
G1 X110.866 Y101.119 E.02114
G1 X103.464 Y93.717 E.38525
G1 X102.941 Y93.853 E.01991
G1 X110.736 Y101.647 E.40574
G3 X110.575 Y102.146 I-2.172 J-.425 E.01932
G1 X102.448 Y94.018 E.42305
G1 X101.98 Y94.21 E.0186
G1 X110.373 Y102.603 E.43691
G3 X110.144 Y103.033 I-1.918 J-.748 E.01797
M73 P2 R14
G1 X101.555 Y94.444 E.44708
G2 X101.151 Y94.699 I.878 J1.842 E.01763
G1 X109.896 Y103.443 E.45519
G1 X109.61 Y103.817 E.0173
G1 X100.767 Y94.973 E.46033
G2 X100.419 Y95.284 I1.119 J1.602 E.01722
G1 X109.305 Y104.171 E.46256
G1 X108.98 Y104.505 E.01715
G1 X100.087 Y95.611 E.46295
G1 X99.782 Y95.965 E.0172
G1 X108.62 Y104.804 E.46009
G3 X108.244 Y105.087 I-1.374 J-1.438 E.01736
G1 X99.505 Y96.347 E.45491
G2 X99.245 Y96.747 I1.547 J1.289 E.01757
G1 X107.84 Y105.342 E.44739
G3 X107.404 Y105.565 I-1.151 J-1.712 E.01807
G1 X99.022 Y97.182 E.43633
G2 X98.826 Y97.645 I1.846 J1.054 E.01855
G1 X106.947 Y105.766 E.42273
G1 X106.454 Y105.933 E.01914
G1 X98.655 Y98.134 E.40596
G1 X98.527 Y98.664 E.0201
G1 X105.92 Y106.057 E.38482
G3 X105.348 Y106.144 I-.653 J-2.376 E.02135
G1 X98.445 Y99.241 E.35933
G2 X98.412 Y99.867 I2.612 J.451 E.02313
G1 X104.723 Y106.179 E.32854
G1 X104.033 Y106.147 E.02544
G1 X98.447 Y100.562 E.29075
G2 X98.586 Y101.359 I3.417 J-.183 E.02986
G1 X103.234 Y106.007 E.24194
G3 X102.248 Y105.68 I.883 J-4.315 E.03831
G1 X98.899 Y102.331 E.17434
G1 X98.935 Y102.429 E.00384
G2 X100.144 Y104.235 I6.381 J-2.963 E.08034
G1 X101.387 Y105.478 E.06467
G1 E-1.2 F2400
;WIPE_START
G1 F9000
G1 X100.144 Y104.235
G1 X99.986 Y104.051
;WIPE_END
G1 X103.142 Y101.907 Z.4
G1 X110.389 Y96.983 Z.4
G1 Z.2
G1 E1.2 F1800
;TYPE:Gap infill
;WIDTH:0.114315
G1 X110.281 Y96.844 E.00099
;WIDTH:0.130859
G1 X110.173 Y96.705 E.00122
G1 E-1.2 F2400
;WIPE_START
G1 F9000
G1 X110.281 Y96.844
;WIPE_END
G1 X106.813 Y98.437 Z.4
G1 X98.803 Y102.115 Z.4
G1 Z.2
G1 E1.2 F1800
;WIDTH:0.113543
G1 X98.572 Y101.703 E.00264
G1 E-1.2 F2400
;WIPE_START
G1 F9000
G1 X98.803 Y102.115
;WIPE_END
G1 X101.291 Y105.01 Z.4
G1 X101.754 Y105.549 Z.4
G1 Z.2
G1 E1.2 F1800
;WIDTH:0.113626
G1 X101.629 Y105.455 E.00087
;WIDTH:0.129482
G1 X101.504 Y105.361 E.00107
; stop printing object Object_1 id:788358112 copy 0
; printing object Object_1 id:3168 copy 0
G1 E-1.2 F2400
;WIPE_START
G1 F9000
G1 X101.629 Y105.455
;WIPE_END
G1 X103.431 Y108.819 Z.4
G1 X112.987 Y126.662 Z.4
G1 Z.2
G1 E1.2 F1800
;TYPE:Inner wall
;WIDTH:0.639547
G1 X112.518 Y126.675 E.02212
;WIDTH:0.637038
G1 X111.479 Y126.586 E.04897
;WIDTH:0.634018
G1 X110.371 Y126.35 E.05287
;WIDTH:0.630604
G1 X109.246 Y125.953 E.05537
;WIDTH:0.638583
G3 X108.192 Y125.42 I2.494 J-6.24 E.05564
;WIDTH:0.639975
G3 X107.268 Y124.797 I3.232 J-5.792 E.05267
;WIDTH:0.64015
G1 X106.835 Y124.451 E.0261
G1 X106.094 Y123.728 E.04886
;WIDTH:0.639104
G1 X105.439 Y122.926 E.04878
;WIDTH:0.636847
G1 X104.879 Y122.055 E.0486
;WIDTH:0.633364
G1 X104.378 Y121.001 E.0544
;WIDTH:0.629687
G1 X104.011 Y119.878 E.05474
;WIDTH:0.638858
G3 X103.792 Y118.718 I6.48 J-1.824 E.05566
;WIDTH:0.640072
G3 X103.733 Y117.073 I9.927 J-1.18 E.07776
G1 X103.853 Y116.044 E.04885
;WIDTH:0.638859
G1 X104.088 Y115.035 E.04876
;WIDTH:0.636426
G1 X104.439 Y114.054 E.04883
;WIDTH:0.632776
G1 X104.976 Y113.002 E.05505
;WIDTH:0.629254
G1 X105.643 Y112.028 E.0547
;WIDTH:0.639104
G3 X106.43 Y111.147 I5.4 J4.036 E.05568
;WIDTH:0.640149
G3 X107.268 Y110.418 I4.743 J4.601 E.05245
;WIDTH:0.639973
G1 X107.682 Y110.11 E.02436
G1 X108.56 Y109.582 E.04832
;WIDTH:0.63813
G1 X109.513 Y109.147 E.04925
;WIDTH:0.635974
G1 X110.524 Y108.822 E.04974
;WIDTH:0.632199
G1 X111.686 Y108.607 E.05501
;WIDTH:0.628713
G1 X112.853 Y108.542 E.05411
;WIDTH:0.639533
G3 X114.042 Y108.631 I.093 J6.806 E.05625
;WIDTH:0.640198
G3 X115.067 Y108.835 I-.716 J6.273 E.04936
;WIDTH:0.639847
G1 X115.607 Y108.986 E.02646
G1 X116.572 Y109.363 E.04883
;WIDTH:0.638284
G1 X117.488 Y109.847 E.04871
;WIDTH:0.6355
G1 X118.379 Y110.463 E.0507
;WIDTH:0.631646
G1 X119.257 Y111.253 E.05494
;WIDTH:0.62847
G1 X120.002 Y112.116 E.05274
;WIDTH:0.639318
G3 X120.666 Y113.127 I-5.249 J4.175 E.05708
;WIDTH:0.64051
G3 X121.134 Y114.073 I-5.159 J3.141 E.04987
;WIDTH:0.639697
G1 X121.337 Y114.575 E.02554
G1 X121.628 Y115.569 E.04882
;WIDTH:0.637963
G1 X121.804 Y116.59 E.04868
;WIDTH:0.635006
G1 X121.863 Y117.638 E.0491
;WIDTH:0.631949
G1 X121.767 Y118.87 E.05751
;WIDTH:0.628119
G1 X121.524 Y120.026 E.05459
;WIDTH:0.639697
G3 X121.134 Y121.142 I-6.535 J-1.657 E.0558
;WIDTH:0.640531
M73 P3 R14
G3 X120.667 Y122.088 I-5.921 J-2.337 E.04985
;WIDTH:0.639527
G1 X120.41 Y122.526 E.02395
G1 X119.8 Y123.363 E.04881
;WIDTH:0.637616
G1 X119.099 Y124.126 E.04866
;WIDTH:0.634483
G1 X118.243 Y124.855 E.05256
;WIDTH:0.630615
G1 X117.262 Y125.493 E.05431
;WIDTH:0.628286
G1 X116.188 Y126.01 E.05512
;WIDTH:0.639847
G3 X115.067 Y126.38 I-2.671 J-6.206 E.05574
;WIDTH:0.640131
G3 X114.049 Y126.583 I-1.732 J-6.03 E.04901
;WIDTH:0.639547
G1 X113.549 Y126.646 E.02377
G1 X113.027 Y126.661 E.0246
G1 X113.689 Y127.16 F9000
;TYPE:Outer wall
;WIDTH:0.499999
G1 F1800
G1 X113.611 Y127.171 E.00284
G1 X112.52 Y127.203 E.03942
G1 X111.42 Y127.109 E.03985
G1 X110.348 Y126.891 E.03952
G1 X109.305 Y126.553 E.03957
G1 X108.308 Y126.097 E.03957
G1 X107.37 Y125.531 E.03957
G1 X106.502 Y124.862 E.03957
G1 X105.716 Y124.098 E.03957
G1 X105.022 Y123.25 E.03957
G1 X104.429 Y122.328 E.03957
G1 X103.946 Y121.344 E.03957
G1 X103.578 Y120.312 E.03957
G1 X103.329 Y119.244 E.03957
G1 X103.204 Y118.155 E.03957
G1 X103.204 Y117.059 E.03957
G1 X103.329 Y115.97 E.03957
G1 X103.578 Y114.903 E.03957
G1 X103.946 Y113.871 E.03957
G1 X104.429 Y112.887 E.03957
G1 X105.022 Y111.965 E.03957
G1 X105.716 Y111.117 E.03957
G1 X106.502 Y110.353 E.03957
G1 X107.37 Y109.683 E.03957
G1 X108.299 Y109.123 E.03917
G1 X109.306 Y108.662 E.03998
G1 X110.348 Y108.323 E.03956
G1 X111.422 Y108.106 E.03957
G1 X112.525 Y108.012 E.03998
G1 X113.61 Y108.043 E.03917
G1 X114.694 Y108.199 E.03957
G1 X115.754 Y108.478 E.03957
G1 X116.776 Y108.875 E.03957
G1 X117.745 Y109.387 E.03957
G1 X118.65 Y110.006 E.03957
G1 X119.478 Y110.723 E.03957
G1 X120.219 Y111.531 E.03957
G1 X120.857 Y112.408 E.03917
G1 X121.403 Y113.372 E.03998
G3 X122.146 Y115.48 I-10.746 J4.976 E.08081
G1 X122.328 Y116.56 E.03956
G1 X122.385 Y117.654 E.03956
G1 X122.325 Y118.702 E.03789
G1 X122.138 Y119.782 E.03957
G1 X121.829 Y120.833 E.03957
G1 X121.403 Y121.843 E.03957
G1 X120.864 Y122.797 E.03957
G1 X120.219 Y123.684 E.03957
G1 X119.478 Y124.491 E.03957
G1 X118.65 Y125.209 E.03957
G1 X117.745 Y125.828 E.03957
G1 X116.776 Y126.339 E.03957
G1 X115.754 Y126.737 E.03957
G1 X114.694 Y127.016 E.03957
G1 X113.729 Y127.154 E.03522
G1 E-1.2 F2400
;WIPE_START
G1 F9000
G1 X113.611 Y127.171
G1 X112.52 Y127.203
G1 X111.733 Y127.136
;WIPE_END
G1 X110.92 Y125.869 Z.4
G1 Z.2
G1 E1.2 F1800
;TYPE:Inner wall
;WIDTH:0.632071
G1 X110.65 Y125.818 E.01278
;WIDTH:0.636035
G1 X109.699 Y125.505 E.04692
;WIDTH:0.638583
G1 X108.825 Y125.1 E.0453
;WIDTH:0.639975
G3 X107.586 Y124.306 I5.05 J-9.246 E.06947
;WIDTH:0.625867
G1 X106.826 Y123.639 E.04659
;WIDTH:0.626955
G1 X106.089 Y122.81 E.05118
;WIDTH:0.629254
G1 X105.466 Y121.891 E.05139
;WIDTH:0.632777
G1 X104.968 Y120.9 E.0517
;WIDTH:0.636426
G1 X104.649 Y119.984 E.04545
;WIDTH:0.638858
G1 X104.435 Y119.045 E.04534
;WIDTH:0.640072
G3 X104.307 Y117.558 I10.295 J-1.639 E.07046
;WIDTH:0.625947
G1 X104.373 Y116.549 E.04659
;WIDTH:0.627209
G1 X104.582 Y115.459 E.05121
;WIDTH:0.629686
G1 X104.932 Y114.406 E.05143
;WIDTH:0.633365
G1 X105.409 Y113.421 E.05105
;WIDTH:0.636848
G1 X105.935 Y112.614 E.04521
;WIDTH:0.639104
G1 X106.549 Y111.872 E.04535
;WIDTH:0.640149
G3 X107.623 Y110.879 I7.905 J7.478 E.06906
;WIDTH:0.62605
G1 X108.505 Y110.287 E.04894
;WIDTH:0.627304
G1 X109.497 Y109.79 E.05121
;WIDTH:0.630137
G1 X110.545 Y109.426 E.05147
;WIDTH:0.633935
G1 X111.596 Y109.208 E.0501
;WIDTH:0.636738
G1 X112.568 Y109.132 E.04573
;WIDTH:0.639533
G1 X113.52 Y109.164 E.0449
;WIDTH:0.640198
G3 X114.98 Y109.413 I-1.058 J10.625 E.06995
;WIDTH:0.626182
G1 X115.989 Y109.753 E.04903
;WIDTH:0.627786
G1 X116.987 Y110.237 E.05126
;WIDTH:0.630615
G1 X117.914 Y110.847 E.05151
;WIDTH:0.634482
G1 X118.711 Y111.535 E.0492
;WIDTH:0.637615
G1 X119.357 Y112.249 E.04526
;WIDTH:0.639318
G1 X119.914 Y113.021 E.04486
;WIDTH:0.64051
G3 X120.623 Y114.356 I-9.09 J5.679 E.0714
;WIDTH:0.626338
G1 X120.968 Y115.365 E.04913
;WIDTH:0.62812
G1 X121.192 Y116.452 E.05129
;WIDTH:0.631115
G1 X121.272 Y117.558 E.05155
;WIDTH:0.635006
G1 X121.213 Y118.589 E.04827
;WIDTH:0.637964
G1 X121.043 Y119.537 E.04528
;WIDTH:0.639697
G1 X120.768 Y120.459 E.04539
;WIDTH:0.640531
G3 X120.152 Y121.815 I-9.744 J-3.613 E.07035
;WIDTH:0.62652
G1 X119.547 Y122.732 E.05064
;WIDTH:0.628471
G1 X118.821 Y123.571 E.05132
;WIDTH:0.631646
G1 X117.992 Y124.308 E.0516
;WIDTH:0.6355
G1 X117.156 Y124.877 E.04733
;WIDTH:0.638434
G1 X116.301 Y125.322 E.04533
;WIDTH:0.639847
G1 X115.403 Y125.668 E.04538
;WIDTH:0.640131
G3 X113.951 Y126.009 I-3.049 J-9.73 E.07042
;WIDTH:0.626829
G1 X112.836 Y126.089 E.05157
;WIDTH:0.628737
G1 X111.731 Y126.024 E.05122
;WIDTH:0.632071
G1 X110.959 Y125.877 E.03656
G1 X111.637 Y125.479 F9000
;TYPE:Outer wall
;WIDTH:0.499999
G1 F1800
G1 X110.752 Y125.305 E.03257
G1 X109.867 Y125.007 E.03371
G3 X107.953 Y123.933 I3.405 J-8.313 E.07946
G1 X107.168 Y123.248 E.03761
G1 X106.48 Y122.466 E.03761
G1 X105.9 Y121.601 E.03761
G1 X105.438 Y120.668 E.03761
G1 X105.146 Y119.816 E.03253
G3 X104.892 Y118.632 I20.376 J-4.994 E.04372
G1 X104.826 Y117.622 E.03653
G1 X104.892 Y116.583 E.03761
G1 X105.093 Y115.561 E.03761
G1 X105.426 Y114.574 E.03761
G1 X105.878 Y113.653 E.03706
G1 X106.372 Y112.906 E.03232
G3 X107.168 Y111.967 I15.293 J12.149 E.04447
G1 X107.929 Y111.299 E.03653
G1 X108.794 Y110.719 E.03761
G1 X109.727 Y110.257 E.03761
G1 X110.713 Y109.92 E.0376
G1 X111.698 Y109.722 E.03628
G1 X112.602 Y109.656 E.03273
G3 X113.842 Y109.715 I-.318 J19.796 E.04483
G1 X114.834 Y109.912 E.03653
G1 X115.821 Y110.245 E.0376
G1 X116.756 Y110.704 E.03761
G1 X117.623 Y111.281 E.03761
G1 X118.365 Y111.929 E.03555
G1 X118.962 Y112.596 E.03231
G3 X119.685 Y113.631 I-13.515 J10.217 E.0456
G1 X120.138 Y114.546 E.03688
G1 X120.475 Y115.532 E.03762
G1 X120.68 Y116.553 E.03761
G1 X120.75 Y117.592 E.03761
G1 X120.689 Y118.554 E.0348
G1 X120.527 Y119.434 E.03231
G3 X120.138 Y120.669 I-15.666 J-4.248 E.04674
G1 X119.685 Y121.584 E.03688
G1 X119.114 Y122.443 E.03723
G1 X118.429 Y123.227 E.03761
G1 X117.647 Y123.915 E.03761
G1 X116.864 Y124.441 E.03404
G1 X116.067 Y124.85 E.03234
G3 X114.835 Y125.302 I-5.899 J-14.168 E.04743
G1 X113.849 Y125.499 E.03627
G1 X112.802 Y125.57 E.03792
G1 X111.765 Y125.504 E.0375
G1 X111.676 Y125.486 E.00327
; stop printing object Object_1 id:3168 copy 0
;TIME_ELAPSED:33.134636

M106 S255
;LAYER_CHANGE
;Z:0.4
;HEIGHT:0.2
;BEFORE_LAYER_CHANGE
;0.4
G92 E0

G1 E-1.2 F2400
;WIPE_START
G1 F9000
G1 X110.752 Y125.305
G1 X109.867 Y125.007
G1 X109.755 Y124.954
;WIPE_END
;_SET_FAN_SPEED_CHANGING_LAYER
M204 P2500
; printing object Object_1 id:788358112 copy 0
M204 T2500
G1 X108.54 Y121.336 Z.4
G1 X103.624 Y106.69 Z.4
G1 E1.2 F1800
M204 P2000
;TYPE:Inner wall
;WIDTH:0.449999
G1 F5400
G1 X103.264 Y106.636 E.01173
G1 X102.478 Y106.419 E.02622
G1 X101.733 Y106.116 E.02585
G1 X101.017 Y105.722 E.02628
G1 X100.353 Y105.245 E.02628
G1 X99.75 Y104.694 E.02628
G1 X99.217 Y104.075 E.02628
G1 X98.76 Y103.397 E.02628
G1 X98.387 Y102.67 E.02628
G1 X98.103 Y101.904 E.02628
G1 X97.911 Y101.11 E.02628
G1 X97.814 Y100.298 E.02628
G1 X97.814 Y99.481 E.02628
G1 X97.911 Y98.67 E.02628
G1 X98.102 Y97.876 E.02625
