;TIME:2540.10
;Filament used:4.07782m
;Layer height:0.200
; HEADER_BLOCK_START
; generated by Creality_Print V6.2.2.3134 on 2025-08-31 at 21:36:17
; total layer number: 195
; filament_density: 1.24
; filament_diameter: 1.75
; max_z_height: 39.00
; creality_uuid: 3dd72218-7b47-45b6-8044-24fbb25767c0
; HEADER_BLOCK_END

; MINX = 94.69
; MINY = 94.69
; MINZ = 0.00
; MAXX = 125.31
; MAXY = 125.31
; MAXZ = 39.00

; THUMBNAIL_BLOCK_START

;
; THUMBNAIL_BLOCK_END

; THUMBNAIL_BLOCK_START

;
; THUMBNAIL_BLOCK_END

; external perimeters extrusion width = 0.42mm
; perimeters extrusion width = 0.45mm
; infill extrusion width = 0.45mm
; solid infill extrusion width = 0.42mm
; top infill extrusion width = 0.42mm
; first layer extrusion width = 0.50mm

; EXECUTABLE_BLOCK_START
M73 P0 R42
M201 X5000 Y5000 Z500 E5000
M203 X500 Y500 Z30 E100
M204 P5000 R2500 T5000 ; sets acceleration (P, T) and retract acceleration (R), mm/sec^2
M205 X10.00 Y10.00 Z0.40 E5.00 ; sets the jerk limits, mm/sec
;TYPE:Custom
M220 S100 ;Reset Feedrate 
M221 S100 ;Reset Flowrate 
 
M140 S50 ;Set final bed temp 
G28 ;Home 
 
G92 E0 ;Reset Extruder 
G1 Z2.0 F3000 ;Move Z Axis up 
M104 S190 ;Set final nozzle temp 
G1 X-2.1 Y20 Z0.28 F5000.0 ;Move to start position 
M190 S50 ;Wait for bed temp to stabilize 
M109 S190 ;Wait for nozzle temp to stabilize 
G1 X-2.1 Y145.0 Z0.28 F1500.0 E15 ;Draw the first line 
G1 X-2.4 Y145.0 Z0.28 F5000.0 ;Move to side a little 
G1 X-2.4 Y20 Z0.28 F1500.0 E30 ;Draw the second line 
G92 E0  ;Reset Extruder 
G1 E-1.0000 F1800 ;Retract a bit 
G1 Z2.0 F3000 ;Move Z Axis up 
G1 E0.0000 F1800
G90
G21
M83 ; use relative distances for extrusion
;filament start gcode
G1 E-1.2 F2400
M106 S0
;LAYER_CHANGE
;Z:0.2
;HEIGHT:0.2
;BEFORE_LAYER_CHANGE
;0.2
G92 E0

;_SET_FAN_SPEED_CHANGING_LAYER
M204 P500
M205 X10 Y10
; printing object Object_1 id:1258190832 copy 0
M204 T500
G1 X113.798 Y123.939 Z.2 F9000
G1 E1.2 F1800
;TYPE:Inner wall
;WIDTH:0.499999
G1 X113.741 Y123.958 E.00217
G1 X111.85 Y124.331 E.06959
G1 X109.998 Y124.451 E.06701
G1 X108.113 Y124.327 E.06821
G1 X106.282 Y123.964 E.06739
G1 X104.469 Y123.351 E.06908
G1 X102.774 Y122.515 E.06824
G1 X101.203 Y121.465 E.06825
G1 X99.782 Y120.218 E.06825
G1 X98.535 Y118.797 E.06825
G1 X97.485 Y117.226 E.06825
G1 X96.649 Y115.53 E.06825
G1 X96.041 Y113.74 E.06825
G1 X95.673 Y111.886 E.06825
G1 X95.549 Y110 E.06825
G1 X95.673 Y108.114 E.06825
G1 X96.041 Y106.26 E.06825
G1 X96.649 Y104.47 E.06825
G1 X97.485 Y102.774 E.06825
G1 X98.528 Y101.214 E.06775
G1 X99.782 Y99.781 E.06876
G1 X101.203 Y98.535 E.06823
G1 X102.774 Y97.485 E.06825
G1 X104.47 Y96.649 E.06825
G1 X106.259 Y96.041 E.06824
G1 X108.145 Y95.669 E.0694
G1 X110.022 Y95.549 E.0679
G1 X111.887 Y95.673 E.06748
G1 X113.738 Y96.041 E.06817
G1 X115.53 Y96.649 E.06832
G1 X117.226 Y97.485 E.06825
G1 X118.786 Y98.528 E.06775
G1 X120.219 Y99.782 E.06876
G1 X121.465 Y101.203 E.06823
G1 X122.515 Y102.774 E.06825
G1 X123.351 Y104.47 E.06825
G1 X123.959 Y106.26 E.06825
G1 X124.327 Y108.114 E.06825
G3 X124.438 Y110.196 I-26.006 J2.428 E.0753
G1 X124.327 Y111.886 E.06116
G1 X123.959 Y113.74 E.06825
G1 X123.351 Y115.53 E.06825
G1 X122.515 Y117.226 E.06825
G1 X121.472 Y118.786 E.06775
G1 X120.218 Y120.219 E.06876
G1 X118.797 Y121.465 E.06823
G1 X117.226 Y122.515 E.06825
G1 X115.53 Y123.351 E.06825
G1 X113.836 Y123.926 E.06462
G1 X114.418 Y124.211 F9000
;TYPE:Outer wall
G1 F1800
G1 X113.859 Y124.401 E.02132
G1 X111.909 Y124.786 E.07176
G1 X109.997 Y124.909 E.06916
G1 X108.053 Y124.781 E.07036
G1 X106.164 Y124.406 E.06955
G1 X104.294 Y123.774 E.07124
G1 X102.545 Y122.912 E.07041
G1 X100.924 Y121.828 E.07042
G1 X99.458 Y120.542 E.07041
G1 X98.172 Y119.076 E.07041
G1 X97.088 Y117.455 E.07042
G1 X96.226 Y115.705 E.07041
G1 X95.599 Y113.859 E.07041
G1 X95.218 Y111.946 E.07041
G1 X95.091 Y110 E.07041
G1 X95.218 Y108.054 E.07041
G1 X95.599 Y106.141 E.07041
G1 X96.226 Y104.295 E.07041
G1 X97.088 Y102.545 E.07041
G1 X98.164 Y100.936 E.06991
G1 X99.458 Y99.458 E.07092
G1 X100.924 Y98.172 E.07041
G1 X102.545 Y97.088 E.07042
G1 X104.295 Y96.226 E.07041
G1 X106.141 Y95.599 E.07041
G1 X108.086 Y95.215 E.07158
G1 X110.022 Y95.091 E.07005
G1 X111.946 Y95.218 E.06963
G1 X113.857 Y95.598 E.07033
G1 X115.705 Y96.226 E.07049
G1 X117.455 Y97.088 E.07041
G1 X119.064 Y98.164 E.06991
G1 X120.542 Y99.458 E.07092
G1 X121.828 Y100.924 E.07041
G1 X122.912 Y102.545 E.07042
G1 X123.774 Y104.295 E.07041
G1 X124.401 Y106.141 E.07041
G1 X124.782 Y108.054 E.07041
G3 X124.894 Y110.226 I-25.722 J2.424 E.07854
G1 X124.782 Y111.946 E.06225
G1 X124.401 Y113.859 E.07041
G1 X123.774 Y115.705 E.07041
G1 X122.912 Y117.455 E.07041
G1 X121.836 Y119.064 E.06991
G1 X120.542 Y120.542 E.07092
G1 X119.076 Y121.828 E.07041
G1 X117.455 Y122.912 E.07042
G1 X115.705 Y123.774 E.07041
G1 X114.456 Y124.198 E.04765
G1 E-1.2 F2400
;WIPE_START
G1 F9000
G1 X113.859 Y124.401
G1 X112.515 Y124.666
;WIPE_END
G1 X110.605 Y121.362 Z.4
G1 X108.868 Y118.359 Z.4
G1 Z.2
G1 E1.2 F1800
;TYPE:Inner wall
G1 X107.744 Y118.148 E.04128
G1 X106.221 Y117.568 E.05886
G1 X104.898 Y116.749 E.05617
G1 X103.713 Y115.653 E.05826
G1 X102.805 Y114.451 E.05443
G1 X102.138 Y113.109 E.05408
G1 X101.683 Y111.551 E.05861
G1 X101.54 Y110.007 E.056
G1 X101.701 Y108.381 E.05899
G1 X102.112 Y106.941 E.05407
G1 X102.772 Y105.615 E.05347
G1 X103.749 Y104.298 E.05921
G1 X104.903 Y103.247 E.05637
G1 X106.29 Y102.402 E.05862
G1 X107.684 Y101.862 E.05398
G1 X109.086 Y101.599 E.05151
G1 X110.786 Y101.576 E.06138
G1 X112.256 Y101.852 E.054
G1 X113.786 Y102.435 E.0591
G1 X115.1 Y103.249 E.05581
G1 X116.284 Y104.344 E.05824
G1 X117.194 Y105.546 E.05444
G1 X117.861 Y106.887 E.05409
G1 X118.317 Y108.446 E.05862
G1 X118.46 Y109.99 E.05599
G1 X118.299 Y111.617 E.05904
G1 X117.889 Y113.057 E.05408
G1 X117.227 Y114.386 E.05358
G1 X116.254 Y115.698 E.05901
G1 X115.1 Y116.751 E.05638
G1 X113.714 Y117.595 E.0586
G1 X112.315 Y118.138 E.05417
G1 X110.911 Y118.4 E.05157
G3 X109.213 Y118.424 I-1.279 J-29.851 E.06133
G1 X108.907 Y118.367 E.01123
G1 X109.364 Y117.966 F9000
;TYPE:Outer wall
G1 F1800
M73 P0 R41
G1 X109.256 Y117.967 E.00391
G1 X107.828 Y117.699 E.05243
G1 X106.42 Y117.154 E.05452
G1 X105.175 Y116.383 E.0529
G1 X104.078 Y115.378 E.0537
G1 X103.195 Y114.209 E.0529
G1 X102.547 Y112.906 E.05255
G1 X102.134 Y111.467 E.05405
G1 X101.999 Y110.007 E.05295
G1 X102.141 Y108.506 E.05442
G1 X102.54 Y107.107 E.05254
G1 X103.181 Y105.819 E.05194
G1 X104.088 Y104.607 E.05465
G1 X105.18 Y103.613 E.05331
G1 X106.455 Y102.829 E.05406
G1 X107.81 Y102.304 E.05246
G1 X109.171 Y102.048 E.04999
G1 X110.744 Y102.033 E.05681
G1 X112.172 Y102.301 E.05245
G1 X113.586 Y102.849 E.05477
G1 X114.823 Y103.615 E.05253
G1 X115.919 Y104.62 E.05369
G1 X116.803 Y105.788 E.0529
G1 X117.452 Y107.091 E.05255
G1 X117.866 Y108.53 E.05406
G1 X118.001 Y109.99 E.05294
G1 X117.859 Y111.492 E.05446
G1 X117.461 Y112.891 E.05255
G1 X116.818 Y114.182 E.05205
G1 X115.915 Y115.389 E.05445
G1 X114.823 Y116.384 E.05333
G1 X113.549 Y117.169 E.05404
G1 X112.19 Y117.696 E.05264
G1 X110.827 Y117.95 E.05004
G1 X109.404 Y117.965 E.0514
G1 E-1.2 F2400
;WIPE_START
G1 F9000
G1 X109.256 Y117.967
G1 X107.828 Y117.699
G1 X107.456 Y117.555
;WIPE_END
G1 X118.347 Y98.4 Z.4
G1 Z.4
G1 Z.2
G1 E1.2 F1800
;TYPE:Bottom surface
;WIDTH:0.505389
G1 F4800
G1 X119.999 Y100.051 E.08531
G1 X121.192 Y101.412 E.06614
G1 X122.172 Y102.878 E.06442
G1 X117.122 Y97.828 E.2609
G1 X115.808 Y97.168 E.05372
G1 X122.832 Y104.192 E.36288
G1 X123.034 Y104.601 E.01667
G1 X123.263 Y105.277 E.02609
G1 X114.723 Y96.737 E.44124
G1 X113.732 Y96.401 E.0382
G1 X123.599 Y106.268 E.50976
G1 X123.776 Y107.098 E.03102
G1 X112.902 Y96.224 E.56181
G1 X112.085 Y96.062 E.0304
G1 X123.938 Y107.915 E.61237
G3 X124.019 Y108.649 I-2.75 J.674 E.02708
G1 X111.35 Y95.981 E.65451
G1 X110.65 Y95.934 E.02564
G1 X124.065 Y109.349 E.69307
G1 X124.105 Y110.043 E.02539
M73 P1 R41
G1 X109.958 Y95.897 E.73086
G1 X109.344 Y95.936 E.0225
G1 X124.064 Y110.657 E.76054
G1 X124.024 Y111.271 E.02247
G1 X108.729 Y95.975 E.79022
G1 X108.122 Y96.023 E.02222
G1 X114.703 Y102.604 E.33998
G1 X115.319 Y102.989 E.02654
G1 X116.434 Y104.001 E.055
G1 X116.554 Y104.133 E.00652
G1 X117.492 Y105.392 E.05736
G1 X123.979 Y111.88 E.33517
G1 X123.871 Y112.425 E.02032
G1 X118.138 Y106.693 E.29615
G1 X118.22 Y106.858 E.00672
G1 X118.446 Y107.654 E.03026
G1 X123.762 Y112.971 E.27466
G1 X123.654 Y113.516 E.02032
G1 X118.663 Y108.526 E.25784
G1 X118.727 Y109.243 E.02632
G1 X123.502 Y114.019 E.24672
G1 X123.336 Y114.507 E.01884
G1 X118.79 Y109.961 E.23486
G1 X118.798 Y110.05 E.00327
G1 X118.749 Y110.573 E.0192
G1 X123.171 Y114.995 E.22845
G3 X122.996 Y115.475 I-1.908 J-.423 E.0187
G1 X118.692 Y111.171 E.22235
G1 X118.649 Y111.629 E.01679
G1 X118.615 Y111.748 E.00454
G1 X122.78 Y115.913 E.21517
G1 X122.564 Y116.351 E.01784
G1 X118.471 Y112.258 E.21145
G1 X118.327 Y112.768 E.01936
G1 X122.348 Y116.789 E.20774
G3 X122.114 Y117.209 I-1.712 J-.68 E.01761
G1 X118.169 Y113.264 E.2038
G1 X117.952 Y113.701 E.01782
G1 X121.852 Y117.601 E.2015
G1 X121.59 Y117.993 E.01723
G1 X117.734 Y114.137 E.1992
G3 X117.515 Y114.572 I-2.461 J-.965 E.01782
G1 X121.328 Y118.385 E.19697
G3 X121.044 Y118.755 I-1.557 J-.902 E.01709
G1 X117.244 Y114.955 E.19631
G1 X116.962 Y115.327 E.01705
G1 X120.739 Y119.104 E.1951
G1 X120.433 Y119.452 E.01693
G1 X116.68 Y115.699 E.19389
G3 X116.373 Y116.047 I-1.111 J-.673 E.01702
G1 X120.128 Y119.801 E.19398
G3 X119.801 Y120.128 I-1.397 J-1.069 E.01694
G1 X116.033 Y116.36 E.1947
G1 X115.692 Y116.673 E.01691
G1 X119.453 Y120.434 E.19431
G1 X119.104 Y120.74 E.01693
G1 X115.349 Y116.984 E.19403
G3 X114.954 Y117.243 I-1.556 J-1.937 E.01728
G1 X118.756 Y121.045 E.19641
G3 X118.385 Y121.328 I-1.26 J-1.268 E.0171
G1 X114.549 Y117.493 E.19815
G1 X114.145 Y117.742 E.01737
G1 X117.993 Y121.59 E.19881
G1 X117.601 Y121.852 E.01723
G1 X113.71 Y117.961 E.201
G1 X113.239 Y118.145 E.01845
G1 X117.209 Y122.114 E.20506
G3 X116.789 Y122.348 I-1.099 J-1.478 E.01761
G1 X112.769 Y118.328 E.20768
G3 X112.272 Y118.485 I-.667 J-1.244 E.01915
G1 X116.351 Y122.564 E.21072
G1 X115.913 Y122.78 E.01784
G1 X111.722 Y118.589 E.21653
G1 X111.171 Y118.693 E.02046
G1 X115.475 Y122.996 E.22234
G3 X114.995 Y123.171 I-.902 J-1.734 E.0187
G1 X110.591 Y118.766 E.22756
G1 X109.936 Y118.765 E.02391
G1 X114.507 Y123.336 E.23615
G1 X114.019 Y123.502 E.01884
G1 X109.281 Y118.765 E.24474
G1 X109.206 Y118.765 E.00274
G1 X108.492 Y118.63 E.02655
G1 X113.516 Y123.653 E.25954
G1 X112.97 Y123.761 E.02034
G1 X107.686 Y118.477 E.27299
G1 X107.546 Y118.451 E.00519
G1 X106.661 Y118.106 E.03471
G1 X112.598 Y124.044 E.30677
G1 E-1.2 F2400
;WIPE_START
G1 F9000
G1 X111.184 Y122.63
;WIPE_END
G1 X110.648 Y118.851 Z.4
G1 X107.401 Y95.956 Z.4
G1 Z.2
G1 E1.2 F1800
G1 F4800
G1 X113.341 Y101.895 E.30686
G1 X112.304 Y101.513 E.04035
G1 X107.03 Y96.239 E.27249
G1 X106.484 Y96.347 E.02034
G1 X111.503 Y101.366 E.2593
G1 X110.794 Y101.235 E.02634
G1 X110.718 Y101.235 E.00276
G1 X105.981 Y96.498 E.24474
G1 X105.493 Y96.664 E.01884
G1 X110.064 Y101.235 E.23615
G2 X109.412 Y101.237 I-.068 J66.323 E.0238
G1 X105.005 Y96.829 E.22772
G2 X104.525 Y97.004 I.423 J1.908 E.0187
G1 X108.826 Y101.305 E.2222
G1 X108.274 Y101.406 E.02052
G1 X104.087 Y97.22 E.21629
G1 X103.649 Y97.436 E.01784
G1 X107.721 Y101.508 E.21037
G1 X107.634 Y101.524 E.00325
G1 X107.235 Y101.676 E.01559
G1 X103.211 Y97.652 E.20788
G2 X102.791 Y97.886 I.68 J1.712 E.01761
G1 X106.761 Y101.856 E.2051
G1 X106.288 Y102.036 E.01852
G1 X102.399 Y98.148 E.20089
G1 X102.007 Y98.41 E.01723
G1 X105.853 Y102.256 E.19872
G1 X105.451 Y102.508 E.01734
G1 X101.615 Y98.672 E.19817
G2 X101.244 Y98.955 I.889 J1.551 E.0171
G1 X105.048 Y102.759 E.19654
G1 X104.651 Y103.016 E.01728
G1 X100.896 Y99.261 E.19401
G1 X100.547 Y99.566 E.01693
G1 X104.308 Y103.327 E.19431
G1 X103.965 Y103.638 E.01691
G1 X100.199 Y99.872 E.1946
G2 X99.872 Y100.199 I1.07 J1.396 E.01694
G1 X103.623 Y103.95 E.19378
G2 X103.319 Y104.3 I1.436 J1.555 E.01697
G1 X99.567 Y100.548 E.19384
G1 X99.261 Y100.896 E.01693
G1 X103.037 Y104.673 E.19509
G1 X102.756 Y105.045 E.01706
G1 X98.956 Y101.245 E.19634
G2 X98.672 Y101.615 I1.273 J1.272 E.01709
G1 X102.489 Y105.432 E.1972
G1 X102.272 Y105.869 E.01782
G1 X98.41 Y102.007 E.1995
G1 X98.148 Y102.399 E.01723
G1 X102.054 Y106.306 E.20181
G1 X101.837 Y106.742 E.01782
G1 X97.886 Y102.791 E.20412
G2 X97.652 Y103.211 I1.478 J1.099 E.01761
G1 X101.674 Y107.233 E.20778
G1 X101.529 Y107.743 E.01935
G1 X97.436 Y103.649 E.21148
G1 X97.22 Y104.087 E.01784
G1 X101.385 Y108.252 E.21517
G1 X101.351 Y108.369 E.00445
G1 X101.308 Y108.829 E.01687
G1 X97.004 Y104.525 E.22235
G2 X96.829 Y105.005 I1.733 J.902 E.0187
G1 X101.251 Y109.426 E.22843
G1 X101.201 Y109.946 E.01909
G1 X101.209 Y110.039 E.00339
G1 X96.664 Y105.493 E.23486
G1 X96.498 Y105.981 E.01884
G1 X101.273 Y110.757 E.24671
G1 X101.337 Y111.474 E.02632
G1 X96.346 Y106.484 E.25783
G1 X96.238 Y107.029 E.02032
G1 X101.554 Y112.346 E.27467
G1 X101.779 Y113.139 E.03012
G1 X101.863 Y113.308 E.00689
G1 X96.129 Y107.575 E.29621
G1 X96.021 Y108.12 E.02032
G1 X102.508 Y114.608 E.33516
G1 X103.488 Y115.92 E.05984
G1 X104.676 Y117.008 E.05884
G1 X105.288 Y117.387 E.02629
G1 X111.877 Y123.977 E.34042
G1 X111.272 Y124.025 E.02219
G1 X95.976 Y108.729 E.79024
G1 X95.936 Y109.343 E.02247
G1 X110.657 Y124.065 E.76058
G1 X110.043 Y124.105 E.02249
G1 X95.895 Y109.957 E.73092
G1 X95.935 Y110.651 E.02539
G1 X109.349 Y124.065 E.69302
G1 X108.649 Y124.019 E.02563
G1 X95.981 Y111.351 E.65449
G2 X96.062 Y112.086 I2.831 J.061 E.02708
G1 X107.915 Y123.939 E.61237
G1 X107.099 Y123.777 E.03039
G1 X96.224 Y112.902 E.56182
G1 X96.401 Y113.733 E.03103
G1 X106.264 Y123.596 E.50958
G1 X105.276 Y123.262 E.03811
G1 X96.737 Y114.723 E.44115
G1 X96.966 Y115.399 E.02608
G1 X97.168 Y115.808 E.01668
G1 X104.192 Y122.832 E.36286
G1 X102.878 Y122.172 E.05372
G1 X97.828 Y117.122 E.26086
G1 X98.808 Y118.588 E.0644
G1 X100.003 Y119.951 E.0662
G1 X101.652 Y121.6 E.08522
G1 E-1.2 F2400
;WIPE_START
G1 F9000
G1 X100.238 Y120.186
;WIPE_END
G1 X97.926 Y117.15 Z.4
G1 X97.735 Y116.9 Z.4
G1 Z.2
G1 E1.2 F1800
;TYPE:Gap infill
;WIDTH:0.260115
G1 X97.631 Y116.754 E.00308
;WIDTH:0.213731
G1 X97.526 Y116.608 E.00242
;WIDTH:0.167347
G1 X97.422 Y116.462 E.00176
;WIDTH:0.144155
G1 X97.317 Y116.317 E.00143
G1 E-1.2 F2400
;WIPE_START
G1 F9000
G1 X97.422 Y116.462
;WIPE_END
G1 X100.863 Y114.812 Z.4
G1 X102.356 Y114.096 Z.4
G1 Z.2
G1 E1.2 F1800
;WIDTH:0.120058
G1 X102.254 Y113.955 E.00106
;WIDTH:0.164637
G1 X102.153 Y113.813 E.00167
;WIDTH:0.209217
G1 X102.051 Y113.672 E.00229
;WIDTH:0.231507
G1 X101.949 Y113.531 E.00259
G1 E-1.2 F2400
;WIPE_START
G1 F9000
G1 X102.051 Y113.672
;WIPE_END
G1 X104.75 Y116.37 Z.4
G1 X106.425 Y118.044 Z.4
G1 Z.2
G1 E1.2 F1800
;WIDTH:0.137551
G3 X105.961 Y117.699 I3.485 J-5.171 E.00432
G1 E-1.2 F2400
;WIPE_START
G1 F9000
G1 X106.425 Y118.044
;WIPE_END
G1 X105.332 Y121.701 Z.4
G1 X104.871 Y123.245 Z.4
G1 Z.2
G1 E1.2 F1800
;WIDTH:0.240697
G1 X104.414 Y122.918 E.00877
G1 E-1.2 F2400
;WIPE_START
G1 F9000
G1 X104.871 Y123.245
;WIPE_END
G1 X102.111 Y121.767 Z.4
G1 Z.2
G1 E1.2 F1800
;WIDTH:0.115163
G1 X101.939 Y121.626 E.00127
;WIDTH:0.132556
G1 X101.767 Y121.485 E.00157
G1 E-1.2 F2400
;WIPE_START
G1 F9000
G1 X101.939 Y121.626
;WIPE_END
G1 X104.826 Y119.13 Z.4
G1 X122.683 Y103.684 Z.4
M73 P2 R41
G1 Z.2
G1 E1.2 F1800
;WIDTH:0.120954
G1 X122.579 Y103.538 E.00111
;WIDTH:0.167321
G1 X122.474 Y103.392 E.00176
;WIDTH:0.213688
G1 X122.37 Y103.246 E.00242
;WIDTH:0.236871
G1 X122.265 Y103.101 E.00275
G1 E-1.2 F2400
;WIPE_START
G1 F9000
G1 X122.37 Y103.246
;WIPE_END
G1 X119.312 Y105.53 Z.4
G1 X118.051 Y106.471 Z.4
G1 Z.2
G1 E1.2 F1800
;WIDTH:0.25389
G1 X117.95 Y106.329 E.0029
;WIDTH:0.209284
G1 X117.848 Y106.188 E.00229
;WIDTH:0.164678
G1 X117.746 Y106.046 E.00168
;WIDTH:0.142375
G1 X117.644 Y105.905 E.00137
G1 E-1.2 F2400
;WIPE_START
G1 F9000
G1 X117.746 Y106.046
;WIPE_END
G1 X115.061 Y103.334 Z.4
G1 X114.023 Y102.285 Z.4
G1 Z.2
G1 E1.2 F1800
;WIDTH:0.103371
G1 X113.962 Y102.236 E.00037
;WIDTH:0.123129
