;TIME:1342.99
;Filament used:2.05726m
;Layer height:0.200
; HEADER_BLOCK_START
; generated by Creality_Print V6.2.2.3134 on 2025-09-01 at 03:28:47
; total layer number: 153
; filament_density: 1.24
; filament_diameter: 1.75
; max_z_height: 30.60
; creality_uuid: eee57042-33bf-40d3-adaf-b91885adbbfb
; HEADER_BLOCK_END

; MINX = 94.70
; MINY = 104.50
; MINZ = 0.00
; MAXX = 125.30
; MAXY = 115.50
; MAXZ = 30.61

; THUMBNAIL_BLOCK_START

;
; THUMBNAIL_BLOCK_END

; THUMBNAIL_BLOCK_START

;
; THUMBNAIL_BLOCK_END

; external perimeters extrusion width = 0.42mm
; perimeters extrusion width = 0.45mm
; infill extrusion width = 0.45mm
; solid infill extrusion width = 0.42mm
; top infill extrusion width = 0.42mm
; first layer extrusion width = 0.50mm

; EXECUTABLE_BLOCK_START
M73 P0 R22
M201 X5000 Y5000 Z500 E5000
M203 X500 Y500 Z30 E100
M204 P5000 R2500 T5000 ; sets acceleration (P, T) and retract acceleration (R), mm/sec^2
M205 X10.00 Y10.00 Z0.40 E5.00 ; sets the jerk limits, mm/sec
;TYPE:Custom
M220 S100 ;Reset Feedrate 
M221 S100 ;Reset Flowrate 
 
M140 S50 ;Set final bed temp 
G28 ;Home 
 
G92 E0 ;Reset Extruder 
G1 Z2.0 F3000 ;Move Z Axis up 
M104 S190 ;Set final nozzle temp 
G1 X-2.1 Y20 Z0.28 F5000.0 ;Move to start position 
M190 S50 ;Wait for bed temp to stabilize 
M109 S190 ;Wait for nozzle temp to stabilize 
G1 X-2.1 Y145.0 Z0.28 F1500.0 E15 ;Draw the first line 
G1 X-2.4 Y145.0 Z0.28 F5000.0 ;Move to side a little 
G1 X-2.4 Y20 Z0.28 F1500.0 E30 ;Draw the second line 
G92 E0  ;Reset Extruder 
G1 E-1.0000 F1800 ;Retract a bit 
G1 Z2.0 F3000 ;Move Z Axis up 
G1 E0.0000 F1800
G90
G21
M83 ; use relative distances for extrusion
;filament start gcode
G1 E-1.2 F2400
M106 S0
;LAYER_CHANGE
;Z:0.2
;HEIGHT:0.2
;BEFORE_LAYER_CHANGE
;0.2
G92 E0

;_SET_FAN_SPEED_CHANGING_LAYER
M204 P500
M205 X10 Y10
; printing object Object_1 id:7811887588677804407 copy 0
M204 T500
G1 X110.26 Y114.64 Z.2 F9000
G1 E1.2 F1800
;TYPE:Inner wall
;WIDTH:0.499999
G1 F1200
G1 X109.195 Y114.64 E.03844
G1 X109.195 Y105.354 E.33527
G1 X110.76 Y105.354 E.05649
G1 X110.76 Y114.64 E.33527
G1 X110.3 Y114.64 E.01661
G1 E-1.2 F2400
;WIPE_START
G1 F9000
G1 X109.195 Y114.64
G1 X109.195 Y113.745
;WIPE_END
G1 X111.217 Y115.097 Z.4
G1 Z.2
G1 E1.2 F1800
;TYPE:Outer wall
G1 F1200
M73 P1 R22
G1 X108.738 Y115.097 E.0895
G1 X108.738 Y104.897 E.36828
G1 X111.217 Y104.897 E.0895
G1 X111.217 Y115.057 E.36684
G1 E-1.2 F2400
;WIPE_START
G1 F9000
G1 X109.217 Y115.09
;WIPE_END
G1 X110.623 Y106.42 Z.4
G1 Z.4
G1 Z.2
G1 E1.2 F1800
;TYPE:Bottom surface
;WIDTH:0.502243
G1 F1200
G1 X109.9 Y105.697 E.0371
G1 X109.538 Y105.697 E.01312
G1 X109.538 Y105.985 E.01045
G1 X110.417 Y106.864 E.0451
G1 X110.417 Y107.514 E.02357
G1 X109.538 Y106.635 E.0451
G1 X109.538 Y107.284 E.02357
G1 X110.417 Y108.163 E.0451
G1 X110.417 Y108.813 E.02357
G1 X109.538 Y107.934 E.0451
G1 X109.538 Y108.584 E.02357
G1 X110.417 Y109.462 E.0451
G1 X110.417 Y110.112 E.02357
G1 X109.538 Y109.233 E.0451
G1 X109.538 Y109.883 E.02357
G1 X110.417 Y110.762 E.0451
G1 X110.417 Y111.411 E.02357
G1 X109.538 Y110.532 E.0451
G1 X109.538 Y111.182 E.02357
G1 X110.417 Y112.061 E.0451
G1 X110.417 Y112.71 E.02357
G1 X109.538 Y111.831 E.0451
G1 X109.538 Y112.481 E.02357
G1 X110.417 Y113.36 E.0451
G1 X110.417 Y114.01 E.02357
G1 X109.538 Y113.131 E.0451
G1 X109.538 Y113.78 E.02357
G1 X110.261 Y114.503 E.03709
G1 X110.367 Y114.279 F9000
;TYPE:Gap infill
;WIDTH:0.15693
G1 F1200
G1 X110.47 Y114.302 E.00095
G1 X110.476 Y114.357 E.00049
G1 X110.381 Y114.412 E.00099
; stop printing object Object_1 id:7811887588677804407 copy 0
;TIME_ELAPSED:16.754009

M106 S255
;LAYER_CHANGE
;Z:0.4
;HEIGHT:0.2
;BEFORE_LAYER_CHANGE
;0.4
G92 E0

G1 E-1.2 F2400
;WIPE_START
G1 F9000
G1 X110.476 Y114.357
G1 X110.47 Y114.302
G1 X110.367 Y114.279
;WIPE_END
;_SET_FAN_SPEED_CHANGING_LAYER
M204 P2500
; printing object Object_1 id:7811887588677804407 copy 0
M204 T2500
G1 X111.584 Y114.895 Z.4
G1 E1.2 F1800
M204 P2000
;TYPE:Inner wall
;WIDTH:0.449999
G1 F1896
G1 X110.717 Y114.895 E.02788
G1 X109.238 Y114.895 E.04756
G1 X108.338 Y114.895 E.02894
G1 X108.138 Y114.895 E.00643
M204 P500
;TYPE:Overhang wall
G1 X107.569 Y114.895 E.0183
G1 X107.569 Y113.226 E.05367
G1 X107.569 Y106.768 E.20767
G1 X107.569 Y105.099 E.05367
G1 X108.138 Y105.099 E.0183
M204 P2000
;TYPE:Inner wall
M106 S255
G1 X109.238 Y105.099 E.03537
G1 X110.717 Y105.099 E.04756
G1 X111.817 Y105.099 E.03537
M204 P500
;TYPE:Overhang wall
G1 X112.312 Y105.099 E.01592
G1 X112.312 Y106.694 E.05129
G1 X112.312 Y113.3 E.21242
G1 X112.312 Y114.895 E.05129
G1 X111.817 Y114.895 E.01591
M204 P2000
;TYPE:Inner wall
G1 X111.624 Y114.895 E.00621
G1 X111.817 Y115.287 F9000
M204 P1000
;TYPE:Outer wall
;WIDTH:0.419999
G1 F1896
M106 S255
G1 X110.777 Y115.287 E.03098
G1 X109.178 Y115.287 E.04763
G1 X108.138 Y115.287 E.03098
M204 P500
;TYPE:Overhang wall
G1 X107.177 Y115.287 E.02862
G1 X107.177 Y113.286 E.0596
G1 X107.177 Y106.708 E.19594
G1 X107.177 Y104.707 E.0596
G1 X108.138 Y104.707 E.02862
M204 P1000
;TYPE:Outer wall
M106 S255
G1 X109.178 Y104.707 E.03098
G1 X110.777 Y104.707 E.04763
G1 X111.817 Y104.707 E.03098
M204 P500
;TYPE:Overhang wall
G1 X112.704 Y104.707 E.02642
G1 X112.704 Y106.634 E.0574
G1 X112.704 Y113.36 E.20034
G1 X112.704 Y115.287 E.0574
G1 X111.857 Y115.287 E.02523
G1 E-1.2 F2400
;WIPE_START
G1 F9000
G1 X109.857 Y115.287
;WIPE_END
G1 X109.978 Y114.458 Z.6
G1 Z.6
G1 Z.4
G1 E1.2 F1800
M204 P2500
;TYPE:Internal solid infill
;WIDTH:0.509724
G1 F1896
M106 S255
G1 X109.978 Y105.576 E.32752
G1 E-1.2 F2400
;WIPE_START
G1 F9000
G1 X109.978 Y107.576
;WIPE_END
G1 X108.03 Y105.199 Z.6
G1 Z.4
G1 E1.2 F1800
M204 P500
;TYPE:Bridge
;WIDTH:0.401146
G1 F1896
G1 X108.03 Y106.31 E.03144
G1 X108.03 Y113.524 E.20414
G1 X108.03 Y114.635 E.03144
G1 X108.338 Y114.635 E.00872
G1 X108.388 Y114.635 E.00141
G1 X108.388 Y105.36 E.26246
G1 X108.746 Y105.36 E.01013
G1 X108.746 Y114.635 E.26246
G1 X109.104 Y114.635 E.01013
G1 X109.104 Y105.36 E.26246
G1 X109.463 Y105.36 E.01016
G1 X109.463 Y114.796 E.26701
G1 E-1.2 F2400
;WIPE_START
G1 F9000
G1 X109.463 Y112.796
;WIPE_END
G1 X111.97 Y114.796 Z.6
G1 Z.4
G1 E1.2 F1800
G1 F1896
G1 X111.97 Y113.64 E.03271
G1 X111.97 Y106.515 E.20162
G1 X111.97 Y105.36 E.03268
G1 X111.617 Y105.36 E.00999
G1 X111.612 Y105.36 E.00014
G1 X111.612 Y114.635 E.26246
G1 X111.254 Y114.635 E.01013
G1 X111.254 Y105.36 E.26246
G1 X110.896 Y105.36 E.01013
G1 X110.896 Y114.635 E.26246
G1 X110.537 Y114.635 E.01016
G1 X110.537 Y105.199 E.26701
; stop printing object Object_1 id:7811887588677804407 copy 0
;TIME_ELAPSED:23.707190

;LAYER_CHANGE
;Z:0.6
;HEIGHT:0.2
;BEFORE_LAYER_CHANGE
;0.6
G92 E0

G1 E-1.2 F2400
;WIPE_START
M73 P1 R21
G1 F9000
G1 X110.537 Y107.199
;WIPE_END
;_SET_FAN_SPEED_CHANGING_LAYER
; printing object Object_1 id:7811887588677804407 copy 0
G1 X111.62 Y110.858 Z.6
G1 X112.814 Y114.895 Z.6
G1 E1.2 F1800
M204 P2000
;TYPE:Inner wall
;WIDTH:0.449999
G1 F2175
M106 S255
G1 X112.014 Y114.895 E.02573
G1 X107.867 Y114.895 E.13335
G1 X106.967 Y114.895 E.02894
G1 X106.78 Y114.895 E.00601
G1 X106.78 Y113.808 E.03495
G1 X106.78 Y106.187 E.24506
G1 X106.78 Y105.099 E.03499
M106 S255
G1 X107.867 Y105.099 E.03495
G1 X112.014 Y105.099 E.13335
G1 X113.114 Y105.099 E.03537
M204 P500
;TYPE:Overhang wall
G1 X113.264 Y105.099 E.00482
G1 X113.264 Y114.895 E.315
G1 X113.114 Y114.895 E.00483
M204 P2000
;TYPE:Inner wall
G1 X112.914 Y114.895 E.00643
M106 S255
G1 X112.854 Y114.895 E.00193
G1 X113.114 Y115.287 F9000
M204 P1000
;TYPE:Outer wall
;WIDTH:0.419999
G1 F2175
G1 X112.074 Y115.287 E.03098
G1 X107.807 Y115.287 E.1271
G1 X106.767 Y115.287 E.03098
M204 P500
;TYPE:Overhang wall
G1 X106.387 Y115.287 E.01132
G1 X106.387 Y113.868 E.04227
G1 X106.387 Y106.127 E.23058
G1 X106.387 Y104.707 E.0423
G1 X106.767 Y104.707 E.01132
M204 P1000
;TYPE:Outer wall
M106 S255
G1 X107.807 Y104.707 E.03098
G1 X112.074 Y104.707 E.1271
G1 X113.114 Y104.707 E.03098
M204 P500
;TYPE:Overhang wall
G1 X113.656 Y104.707 E.01614
G1 X113.656 Y106.289 E.04712
G1 X113.656 Y113.705 E.2209
G1 X113.656 Y115.287 E.04712
G1 X113.154 Y115.287 E.01496
G1 E-1.2 F2400
;WIPE_START
G1 F9000
G1 X111.154 Y115.287
;WIPE_END
G1 X112.687 Y114.796 Z.8
G1 Z.8
G1 Z.6
G1 E1.2 F1800
;TYPE:Bridge
;WIDTH:0.401146
G1 F2175
G1 X112.687 Y105.36 E.26701
G1 X112.328 Y105.36 E.01014
G1 X112.328 Y114.635 E.26245
G1 X111.97 Y114.635 E.01014
M73 P2 R21
G1 X111.97 Y105.199 E.26701
G1 X110.159 Y106.652 F9000
M204 P2500
;TYPE:Internal solid infill
;WIDTH:0.479083
G1 F2175
M106 S255
G1 X109.722 Y106.652 E.01503
G1 X109.722 Y113.342 E.2305
G1 X110.159 Y113.342 E.01503
G1 X110.159 Y106.692 E.22912
G1 X110.565 Y106.246 F9000
;WIDTH:0.419999
G1 F2175
G1 X109.316 Y106.246 E.03722
G1 X109.316 Y113.749 E.2235
G1 X110.565 Y113.749 E.03722
G1 X110.565 Y106.286 E.22231
G1 X110.942 Y105.869 F9000
G1 F2175
G1 X108.939 Y105.869 E.05968
G1 X108.939 Y114.126 E.24596
G1 X110.942 Y114.126 E.05968
G1 X110.942 Y105.909 E.24477
G1 X111.319 Y105.491 F9000
G1 F2175
G1 X108.562 Y105.491 E.08214
G1 X108.562 Y114.503 E.26843
G1 X111.319 Y114.503 E.08214
G1 X111.319 Y105.531 E.26724
G1 X107.313 Y105.199 F9000
M204 P500
;TYPE:Bridge
;WIDTH:0.401146
G1 F2175
G1 X107.313 Y114.635 E.26701
G1 X107.672 Y114.635 E.01014
G1 X107.672 Y105.36 E.26245
G1 X108.03 Y105.36 E.01014
G1 X108.03 Y114.796 E.26701
; stop printing object Object_1 id:7811887588677804407 copy 0
;TIME_ELAPSED:30.757555

;LAYER_CHANGE
;Z:0.8
;HEIGHT:0.2
;BEFORE_LAYER_CHANGE
;0.8
G92 E0

G1 E-1.2 F2400
;WIPE_START
G1 F9000
G1 X108.03 Y112.796
;WIPE_END
;_SET_FAN_SPEED_CHANGING_LAYER
; printing object Object_1 id:7811887588677804407 copy 0
G1 X111.589 Y114.173 Z.8
G1 X113.453 Y114.895 Z.8
G1 E1.2 F1800
M204 P2000
;TYPE:Inner wall
;WIDTH:0.449999
G1 F2789
M106 S255
G1 X112.966 Y114.895 E.01566
G1 X107.077 Y114.895 E.18937
G1 X106.177 Y114.895 E.02894
G1 X106 Y114.895 E.00569
G1 X106 Y113.817 E.03466
G1 X106 Y106.177 E.24567
G1 X106 Y105.099 E.03466
M106 S255
G1 X107.077 Y105.099 E.03463
G1 X112.966 Y105.099 E.18937
G1 F2280
G1 X113.903 Y105.099 E.03013
G1 X113.903 Y114.895 E.315
G1 X113.866 Y114.895 E.00119
M106 S255
G1 F2789
G1 X113.493 Y114.895 E.01199
G1 X114.066 Y115.287 F9000
M204 P1000
;TYPE:Outer wall
;WIDTH:0.419999
G1 F2789
G1 X113.026 Y115.287 E.03098
G1 X107.017 Y115.287 E.17899
G1 X105.977 Y115.287 E.03098
M204 P500
;TYPE:Overhang wall
G1 X105.608 Y115.287 E.01099
G1 X105.608 Y113.877 E.042
G1 X105.608 Y106.117 E.23114
G1 X105.608 Y104.707 E.042
G1 X105.977 Y104.707 E.01099
M204 P1000
;TYPE:Outer wall
M106 S255
G1 X107.017 Y104.707 E.03098
G1 X113.026 Y104.707 E.17899
G1 X114.066 Y104.707 E.03098
M204 P500
;TYPE:Overhang wall
G1 X114.296 Y104.707 E.00685
G1 X114.296 Y105.977 E.03783
G1 X114.296 Y114.018 E.23951
G1 X114.296 Y115.287 E.0378
G1 X114.106 Y115.287 E.00564
G1 E-1.2 F2400
;WIPE_START
G1 F9000
G1 X112.106 Y115.287
;WIPE_END
G1 X113.511 Y113.118 Z1
G1 Z1
G1 Z.8
G1 E1.2 F1800
M204 P2500
;TYPE:Internal solid infill
G1 F2789
M106 S255
G1 X112.126 Y114.503 E.05835
G1 X113.511 Y114.503 E.04126
G1 X113.511 Y113.158 E.04007
G1 X113.133 Y114.05 F9000
;WIDTH:0.477306
G1 F2789
G2 X113.14 Y114.132 I-.026 J.043 E.00756
G1 X113.803 Y112.344 F9000
;WIDTH:0.423142
G1 F2789
G1 X111.522 Y114.625 E.0969
G1 X110.984 Y114.625 E.01615
G1 X113.633 Y111.976 E.11254
G1 X113.633 Y111.438 E.01615
G1 X110.446 Y114.625 E.13538
G1 X109.909 Y114.625 E.01615
G1 X113.633 Y110.9 E.15822
G1 X113.633 Y110.363 E.01615
G1 X109.371 Y114.625 E.18106
G1 X108.833 Y114.625 E.01615
G1 X113.633 Y109.825 E.2039
G1 X113.633 Y109.287 E.01615
G1 X108.295 Y114.625 E.22674
G1 X107.772 Y114.625 E.01572
G1 X113.633 Y108.75 E.24927
G1 X113.633 Y108.212 E.01615
G1 X107.772 Y114.073 E.24897
G1 X107.772 Y113.536 E.01615
G1 X113.633 Y107.674 E.24897
G1 X113.633 Y107.136 E.01615
G1 X107.772 Y112.998 E.24897
G1 X107.772 Y112.46 E.01615
G1 X113.633 Y106.599 E.24897
G1 X113.633 Y106.061 E.01615
G1 X107.772 Y111.922 E.24897
G1 X107.772 Y111.385 E.01615
G1 X113.633 Y105.523 E.24897
G1 X113.633 Y105.369 E.00462
G1 X113.25 Y105.369 E.01153
G1 X107.772 Y110.847 E.23267
G1 X107.772 Y110.309 E.01615
G1 X112.712 Y105.369 E.20983
G1 X112.174 Y105.369 E.01615
G1 X107.772 Y109.772 E.18699
G1 X107.772 Y109.234 E.01615
G1 X111.637 Y105.369 E.16415
G1 X111.099 Y105.369 E.01615
G1 X107.772 Y108.696 E.14131
G1 X107.772 Y108.158 E.01615
G1 X110.561 Y105.369 E.11847
G1 X110.023 Y105.369 E.01615
G1 X107.772 Y107.621 E.09563
G1 X107.772 Y107.083 E.01615
G1 X109.486 Y105.369 E.07279
G1 X108.948 Y105.369 E.01615
G1 X107.772 Y106.545 E.04995
G1 X107.772 Y106.008 E.01615
G1 X108.58 Y105.2 E.03432
G1 X107.807 Y105.458 F9000
;WIDTH:0.439962
G1 F2789
G1 X107.732 Y105.501 E.0027
G1 X107.812 Y105.536 E.00271
G1 X106.597 Y105.199 F9000
M204 P500
;TYPE:Bridge
;WIDTH:0.401146
G1 F2789
G1 X106.597 Y114.635 E.26701
G1 X106.955 Y114.635 E.01014
G1 X106.955 Y105.36 E.26245
G1 X107.313 Y105.36 E.01014
G1 X107.313 Y114.796 E.26701
; stop printing object Object_1 id:7811887588677804407 copy 0
;TIME_ELAPSED:38.141373

;LAYER_CHANGE
;Z:1
;HEIGHT:0.2
;BEFORE_LAYER_CHANGE
;1
G92 E0

G1 E-1.2 F2400
;WIPE_START
G1 F9000
G1 X107.313 Y112.796
;WIPE_END
;_SET_FAN_SPEED_CHANGING_LAYER
; printing object Object_1 id:7811887588677804407 copy 0
G1 X110.959 Y113.925 Z1
G1 X114.093 Y114.895 Z1
G1 E1.2 F1800
M204 P2000
;TYPE:Inner wall
;WIDTH:0.449999
G1 F2796
M106 S255
G1 X113.606 Y114.895 E.01566
G1 X106.298 Y114.895 E.235
G1 X105.465 Y114.895 E.02679
G1 X105.465 Y114.063 E.02675
G1 X105.465 Y105.932 E.26146
G1 X105.465 Y105.099 E.02679
G1 X106.298 Y105.099 E.02679
G1 X113.606 Y105.099 E.235
G1 X114.506 Y105.099 E.02894
G1 F2280
G1 X114.543 Y105.099 E.00119
G1 X114.543 Y114.895 E.315
G1 X114.506 Y114.895 E.00119
M106 S255
G1 F2796
G1 X114.133 Y114.895 E.01199
G1 X114.706 Y115.287 F9000
M204 P1000
;TYPE:Outer wall
;WIDTH:0.419999
G1 F2796
G1 X113.666 Y115.287 E.03098
G1 X106.238 Y115.287 E.22125
G1 X105.198 Y115.287 E.03098
M204 P500
;TYPE:Overhang wall
G1 X105.073 Y115.287 E.00372
G1 X105.073 Y104.707 E.31514
G1 X105.198 Y104.707 E.00372
M204 P1000
;TYPE:Outer wall
M106 S255
G1 X106.238 Y104.707 E.03098
G1 X113.666 Y104.707 E.22125
G1 X114.706 Y104.707 E.03098
M204 P500
;TYPE:Overhang wall
G1 X114.935 Y104.707 E.00682
G1 X114.935 Y105.977 E.03783
G1 X114.935 Y114.018 E.23951
G1 X114.935 Y115.287 E.0378
M73 P3 R21
G1 X114.746 Y115.287 E.00564
G1 E-1.2 F2400
;WIPE_START
G1 F9000
G1 X112.746 Y115.287
;WIPE_END
G1 X112.929 Y113.281 Z1.2
G1 Z1.2
G1 Z1
G1 E1.2 F1800
M204 P2500
;TYPE:Internal solid infill
;WIDTH:0.600844
G1 F2796
M106 S255
G1 X112.929 Y106.753 E.28772
G1 X112.462 Y113.749 F9000
;WIDTH:0.419999
G1 F2796
G1 X113.397 Y113.749 E.02785
G1 X113.397 Y106.246 E.2235
G1 X112.462 Y106.246 E.02785
G1 X112.462 Y113.709 E.22231
G1 X112.085 Y114.126 F9000
G1 F2796
G1 X113.774 Y114.126 E.05031
G1 X113.774 Y105.869 E.24596
G1 X112.085 Y105.869 E.05031
G1 X112.085 Y114.086 E.24477
G1 X111.708 Y114.503 F9000
G1 F2796
G1 X114.151 Y114.503 E.07278
G1 X114.151 Y105.491 E.26843
G1 X111.708 Y105.491 E.07278
G1 X111.708 Y114.463 E.26724
G1 X111.499 Y105.739 F9000
;TYPE:Sparse infill
;WIDTH:0.45
G1 F2796
G1 X111.144 Y105.384 E.01613
G1 X109.993 Y105.384 E.03702
G1 X111.315 Y106.707 E.06016
G1 X111.315 Y107.859 E.03702
G1 X108.841 Y105.384 E.11252
G1 X108.64 Y105.384 E.00647
G1 X108.64 Y106.334 E.03055
G1 X111.315 Y109.01 E.12167
G1 X111.315 Y110.161 E.03702
G1 X108.64 Y107.486 E.12167
G1 X108.64 Y108.637 E.03702
G1 X111.315 Y111.313 E.12167
G1 X111.315 Y112.464 E.03702
G1 X108.64 Y109.789 E.12167
G1 X108.64 Y110.94 E.03702
G1 X111.315 Y113.616 E.12167
G1 X111.315 Y114.61 E.03199
G1 X111.159 Y114.61 E.00504
G1 X108.64 Y112.091 E.11455
G1 X108.64 Y113.243 E.03702
G1 X110.007 Y114.61 E.06219
G1 X108.856 Y114.61 E.03702
G1 X108.457 Y114.211 E.01816
G1 X107.053 Y113.308 F9000
;TYPE:Internal solid infill
;WIDTH:0.547836
G1 F2796
G1 X107.053 Y106.727 E.2625
G1 X107.494 Y106.246 F9000
;WIDTH:0.419999
G1 F2796
G1 X106.612 Y106.246 E.02627
G1 X106.612 Y113.749 E.2235
G1 X107.494 Y113.749 E.02627
G1 X107.494 Y106.286 E.22231
G1 X107.871 Y105.869 F9000
G1 F2796
