; HEADER_BLOCK_START
; generated by Creality_Print V6.2.2.3134 on 2025-08-31 at 20:09:40
; total layer number: 195
; filament_density: 1.24
; filament_diameter: 1.75
; max_z_height: 39.00
; creality_uuid: a0ebaa5c-bb51-4e3e-a04b-d2059dba2b5d
; HEADER_BLOCK_END

; MINX = 184.69
; MINY = 184.69
; MINZ = 0.00
; MAXX = 215.31
; MAXY = 215.31
; MAXZ = 39.00

; THUMBNAIL_BLOCK_START

;
; THUMBNAIL_BLOCK_END

; THUMBNAIL_BLOCK_START

;
; THUMBNAIL_BLOCK_END

; external perimeters extrusion width = 0.42mm
; perimeters extrusion width = 0.45mm
; infill extrusion width = 0.45mm
; solid infill extrusion width = 0.42mm
; top infill extrusion width = 0.42mm
; first layer extrusion width = 0.55mm

; EXECUTABLE_BLOCK_START
EXCLUDE_OBJECT_DEFINE NAME=Object_1_id_0_copy_0 CENTER=200,200 POLYGON=[[200.522,184.699],[200.582,184.701],[201.064,184.727],[201.124,184.731],[201.562,184.77],[201.602,184.774],[201.998,184.821],[202.344,184.87],[202.393,184.878],[202.614,184.915],[202.738,184.937],[202.819,184.952],[202.963,184.98],[203.075,185.002],[203.963,185.212],[205.859,185.855],[207.655,186.741],[209.32,187.854],[210.826,189.174],[212.146,190.68],[213.259,192.345],[214.145,194.141],[214.788,196.037],[215.179,198.002],[215.31,200],[215.179,201.998],[214.788,203.963],[214.145,205.859],[213.259,207.655],[212.146,209.32],[210.826,210.826],[209.32,212.146],[207.655,213.259],[205.859,214.145],[203.963,214.788],[203.075,214.998],[202.963,215.02],[202.819,215.048],[202.738,215.063],[202.614,215.085],[202.393,215.122],[202.344,215.129],[201.998,215.179],[201.602,215.226],[201.562,215.23],[201.124,215.269],[201.064,215.273],[200.582,215.299],[200.522,215.301],[200.005,215.31],[199.946,215.31],[199.428,215.299],[199.373,215.297],[198.884,215.269],[198.84,215.266],[198.404,215.227],[198.372,215.223],[198.002,215.179],[197.973,215.175],[197.665,215.131],[197.396,215.087],[197.176,215.047],[197.043,215.022],[196.925,214.998],[196.037,214.788],[194.141,214.145],[192.345,213.259],[190.68,212.146],[189.174,210.826],[187.854,209.32],[186.741,207.655],[185.855,205.859],[185.212,203.963],[184.821,201.998],[184.69,200],[184.821,198.002],[185.212,196.037],[185.855,194.141],[186.741,192.345],[187.854,190.68],[189.174,189.174],[190.68,187.854],[192.345,186.741],[194.141,185.855],[196.037,185.212],[196.925,185.002],[197.043,184.978],[197.189,184.95],[197.396,184.913],[197.642,184.873],[197.973,184.825],[198.002,184.821],[198.372,184.777],[198.404,184.773],[198.84,184.734],[198.884,184.731],[199.373,184.703],[199.428,184.701],[199.946,184.69],[200,184.69],[200.522,184.699]]
M73 P0 R40
;TYPE:Custom
M220 S100 ;Reset Feedrate 
M221 S100 ;Reset Flowrate 
 
M140 S45 ;Set final bed temp  
G28 ;Home 
 
G92 E0 ;Reset Extruder 
G1 Z2.0 F3000 ;Move Z Axis up 
M104 S220 ;Set final nozzle temp  
G1 X-1.0 Y120 Z0.28 F5000.0 ;Move to start position 
M190 S45 ;Wait for bed temp to stabilize  
M109 S220 ;Wait for nozzle temp to stabilize  
G1 X-1.0 Y245.0 Z0.28 F1500.0 E7 ;Draw the first line 
G1 X-0.6 Y245.0 Z0.28 F5000.0 ;Move to side a little 
G1 X-0.6 Y120 Z0.28 F1500.0 E15 ;Draw the second line 
G92 E0 ;Reset Extruder 
G1 E-1.0000 F1800 ;Retract a bit 
G1 Z2.0 F3000 ;Move Z Axis up 
G1 E0.0000 F1800
G90
G21
M83 ; use relative distances for extrusion
; filament start gcode
SET_PRESSURE_ADVANCE ADVANCE=0.048; Override pressure advance value
G1 E-1 F2100
M106 S0
;LAYER_CHANGE
;Z:0.2
;HEIGHT:0.2
;BEFORE_LAYER_CHANGE
;0.2
G92 E0

;_SET_FAN_SPEED_CHANGING_LAYER
SET_VELOCITY_LIMIT ACCEL=1000 ACCEL_TO_DECEL=500
SET_VELOCITY_LIMIT SQUARE_CORNER_VELOCITY=8
; printing object Object_1 id:0 copy 0
EXCLUDE_OBJECT_START NAME=Object_1_id_0_copy_0
G1 X199.86 Y191.506 Z.4 F30000
G1 Z.2
G1 E1 F2100
;TYPE:Inner wall
;WIDTH:0.55
G1 F3600
G1 X200.794 Y191.501 E.03743
G1 X202.339 Y191.791 E.06295
G1 X203.806 Y192.36 E.06304
G1 X205.145 Y193.189 E.06307
G1 X206.301 Y194.243 E.06267
G1 X207.258 Y195.506 E.06348
G1 X207.96 Y196.917 E.06311
G1 X208.391 Y198.432 E.06309
G1 X208.536 Y200 E.06309
G1 X208.391 Y201.568 E.06307
G1 X207.96 Y203.082 E.06307
G1 X207.258 Y204.492 E.06307
G1 X206.31 Y205.749 E.06307
G1 X205.147 Y206.81 E.06307
G1 X203.808 Y207.639 E.06307
G1 X202.336 Y208.21 E.06324
G1 X200.78 Y208.5 E.06341
G1 X199.206 Y208.499 E.06305
G1 X197.661 Y208.209 E.06295
G1 X196.2 Y207.643 E.06276
G1 X194.853 Y206.809 E.06348
G1 X193.696 Y205.755 E.06269
G1 X192.74 Y204.49 E.06349
G1 X192.039 Y203.08 E.0631
G1 X191.609 Y201.565 E.06308
G1 X191.464 Y200.007 E.06268
G1 X191.61 Y198.429 E.06349
G1 X192.042 Y196.913 E.0631
G1 X192.744 Y195.504 E.06309
G1 X193.694 Y194.247 E.06309
G1 X194.858 Y193.187 E.06309
G1 X196.197 Y192.358 E.06308
G1 X197.664 Y191.79 E.06299
G1 X199.156 Y191.51 E.06081
G1 X199.82 Y191.506 E.0266
G1 X199.313 Y192.013 F30000
;TYPE:Outer wall
G1 F3600
G1 X200.747 Y192.008 E.05744
G1 X202.199 Y192.281 E.0592
G1 X203.579 Y192.815 E.05928
G1 X204.838 Y193.595 E.05931
G1 X205.925 Y194.586 E.05892
G1 X206.825 Y195.775 E.05971
G1 X207.485 Y197.101 E.05933
G1 X207.89 Y198.525 E.05932
G1 X208.027 Y200 E.05932
G1 X207.89 Y201.474 E.05931
G1 X207.485 Y202.899 E.05931
G1 X206.825 Y204.224 E.05931
G1 X205.933 Y205.406 E.05931
G1 X204.84 Y206.404 E.05931
G1 X203.581 Y207.184 E.05931
G1 X202.197 Y207.72 E.05947
G1 X200.733 Y207.993 E.05963
G1 X199.253 Y207.992 E.05928
G1 X197.801 Y207.719 E.05919
G1 X196.427 Y207.188 E.059
G1 X195.16 Y206.403 E.05972
G1 X194.072 Y205.412 E.05893
G1 X193.174 Y204.222 E.05972
G1 X192.514 Y202.896 E.05933
G1 X192.109 Y201.471 E.05932
G1 X191.974 Y200.007 E.05892
G1 X192.11 Y198.522 E.05972
G1 X192.516 Y197.098 E.05933
G1 X193.177 Y195.772 E.05932
G1 X194.07 Y194.59 E.05932
G1 X195.165 Y193.593 E.05932
G1 X196.424 Y192.814 E.05932
G1 X197.803 Y192.28 E.05923
G1 X199.224 Y192.013 E.05791
G1 X199.273 Y192.013 E.00196
G1 E-1 F2100
;WIPE_START
G1 F3600
G1 X200.747 Y192.008
G1 X201.264 Y192.105
;WIPE_END
G1 X200.535 Y185.658 Z.6 F30000
G1 Z.2
G1 E1 F2100
;TYPE:Inner wall
G1 F3600
G1 X201.877 Y185.747 E.05387
G1 X203.715 Y186.112 E.07505
G1 X205.501 Y186.718 E.07558
G1 X207.188 Y187.55 E.07532
G1 X208.74 Y188.587 E.07477
G1 X210.166 Y189.835 E.07589
G1 X211.405 Y191.248 E.0753
G1 X212.45 Y192.812 E.07532
G1 X213.282 Y194.499 E.07532
G1 X213.886 Y196.279 E.07532
G1 X214.253 Y198.124 E.07532
G1 X214.376 Y200 E.07532
G1 X214.253 Y201.876 E.07532
G1 X213.886 Y203.721 E.07532
G1 X213.282 Y205.501 E.07532
G1 X212.45 Y207.188 E.07532
G1 X211.413 Y208.74 E.07477
G1 X210.165 Y210.166 E.07589
G1 X208.752 Y211.405 E.0753
G1 X207.188 Y212.45 E.07532
G1 X205.501 Y213.282 E.07532
G1 X203.721 Y213.886 E.07533
G1 X201.871 Y214.255 E.07553
G1 X199.998 Y214.376 E.07521
G1 X198.122 Y214.253 E.07528
G1 X196.301 Y213.891 E.07437
G1 X194.498 Y213.281 E.07624
G1 X192.812 Y212.45 E.07531
G1 X191.248 Y211.405 E.07532
G1 X189.835 Y210.165 E.07532
G1 X188.595 Y208.752 E.07532
G1 X187.55 Y207.188 E.07532
G1 X186.718 Y205.501 E.07532
G1 X186.114 Y203.721 E.07532
G1 X185.747 Y201.876 E.07532
G1 X185.624 Y200 E.07532
G1 X185.747 Y198.124 E.07532
G1 X186.114 Y196.279 E.07532
G1 X186.718 Y194.499 E.07532
G1 X187.55 Y192.812 E.07532
G1 X188.587 Y191.26 E.07477
G1 X189.835 Y189.834 E.07589
G1 X191.248 Y188.595 E.0753
G1 X192.812 Y187.55 E.07532
G1 X194.499 Y186.718 E.07532
G1 X196.279 Y186.114 E.07533
G1 X198.128 Y185.745 E.07552
G1 X199.986 Y185.624 E.07456
G3 X200.458 Y185.653 I.064 J2.756 E.01897
G1 X200.495 Y185.656 E.00148
G1 X199.999 Y185.119 F30000
;TYPE:Outer wall
G1 F3600
G1 X200.491 Y185.147 E.01975
G1 X201.943 Y185.243 E.05828
G3 X203.847 Y185.621 I-6.66 J38.523 E.07777
G1 X205.696 Y186.249 E.07819
G1 X207.442 Y187.11 E.07799
G1 X209.049 Y188.184 E.07742
G1 X210.525 Y189.476 E.07855
G1 X211.808 Y190.939 E.07798
G1 X212.89 Y192.558 E.07799
G1 X213.751 Y194.304 E.07799
G1 X214.377 Y196.148 E.07798
G1 X214.757 Y198.057 E.07799
G1 X214.884 Y200 E.07799
G1 X214.757 Y201.943 E.07799
G1 X214.377 Y203.852 E.07799
G1 X213.751 Y205.696 E.07799
G1 X212.89 Y207.442 E.07799
G1 X211.816 Y209.049 E.07742
G1 X210.524 Y210.525 E.07855
G1 X209.061 Y211.808 E.07798
G1 X207.442 Y212.89 E.07799
G1 X205.696 Y213.751 E.07799
G1 X203.852 Y214.377 E.07799
G1 X201.915 Y214.76 E.07908
G1 X199.997 Y214.884 E.07699
G1 X198.056 Y214.757 E.07793
G1 X196.17 Y214.382 E.07702
G1 X194.304 Y213.751 E.0789
G1 X192.558 Y212.89 E.07798
G1 X190.939 Y211.808 E.07799
G1 X189.475 Y210.525 E.07798
G1 X188.192 Y209.061 E.07798
G1 X187.11 Y207.442 E.07799
G1 X186.249 Y205.696 E.07799
G1 X185.623 Y203.852 E.07799
G1 X185.243 Y201.943 E.07799
G1 X185.116 Y200 E.07799
G1 X185.243 Y198.057 E.07799
G1 X185.623 Y196.148 E.07799
G1 X186.249 Y194.304 E.07798
G1 X187.11 Y192.558 E.07799
G1 X188.184 Y190.951 E.07742
G1 X189.476 Y189.475 E.07855
G1 X190.939 Y188.192 E.07798
G1 X192.558 Y187.11 E.07799
G1 X194.304 Y186.249 E.07799
G1 X196.148 Y185.623 E.07799
G1 X198.05 Y185.244 E.0777
G1 X199.959 Y185.117 E.07664
G1 E-1 F2100
;WIPE_START
G1 F3600
G1 X200.491 Y185.147
G1 X201.943 Y185.243
G1 X201.955 Y185.246
;WIPE_END
G1 X211.59 Y191.799 Z.6 F30000
G1 Z.6
G1 Z.2
G1 E1 F2100
;TYPE:Bottom surface
;WIDTH:0.551807
G1 F4800
G1 X209.892 Y190.101 E.09655
G1 X208.508 Y188.89 E.07391
G1 X206.997 Y187.88 E.07304
G1 X206.907 Y187.836 E.00406
G1 X212.164 Y193.093 E.29889
G1 X212.865 Y194.513 E.06364
G1 X205.487 Y187.135 E.41942
G1 X205.356 Y187.07 E.00589
G1 X204.367 Y186.735 E.04197
G1 X213.265 Y195.633 E.50586
G1 X213.518 Y196.378 E.03161
G1 X213.574 Y196.662 E.01165
G1 X203.337 Y186.425 E.58199
G1 X202.439 Y186.246 E.0368
G1 X213.753 Y197.561 E.6432
M73 P0 R39
G1 X213.875 Y198.173 E.02511
G1 X213.891 Y198.418 E.00986
G1 X201.582 Y186.109 E.69978
G1 X200.811 Y186.058 E.03105
G1 X213.942 Y199.188 E.74647
G1 X213.992 Y199.958 E.03103
G1 X200.042 Y186.008 E.79307
G1 X199.36 Y186.046 E.02746
G1 X213.953 Y200.639 E.82962
G1 X213.909 Y201.314 E.02721
G1 X198.684 Y186.09 E.8655
G1 X198.178 Y186.123 E.02038
G1 X198.028 Y186.153 E.00617
G1 X203.839 Y191.964 E.33036
G1 X202.664 Y191.509 E.05066
G1 X197.428 Y186.273 E.29767
G1 X196.828 Y186.392 E.0246
G1 X201.724 Y191.289 E.27834
G1 X200.838 Y191.122 E.03623
G1 X196.243 Y186.528 E.26119
G1 X195.706 Y186.71 E.02281
G1 X200.12 Y191.124 E.25095
G1 X199.404 Y191.128 E.02877
G1 X195.169 Y186.893 E.2408
G1 X194.633 Y187.076 E.02278
G1 X198.755 Y191.198 E.23433
G1 X198.149 Y191.312 E.02478
G1 X194.151 Y187.314 E.22728
G1 X193.669 Y187.552 E.0216
G1 X197.545 Y191.428 E.22037
G1 X197.026 Y191.629 E.02236
G1 X193.187 Y187.789 E.21827
G2 X192.736 Y188.058 I.796 J1.847 E.02116
G1 X196.508 Y191.83 E.21441
G1 X195.994 Y192.036 E.02224
G1 X192.305 Y188.347 E.20975
G1 X191.873 Y188.635 E.02086
G1 X195.55 Y192.311 E.209
G1 X195.105 Y192.586 E.02102
G1 X191.446 Y188.927 E.20801
G1 X191.063 Y189.264 E.0205
G1 X194.661 Y192.861 E.20454
G1 X194.279 Y193.2 E.02049
G1 X190.679 Y189.6 E.20464
G1 X190.296 Y189.936 E.0205
G1 X193.902 Y193.543 E.20503
G1 X193.526 Y193.886 E.02048
G1 X189.936 Y190.296 E.20406
G1 X189.6 Y190.68 E.0205
G1 X193.196 Y194.275 E.2044
G1 X192.886 Y194.685 E.02065
G1 X189.264 Y191.064 E.20588
G1 X188.929 Y191.447 E.0205
G1 X192.576 Y195.095 E.20737
G2 X192.301 Y195.54 I1.052 J.958 E.02114
G1 X188.635 Y191.873 E.20844
G1 X188.346 Y192.305 E.02086
G1 X192.062 Y196.02 E.21122
G1 X191.822 Y196.5 E.02157
G1 X188.058 Y192.736 E.214
G2 X187.789 Y193.187 I1.578 J1.247 E.02116
G1 X191.617 Y197.015 E.21762
G1 X191.458 Y197.575 E.02341
G1 X187.552 Y193.669 E.22206
G1 X187.314 Y194.151 E.0216
G1 X191.298 Y198.135 E.2265
G2 X191.198 Y198.755 I1.599 J.576 E.02537
G1 X187.076 Y194.633 E.23431
G1 X186.892 Y195.169 E.02278
G1 X191.137 Y199.413 E.2413
G1 X191.082 Y200.007 E.02395
G1 X191.09 Y200.086 E.00318
G1 X186.71 Y195.706 E.24898
G1 X186.528 Y196.243 E.02281
G1 X191.163 Y200.879 E.26352
G1 X191.247 Y201.682 E.03246
G1 X186.393 Y196.828 E.27595
G1 X186.273 Y197.428 E.0246
G1 X191.532 Y202.687 E.29897
G1 X191.683 Y203.218 E.02216
G1 X192.019 Y203.894 E.03036
G1 X185.96 Y197.834 E.34447
G1 E-1 F2100
;WIPE_START
G1 F4800
G1 X187.374 Y199.249
;WIPE_END
G1 X194.961 Y200.079 Z.6 F30000
G1 X214.04 Y202.166 Z.6
G1 Z.2
G1 E1 F2100
G1 F4800
G1 X207.981 Y196.107 E.34444
G1 X208.316 Y196.779 E.03018
G1 X208.468 Y197.313 E.02233
G1 X213.727 Y202.572 E.29896
G1 X213.607 Y203.172 E.0246
G1 X208.754 Y198.319 E.27591
G1 X208.837 Y199.121 E.03242
G1 X213.472 Y203.757 E.26353
G1 X213.29 Y204.294 E.02281
G1 X208.91 Y199.914 E.24899
G1 X208.918 Y200 E.00346
G1 X208.864 Y200.587 E.02371
G1 X213.107 Y204.831 E.24126
G1 X212.924 Y205.367 E.02278
G1 X208.803 Y201.246 E.23428
G3 X208.702 Y201.865 I-1.706 J.04 E.02535
G1 X212.686 Y205.849 E.2265
G1 X212.448 Y206.331 E.0216
G1 X208.542 Y202.425 E.22205
G1 X208.383 Y202.986 E.02342
G1 X212.211 Y206.813 E.2176
G3 X211.942 Y207.264 I-1.847 J-.796 E.02116
G1 X208.177 Y203.499 E.214
G1 X207.938 Y203.98 E.02158
G1 X211.653 Y207.695 E.21121
G1 X211.365 Y208.127 E.02086
G1 X207.699 Y204.461 E.20842
G3 X207.423 Y204.905 I-1.326 J-.515 E.02113
G1 X211.071 Y208.553 E.20738
G1 X210.736 Y208.936 E.0205
G1 X207.114 Y205.315 E.20588
G1 X206.804 Y205.725 E.02066
G1 X210.4 Y209.32 E.20438
G1 X210.064 Y209.704 E.0205
G1 X206.474 Y206.114 E.20408
G1 X206.097 Y206.457 E.02048
G1 X209.704 Y210.064 E.20503
G1 X209.321 Y210.4 E.0205
G1 X205.721 Y206.801 E.20463
G1 X205.339 Y207.138 E.0205
G1 X208.937 Y210.736 E.20456
G1 X208.554 Y211.073 E.0205
G1 X204.895 Y207.414 E.20802
G1 X204.45 Y207.689 E.02101
G1 X208.127 Y211.365 E.209
G1 X207.695 Y211.654 E.02086
G1 X204.006 Y207.964 E.20973
G1 X203.492 Y208.17 E.02225
G1 X207.264 Y211.942 E.21443
G3 X206.813 Y212.211 I-1.247 J-1.578 E.02116
G1 X202.973 Y208.371 E.21828
G1 X202.455 Y208.572 E.02236
G1 X206.331 Y212.448 E.22036
G1 X205.849 Y212.686 E.0216
G1 X201.851 Y208.688 E.22731
G1 X201.244 Y208.801 E.0248
G1 X205.367 Y212.924 E.2344
G1 X204.831 Y213.108 E.02278
G1 X200.604 Y208.88 E.2403
G1 X199.884 Y208.88 E.02895
G1 X204.294 Y213.29 E.25071
G1 X203.757 Y213.472 E.02281
G1 X199.162 Y208.878 E.2612
G1 X198.276 Y208.711 E.03623
M73 P1 R39
G1 X203.172 Y213.608 E.27834
G1 X202.572 Y213.727 E.0246
G1 X197.336 Y208.491 E.29767
G1 X196.162 Y208.036 E.05063
G1 X201.972 Y213.847 E.33033
G1 X201.822 Y213.877 E.00617
G1 X201.315 Y213.91 E.0204
G1 X186.091 Y198.686 E.86547
G1 X186.047 Y199.361 E.02721
G1 X200.639 Y213.953 E.82955
G1 X199.959 Y213.992 E.02741
G1 X186.008 Y200.042 E.79308
G1 X186.058 Y200.812 E.03103
G1 X199.188 Y213.942 E.74642
G1 X198.418 Y213.891 E.03103
G1 X186.109 Y201.582 E.69976
G1 X186.125 Y201.827 E.00986
G1 X186.247 Y202.44 E.02512
G1 X197.561 Y213.754 E.64319
G1 X196.663 Y213.575 E.0368
G1 X186.426 Y203.338 E.58198
G1 X186.482 Y203.622 E.01165
G1 X186.735 Y204.367 E.03162
G1 X195.631 Y213.263 E.50573
G1 X194.644 Y212.929 E.04189
G1 X194.513 Y212.865 E.00587
G1 X187.135 Y205.487 E.4194
G1 X187.836 Y206.907 E.06364
G1 X193.093 Y212.164 E.29887
G1 X193.003 Y212.12 E.00405
G1 X191.481 Y211.103 E.07359
G1 X190.108 Y209.899 E.07337
G1 X188.41 Y208.201 E.09653
G1 X188.537 Y208.074 F30000
;TYPE:Gap infill
;WIDTH:0.160246
G1 F3600
G1 X188.384 Y207.888 E.00224
;WIDTH:0.14142
G1 X188.231 Y207.701 E.00188
G1 E-1 F2100
;WIPE_START
G1 F3600
G1 X188.384 Y207.888
;WIPE_END
G1 X192.67 Y204.864 Z.6 F30000
G1 Z.2
G1 E1 F2100
;WIDTH:0.121605
G1 F3600
G3 X192.48 Y204.646 I2.243 J-2.138 E.0018
;WIDTH:0.160402
G1 X192.389 Y204.519 E.00145
;WIDTH:0.200439
G1 X192.298 Y204.392 E.00195
;WIDTH:0.240477
G1 X192.206 Y204.265 E.00244
;WIDTH:0.260496
G1 X192.115 Y204.138 E.00269
G1 E-1 F2100
;WIPE_START
G1 F3600
G1 X192.206 Y204.265
;WIPE_END
G1 X195.919 Y207.943 Z.6 F30000
G1 Z.2
G1 E1 F2100
;WIDTH:0.289367
G1 F3600
G1 X195.753 Y207.811 E.00412
;WIDTH:0.248123
G1 X195.587 Y207.68 E.00343
;WIDTH:0.206879
G1 X195.421 Y207.548 E.00274
;WIDTH:0.165635
G1 X195.255 Y207.417 E.00205
;WIDTH:0.145013
G1 X195.089 Y207.285 E.00171
G1 E-1 F2100
;WIPE_START
G1 F3600
G1 X195.255 Y207.417
;WIPE_END
G1 X193.955 Y212.702 Z.6 F30000
G1 Z.2
G1 E1 F2100
;WIDTH:0.12823
G1 F3600
G1 X193.8 Y212.592 E.00128
;WIDTH:0.177149
G1 X193.646 Y212.481 E.00201
;WIDTH:0.226068
G1 X193.492 Y212.371 E.00275
