;TIME:1125.69
;Filament used:2.03009m
;Layer height:0.200
; HEADER_BLOCK_START
; generated by Creality_Print V6.2.2.3134 on 2025-09-01 at 11:55:28
; total layer number: 100
; filament_density: 1.24
; filament_diameter: 1.75
; max_z_height: 20.00
; creality_uuid: 895aaa49-ca56-4299-ab45-c353bc6f2485
; HEADER_BLOCK_END

; MINX = 100.00
; MINY = 100.00
; MINZ = 0.00
; MAXX = 120.00
; MAXY = 120.00
; MAXZ = 20.00

; THUMBNAIL_BLOCK_START

;
; THUMBNAIL_BLOCK_END

; THUMBNAIL_BLOCK_START

;
; THUMBNAIL_BLOCK_END

; external perimeters extrusion width = 0.42mm
; perimeters extrusion width = 0.45mm
; infill extrusion width = 0.45mm
; solid infill extrusion width = 0.42mm
; top infill extrusion width = 0.42mm
; first layer extrusion width = 0.50mm

; EXECUTABLE_BLOCK_START
M73 P0 R18
M201 X5000 Y5000 Z500 E5000
M203 X500 Y500 Z30 E100
M204 P5000 R2500 T5000 ; sets acceleration (P, T) and retract acceleration (R), mm/sec^2
M205 X10.00 Y10.00 Z0.40 E5.00 ; sets the jerk limits, mm/sec
;TYPE:Custom
M220 S100 ;Reset Feedrate 
M221 S100 ;Reset Flowrate 
 
M140 S50 ;Set final bed temp 
G28 ;Home 
 
G92 E0 ;Reset Extruder 
G1 Z2.0 F3000 ;Move Z Axis up 
M104 S190 ;Set final nozzle temp 
G1 X-2.1 Y20 Z0.28 F5000.0 ;Move to start position 
M190 S50 ;Wait for bed temp to stabilize 
M109 S190 ;Wait for nozzle temp to stabilize 
G1 X-2.1 Y145.0 Z0.28 F1500.0 E15 ;Draw the first line 
G1 X-2.4 Y145.0 Z0.28 F5000.0 ;Move to side a little 
G1 X-2.4 Y20 Z0.28 F1500.0 E30 ;Draw the second line 
G92 E0  ;Reset Extruder 
G1 E-1.0000 F1800 ;Retract a bit 
G1 Z2.0 F3000 ;Move Z Axis up 
G1 E0.0000 F1800
G90
G21
M83 ; use relative distances for extrusion
;filament start gcode
G1 E-1.2 F2400
M106 S0
;LAYER_CHANGE
;Z:0.2
;HEIGHT:0.2
;BEFORE_LAYER_CHANGE
;0.2
G92 E0

;_SET_FAN_SPEED_CHANGING_LAYER
M204 P500
M205 X10 Y10
; printing object xyzCalibration_cube.stl id:19 copy 0
M204 T500
G1 X118.643 Y119.143 Z.2 F9000
G1 E1.2 F1800
;TYPE:Inner wall
;WIDTH:0.499999
M73 P1 R18
G1 X100.857 Y119.143 E.64218
G1 X100.857 Y100.857 E.66023
G1 X119.143 Y100.857 E.66023
G1 X119.143 Y119.143 E.66023
G1 X118.683 Y119.143 E.01661
G1 E-1.2 F2400
;WIPE_START
G1 F9000
G1 X116.683 Y119.143
;WIPE_END
G1 X119.6 Y119.6 Z.4
G1 Z.2
G1 E1.2 F1800
;TYPE:Outer wall
G1 X100.4 Y119.6 E.69323
G1 X100.4 Y100.4 E.69323
G1 X119.6 Y100.4 E.69323
G1 X119.6 Y119.56 E.69179
G1 E-1.2 F2400
;WIPE_START
G1 F9000
G1 X117.6 Y119.564
;WIPE_END
G1 X119.006 Y101.934 Z.4
G1 Z.4
G1 Z.2
G1 E1.2 F1800
;TYPE:Bottom surface
;WIDTH:0.507227
G1 F4800
G1 X118.272 Y101.2 E.03805
G1 X117.616 Y101.2 E.02408
G1 X118.8 Y102.384 E.06144
G1 X118.8 Y103.041 E.02408
G1 X116.959 Y101.2 E.0955
G1 X116.302 Y101.2 E.02408
G1 X118.8 Y103.698 E.12956
G1 X118.8 Y104.354 E.02408
G1 X115.646 Y101.2 E.16362
G1 X114.989 Y101.2 E.02408
G1 X118.8 Y105.011 E.19768
G1 X118.8 Y105.668 E.02408
G1 X114.332 Y101.2 E.23174
G1 X113.676 Y101.2 E.02408
G1 X118.8 Y106.324 E.26579
G1 X118.8 Y106.981 E.02408
G1 X113.019 Y101.2 E.29985
G1 X112.363 Y101.2 E.02408
G1 X118.8 Y107.637 E.33391
G1 X118.8 Y108.294 E.02408
G1 X111.706 Y101.2 E.36797
G1 X111.049 Y101.2 E.02408
G1 X118.8 Y108.951 E.40203
G1 X118.8 Y109.607 E.02408
G1 X110.393 Y101.2 E.43609
G1 X109.736 Y101.2 E.02408
G1 X118.8 Y110.264 E.47015
G1 X118.8 Y110.921 E.02408
G1 X109.079 Y101.2 E.50421
G1 X108.423 Y101.2 E.02408
G1 X118.8 Y111.577 E.53826
G1 X118.8 Y112.234 E.02408
G1 X107.766 Y101.2 E.57232
G1 X107.109 Y101.2 E.02408
G1 X118.8 Y112.891 E.60638
G1 X118.8 Y113.547 E.02408
M73 P2 R18
G1 X106.453 Y101.2 E.64044
G1 X105.796 Y101.2 E.02408
G1 X118.8 Y114.204 E.6745
G1 X118.8 Y114.86 E.02408
G1 X105.14 Y101.2 E.70856
G1 X104.483 Y101.2 E.02408
G1 X118.8 Y115.517 E.74262
G1 X118.8 Y116.174 E.02408
G1 X103.826 Y101.2 E.77667
G1 X103.17 Y101.2 E.02408
G1 X118.8 Y116.83 E.81073
G1 X118.8 Y117.487 E.02408
G1 X102.513 Y101.2 E.84479
G1 X101.856 Y101.2 E.02408
G1 X118.8 Y118.144 E.87885
G1 X118.8 Y118.8 E.02408
G1 X101.2 Y101.2 E.9129
G1 X101.2 Y101.857 E.02408
G1 X118.143 Y118.8 E.87884
G1 X117.487 Y118.8 E.02408
G1 X101.2 Y102.513 E.84479
G1 X101.2 Y103.17 E.02408
G1 X116.83 Y118.8 E.81073
G1 X116.174 Y118.8 E.02408
G1 X101.2 Y103.826 E.77667
G1 X101.2 Y104.483 E.02408
G1 X115.517 Y118.8 E.74261
G1 X114.86 Y118.8 E.02408
G1 X101.2 Y105.14 E.70855
G1 X101.2 Y105.796 E.02408
G1 X114.204 Y118.8 E.67449
G1 X113.547 Y118.8 E.02408
G1 X101.2 Y106.453 E.64043
G1 X101.2 Y107.11 E.02408
G1 X112.89 Y118.8 E.60637
G1 X112.234 Y118.8 E.02408
G1 X101.2 Y107.766 E.57232
G1 X101.2 Y108.423 E.02408
G1 X111.577 Y118.8 E.53826
G1 X110.92 Y118.8 E.02408
G1 X101.2 Y109.08 E.5042
G1 X101.2 Y109.736 E.02408
G1 X110.264 Y118.8 E.47014
G1 X109.607 Y118.8 E.02408
G1 X101.2 Y110.393 E.43608
G1 X101.2 Y111.049 E.02408
G1 X108.951 Y118.8 E.40202
G1 X108.294 Y118.8 E.02408
G1 X101.2 Y111.706 E.36796
G1 X101.2 Y112.363 E.02408
G1 X107.637 Y118.8 E.3339
G1 X106.981 Y118.8 E.02408
G1 X101.2 Y113.019 E.29985
G1 X101.2 Y113.676 E.02408
G1 X106.324 Y118.8 E.26579
G1 X105.667 Y118.8 E.02408
G1 X101.2 Y114.333 E.23173
G1 X101.2 Y114.989 E.02408
G1 X105.011 Y118.8 E.19767
G1 X104.354 Y118.8 E.02408
G1 X101.2 Y115.646 E.16361
G1 X101.2 Y116.302 E.02408
G1 X103.698 Y118.8 E.12955
G1 X103.041 Y118.8 E.02408
M73 P3 R18
G1 X101.2 Y116.959 E.09549
G1 X101.2 Y117.616 E.02408
G1 X102.384 Y118.8 E.06144
G1 X101.728 Y118.8 E.02408
G1 X100.994 Y118.067 E.03805
; stop printing object xyzCalibration_cube.stl id:19 copy 0
;TIME_ELAPSED:34.158653

M106 S255
;LAYER_CHANGE
;Z:0.4
;HEIGHT:0.2
;BEFORE_LAYER_CHANGE
;0.4
G92 E0

G1 E-1.2 F2400
;WIPE_START
G1 F9000
G1 X101.728 Y118.8
G1 X102.384 Y118.8
G1 X102.168 Y118.584
;WIPE_END
;_SET_FAN_SPEED_CHANGING_LAYER
M204 P2500
; printing object xyzCalibration_cube.stl id:19 copy 0
M204 T2500
G1 X105.98 Y118.769 Z.4
G1 X118.948 Y119.398 Z.4
G1 E1.2 F1800
M204 P2000
;TYPE:Inner wall
;WIDTH:0.449999
G1 F5400
G1 X100.602 Y119.398 E.58993
G1 X100.602 Y100.602 E.60441
G1 X119.398 Y100.602 E.60441
G1 X119.398 Y119.398 E.60441
G1 X118.988 Y119.398 E.01318
G1 X119.79 Y119.79 F9000
M204 P1000
;TYPE:Outer wall
;WIDTH:0.419999
G1 F3600
G1 X100.21 Y119.79 E.58322
G1 X100.21 Y100.21 E.58322
G1 X119.79 Y100.21 E.58322
G1 X119.79 Y119.75 E.58203
G1 E-1.2 F2400
;WIPE_START
G1 F9000
G1 X117.79 Y119.754
;WIPE_END
G1 X117.557 Y119.006 Z.6
G1 Z.6
G1 Z.4
G1 E1.2 F1800
M204 P2500
;TYPE:Internal solid infill
G1 F10800
G1 X119.006 Y119.006 E.04316
G1 X119.006 Y117.557 E.04316
G1 X117.585 Y118.978 E.05984
G1 X118.611 Y118.53 F9000
;WIDTH:0.51457
G1 F10800
G2 X118.62 Y118.616 I-.028 J.047 E.00904
G1 X116.784 Y119.298 F9000
;WIDTH:0.421177
G1 F10800
G1 X119.128 Y116.954 E.09903
G1 X119.128 Y116.419 E.01598
G1 X116.419 Y119.128 E.11447
G1 X115.884 Y119.128 E.01598
G1 X119.128 Y115.884 E.13707
G1 X119.128 Y115.349 E.01598
G1 X115.349 Y119.128 E.15968
G1 X114.814 Y119.128 E.01598
G1 X119.128 Y114.814 E.18228
G1 X119.128 Y114.279 E.01598
G1 X114.279 Y119.128 E.20488
G1 X113.744 Y119.128 E.01598
G1 X119.128 Y113.744 E.22749
G1 X119.128 Y113.209 E.01598
G1 X113.209 Y119.128 E.25009
G1 X112.675 Y119.128 E.01598
G1 X119.128 Y112.675 E.2727
G1 X119.128 Y112.14 E.01598
G1 X112.14 Y119.128 E.2953
G1 X111.605 Y119.128 E.01598
G1 X119.128 Y111.605 E.31791
G1 X119.128 Y111.07 E.01598
G1 X111.07 Y119.128 E.34051
G1 X110.535 Y119.128 E.01598
G1 X119.128 Y110.535 E.36311
G1 X119.128 Y110 E.01598
G1 X110 Y119.128 E.38572
G1 X109.465 Y119.128 E.01598
G1 X119.128 Y109.465 E.40832
G1 X119.128 Y108.93 E.01598
G1 X108.93 Y119.128 E.43093
G1 X108.395 Y119.128 E.01598
G1 X119.128 Y108.395 E.45353
G1 X119.128 Y107.86 E.01598
G1 X107.86 Y119.128 E.47614
G1 X107.325 Y119.128 E.01598
G1 X119.128 Y107.325 E.49874
G1 X119.128 Y106.79 E.01598
G1 X106.79 Y119.128 E.52134
G1 X106.255 Y119.128 E.01598
G1 X119.128 Y106.255 E.54395
G1 X119.128 Y105.72 E.01598
G1 X105.72 Y119.128 E.56655
G1 X105.185 Y119.128 E.01598
G1 X119.128 Y105.185 E.58916
G1 X119.128 Y104.65 E.01598
G1 X104.65 Y119.128 E.61176
G1 X104.116 Y119.128 E.01598
G1 X119.128 Y104.116 E.63437
G1 X119.128 Y103.581 E.01598
G1 X103.581 Y119.128 E.65697
G1 X103.046 Y119.128 E.01598
G1 X119.128 Y103.046 E.67958
G1 X119.128 Y102.511 E.01598
G1 X102.511 Y119.128 E.70218
G1 X101.976 Y119.128 E.01598
G1 X119.128 Y101.976 E.72478
G1 X119.128 Y101.441 E.01598
G1 X101.441 Y119.128 E.74739
G1 X100.906 Y119.128 E.01598
G1 X119.128 Y100.906 E.76999
G1 X119.128 Y100.872 E.00101
G1 X118.627 Y100.872 E.01497
G1 X100.872 Y118.627 E.75025
G1 X100.872 Y118.092 E.01598
G1 X118.092 Y100.872 E.72765
G1 X117.557 Y100.872 E.01598
G1 X100.872 Y117.557 E.70504
G1 X100.872 Y117.022 E.01598
G1 X117.022 Y100.872 E.68244
G1 X116.487 Y100.872 E.01598
G1 X100.872 Y116.487 E.65984
G1 X100.872 Y115.952 E.01598
G1 X115.952 Y100.872 E.63723
G1 X115.417 Y100.872 E.01598
G1 X100.872 Y115.417 E.61463
G1 X100.872 Y114.882 E.01598
G1 X114.882 Y100.872 E.59202
G1 X114.347 Y100.872 E.01598
G1 X100.872 Y114.347 E.56942
G1 X100.872 Y113.813 E.01598
G1 X113.813 Y100.872 E.54681
G1 X113.278 Y100.872 E.01598
G1 X100.872 Y113.278 E.52421
G1 X100.872 Y112.743 E.01598
G1 X112.743 Y100.872 E.50161
G1 X112.208 Y100.872 E.01598
M73 P4 R18
G1 X100.872 Y112.208 E.479
G1 X100.872 Y111.673 E.01598
G1 X111.673 Y100.872 E.4564
G1 X111.138 Y100.872 E.01598
G1 X100.872 Y111.138 E.43379
G1 X100.872 Y110.603 E.01598
G1 X110.603 Y100.872 E.41119
G1 X110.068 Y100.872 E.01598
G1 X100.872 Y110.068 E.38858
G1 X100.872 Y109.533 E.01598
G1 X109.533 Y100.872 E.36598
G1 X108.998 Y100.872 E.01598
G1 X100.872 Y108.998 E.34338
G1 X100.872 Y108.463 E.01598
M73 P4 R17
G1 X108.463 Y100.872 E.32077
G1 X107.928 Y100.872 E.01598
G1 X100.872 Y107.928 E.29817
G1 X100.872 Y107.393 E.01598
G1 X107.393 Y100.872 E.27556
G1 X106.858 Y100.872 E.01598
G1 X100.872 Y106.858 E.25296
G1 X100.872 Y106.323 E.01598
G1 X106.323 Y100.872 E.23035
G1 X105.788 Y100.872 E.01598
G1 X100.872 Y105.788 E.20775
G1 X100.872 Y105.254 E.01598
G1 X105.254 Y100.872 E.18515
G1 X104.719 Y100.872 E.01598
G1 X100.872 Y104.719 E.16254
G1 X100.872 Y104.184 E.01598
G1 X104.184 Y100.872 E.13994
G1 X103.649 Y100.872 E.01598
G1 X100.872 Y103.649 E.11733
G1 X100.872 Y103.114 E.01598
G1 X103.114 Y100.872 E.09473
G1 X102.579 Y100.872 E.01598
G1 X100.872 Y102.579 E.07212
G1 X100.872 Y102.044 E.01598
G1 X102.044 Y100.872 E.04952
G1 X101.509 Y100.872 E.01598
G1 X100.702 Y101.679 E.03409
G1 X100.99 Y100.932 F9000
;WIDTH:0.38292
G1 F10800
G1 X100.926 Y100.968 E.00198
G1 X100.991 Y101.003 E.00198
; stop printing object xyzCalibration_cube.stl id:19 copy 0
;TIME_ELAPSED:47.759003

;LAYER_CHANGE
;Z:0.6
;HEIGHT:0.2
;BEFORE_LAYER_CHANGE
;0.6
G92 E0

G1 E-1.2 F2400
;WIPE_START
G1 F9000
G1 X100.926 Y100.968
G1 X100.99 Y100.932
;WIPE_END
;_SET_FAN_SPEED_CHANGING_LAYER
; printing object xyzCalibration_cube.stl id:19 copy 0
G1 X103.65 Y103.667 Z.6
G1 X118.948 Y119.398 Z.6
G1 Z.6
G1 E1.2 F1800
M204 P2000
;TYPE:Inner wall
;WIDTH:0.449999
G1 F5400
G1 X100.602 Y119.398 E.58993
G1 X100.602 Y100.602 E.60441
G1 X119.398 Y100.602 E.60441
G1 X119.398 Y119.398 E.60441
G1 X118.988 Y119.398 E.01318
G1 X119.79 Y119.79 F9000
M204 P1000
;TYPE:Outer wall
;WIDTH:0.419999
G1 F3600
G1 X100.21 Y119.79 E.58322
G1 X100.21 Y100.21 E.58322
G1 X119.79 Y100.21 E.58322
G1 X119.79 Y119.75 E.58203
G1 E-1.2 F2400
;WIPE_START
G1 F9000
G1 X117.79 Y119.754
;WIPE_END
G1 X119.298 Y103.216 Z.8
G1 Z.8
G1 Z.6
G1 E1.2 F1800
M204 P2500
;TYPE:Internal solid infill
;WIDTH:0.421177
G1 F10800
G1 X116.954 Y100.872 E.09903
G1 X116.419 Y100.872 E.01598
G1 X119.128 Y103.581 E.11447
G1 X119.128 Y104.116 E.01598
G1 X115.884 Y100.872 E.13707
G1 X115.349 Y100.872 E.01598
G1 X119.128 Y104.651 E.15968
G1 X119.128 Y105.186 E.01598
G1 X114.814 Y100.872 E.18228
G1 X114.279 Y100.872 E.01598
G1 X119.128 Y105.721 E.20488
G1 X119.128 Y106.256 E.01598
G1 X113.744 Y100.872 E.22749
G1 X113.209 Y100.872 E.01598
G1 X119.128 Y106.791 E.25009
G1 X119.128 Y107.325 E.01598
G1 X112.675 Y100.872 E.2727
G1 X112.14 Y100.872 E.01598
G1 X119.128 Y107.86 E.2953
G1 X119.128 Y108.395 E.01598
G1 X111.605 Y100.872 E.31791
G1 X111.07 Y100.872 E.01598
G1 X119.128 Y108.93 E.34051
G1 X119.128 Y109.465 E.01598
G1 X110.535 Y100.872 E.36311
G1 X110 Y100.872 E.01598
G1 X119.128 Y110 E.38572
G1 X119.128 Y110.535 E.01598
G1 X109.465 Y100.872 E.40832
G1 X108.93 Y100.872 E.01598
G1 X119.128 Y111.07 E.43093
G1 X119.128 Y111.605 E.01598
G1 X108.395 Y100.872 E.45353
G1 X107.86 Y100.872 E.01598
G1 X119.128 Y112.14 E.47614
G1 X119.128 Y112.675 E.01598
G1 X107.325 Y100.872 E.49874
G1 X106.79 Y100.872 E.01598
G1 X119.128 Y113.21 E.52134
G1 X119.128 Y113.745 E.01598
G1 X106.255 Y100.872 E.54395
G1 X105.72 Y100.872 E.01598
G1 X119.128 Y114.28 E.56655
G1 X119.128 Y114.815 E.01598
G1 X105.185 Y100.872 E.58916
G1 X104.65 Y100.872 E.01598
G1 X119.128 Y115.35 E.61176
G1 X119.128 Y115.884 E.01598
G1 X104.116 Y100.872 E.63437
G1 X103.581 Y100.872 E.01598
G1 X119.128 Y116.419 E.65697
G1 X119.128 Y116.954 E.01598
G1 X103.046 Y100.872 E.67958
G1 X102.511 Y100.872 E.01598
G1 X119.128 Y117.489 E.70218
G1 X119.128 Y118.024 E.01598
G1 X101.976 Y100.872 E.72478
G1 X101.441 Y100.872 E.01598
G1 X119.128 Y118.559 E.74739
G1 X119.128 Y119.094 E.01598
G1 X100.906 Y100.872 E.76999
G1 X100.872 Y100.872 E.00101
G1 X100.872 Y101.373 E.01497
G1 X118.627 Y119.128 E.75025
G1 X118.092 Y119.128 E.01598
M73 P5 R17
G1 X100.872 Y101.908 E.72765
G1 X100.872 Y102.443 E.01598
G1 X117.557 Y119.128 E.70504
G1 X117.022 Y119.128 E.01598
G1 X100.872 Y102.978 E.68244
G1 X100.872 Y103.513 E.01598
G1 X116.487 Y119.128 E.65984
G1 X115.952 Y119.128 E.01598
G1 X100.872 Y104.048 E.63723
G1 X100.872 Y104.583 E.01598
G1 X115.417 Y119.128 E.61463
G1 X114.882 Y119.128 E.01598
G1 X100.872 Y105.118 E.59202
G1 X100.872 Y105.653 E.01598
G1 X114.347 Y119.128 E.56942
G1 X113.813 Y119.128 E.01598
G1 X100.872 Y106.187 E.54681
G1 X100.872 Y106.722 E.01598
G1 X113.278 Y119.128 E.52421
G1 X112.743 Y119.128 E.01598
G1 X100.872 Y107.257 E.50161
G1 X100.872 Y107.792 E.01598
G1 X112.208 Y119.128 E.479
G1 X111.673 Y119.128 E.01598
G1 X100.872 Y108.327 E.4564
G1 X100.872 Y108.862 E.01598
G1 X111.138 Y119.128 E.43379
G1 X110.603 Y119.128 E.01598
G1 X100.872 Y109.397 E.41119
G1 X100.872 Y109.932 E.01598
G1 X110.068 Y119.128 E.38858
G1 X109.533 Y119.128 E.01598
G1 X100.872 Y110.467 E.36598
G1 X100.872 Y111.002 E.01598
G1 X108.998 Y119.128 E.34338
G1 X108.463 Y119.128 E.01598
G1 X100.872 Y111.537 E.32077
G1 X100.872 Y112.072 E.01598
G1 X107.928 Y119.128 E.29817
G1 X107.393 Y119.128 E.01598
G1 X100.872 Y112.607 E.27556
G1 X100.872 Y113.142 E.01598
G1 X106.858 Y119.128 E.25296
G1 X106.323 Y119.128 E.01598
G1 X100.872 Y113.677 E.23035
G1 X100.872 Y114.212 E.01598
G1 X105.788 Y119.128 E.20775
G1 X105.254 Y119.128 E.01598
G1 X100.872 Y114.746 E.18515
G1 X100.872 Y115.281 E.01598
G1 X104.719 Y119.128 E.16254
G1 X104.184 Y119.128 E.01598
G1 X100.872 Y115.816 E.13994
G1 X100.872 Y116.351 E.01598
G1 X103.649 Y119.128 E.11733
G1 X103.114 Y119.128 E.01598
G1 X100.872 Y116.886 E.09473
G1 X100.872 Y117.421 E.01598
G1 X102.579 Y119.128 E.07212
G1 X102.044 Y119.128 E.01598
G1 X100.872 Y117.956 E.04952
G1 X100.872 Y118.491 E.01598
G1 X101.679 Y119.298 E.03409
G1 X100.99 Y118.995 F9000
;WIDTH:0.38292
G1 F10800
G1 X100.926 Y119.032 E.00198
G1 X100.991 Y119.066 E.00198
G1 X117.557 Y100.994 F9000
;WIDTH:0.419999
G1 F10800
G1 X119.006 Y102.443 E.06103
G1 X119.006 Y100.994 E.04316
G1 X117.597 Y100.994 E.04197
G1 X118.611 Y101.367 F9000
;WIDTH:0.51457
G1 F10800
G2 X118.62 Y101.453 I-.028 J.047 E.00904
; stop printing object xyzCalibration_cube.stl id:19 copy 0
;TIME_ELAPSED:61.606155

;LAYER_CHANGE
;Z:0.8
;HEIGHT:0.2
;BEFORE_LAYER_CHANGE
;0.8
G92 E0

G1 E-1.2 F2400
;WIPE_START
G1 F9000
G1 X118.611 Y101.47
G1 X118.552 Y101.47
G1 X118.523 Y101.419
G1 X118.552 Y101.367
G1 X118.611 Y101.367
;WIPE_END
;_SET_FAN_SPEED_CHANGING_LAYER
; printing object xyzCalibration_cube.stl id:19 copy 0
G1 X118.682 Y105.183 Z.8
G1 X118.948 Y119.398 Z.8
G1 Z.8
G1 E1.2 F1800
M204 P2000
;TYPE:Inner wall
;WIDTH:0.449999
G1 F5400
G1 X100.602 Y119.398 E.58993
G1 X100.602 Y100.602 E.60441
G1 X119.398 Y100.602 E.60441
