;TIME:2407.28
;Filament used:4.21690m
;Layer height:0.200
; HEADER_BLOCK_START
; generated by Creality_Print V6.2.2.3134 on 2025-09-01 at 00:40:51
; total layer number: 225
; filament_density: 1.24
; filament_diameter: 1.75
; max_z_height: 45.00
; creality_uuid: b6092640-468a-4bfc-b255-e09b4b8834e0
; HEADER_BLOCK_END

; MINX = 93.52
; MINY = 93.50
; MINZ = 0.00
; MAXX = 126.48
; MAXY = 126.50
; MAXZ = 45.00

; THUMBNAIL_BLOCK_START

;
; THUMBNAIL_BLOCK_END

; THUMBNAIL_BLOCK_START

;
; THUMBNAIL_BLOCK_END

; external perimeters extrusion width = 0.42mm
; perimeters extrusion width = 0.45mm
; infill extrusion width = 0.45mm
; solid infill extrusion width = 0.42mm
; top infill extrusion width = 0.42mm
; first layer extrusion width = 0.50mm

; EXECUTABLE_BLOCK_START
M73 P0 R40
M201 X5000 Y5000 Z500 E5000
M203 X500 Y500 Z30 E100
M204 P5000 R2500 T5000 ; sets acceleration (P, T) and retract acceleration (R), mm/sec^2
M205 X10.00 Y10.00 Z0.40 E5.00 ; sets the jerk limits, mm/sec
;TYPE:Custom
M220 S100 ;Reset Feedrate 
M221 S100 ;Reset Flowrate 
 
M140 S50 ;Set final bed temp 
G28 ;Home 
 
G92 E0 ;Reset Extruder 
G1 Z2.0 F3000 ;Move Z Axis up 
M104 S190 ;Set final nozzle temp 
G1 X-2.1 Y20 Z0.28 F5000.0 ;Move to start position 
M190 S50 ;Wait for bed temp to stabilize 
M109 S190 ;Wait for nozzle temp to stabilize 
G1 X-2.1 Y145.0 Z0.28 F1500.0 E15 ;Draw the first line 
G1 X-2.4 Y145.0 Z0.28 F5000.0 ;Move to side a little 
G1 X-2.4 Y20 Z0.28 F1500.0 E30 ;Draw the second line 
G92 E0  ;Reset Extruder 
G1 E-1.0000 F1800 ;Retract a bit 
M73 P0 R39
G1 Z2.0 F3000 ;Move Z Axis up 
G1 E0.0000 F1800
G90
G21
M83 ; use relative distances for extrusion
;filament start gcode
G1 E-1.2 F2400
M106 S0
;LAYER_CHANGE
;Z:0.2
;HEIGHT:0.2
;BEFORE_LAYER_CHANGE
;0.2
G92 E0

;_SET_FAN_SPEED_CHANGING_LAYER
M204 P500
M205 X10 Y10
; printing object Object_1 id:7811887588677804407 copy 0
M204 T500
G1 X107.881 Y94.531 Z.2 F9000
G1 E1.2 F1800
;TYPE:Inner wall
;WIDTH:0.499999
G1 X109.466 Y94.372 E.05753
G1 X111.546 Y94.442 E.07515
G1 X113.6 Y94.788 E.07521
G1 X115.603 Y95.409 E.07571
G1 X117.498 Y96.288 E.07544
G1 X119.256 Y97.41 E.07527
G1 X120.855 Y98.762 E.07562
G1 X122.257 Y100.311 E.07543
G3 X123.476 Y102.107 I-92.829 J64.343 E.0784
G1 X124.381 Y103.899 E.07246
G1 X125.067 Y105.872 E.07544
G1 X125.483 Y107.92 E.07544
G1 X125.623 Y110.005 E.07544
G1 X125.483 Y112.089 E.07544
G1 X125.067 Y114.137 E.07544
G1 X124.381 Y116.111 E.07544
G1 X123.439 Y117.976 E.07544
G1 X122.257 Y119.698 E.07544
G1 X120.855 Y121.248 E.07544
G1 X119.26 Y122.597 E.07544
G1 X117.498 Y123.721 E.07544
G1 X115.603 Y124.6 E.07544
G1 X113.608 Y125.22 E.07544
G1 X111.547 Y125.567 E.07544
G1 X109.459 Y125.637 E.07544
G1 X107.38 Y125.428 E.07544
G1 X105.348 Y124.943 E.07544
G1 X103.398 Y124.192 E.07544
G1 X101.565 Y123.188 E.07544
G1 X99.887 Y121.952 E.07527
G1 X98.381 Y120.496 E.07562
G1 X97.086 Y118.857 E.07543
G1 X96.024 Y117.063 E.07527
G1 X95.206 Y115.135 E.07561
G1 X94.654 Y113.12 E.07544
G1 X94.375 Y111.049 E.07544
G1 X94.375 Y108.96 E.07544
G1 X94.654 Y106.889 E.07544
G1 X95.206 Y104.874 E.07544
G1 X96.022 Y102.95 E.07544
G1 X97.087 Y101.153 E.07544
G1 X98.381 Y99.513 E.07544
G1 X99.883 Y98.06 E.07544
G1 X101.565 Y96.821 E.07544
G1 X103.394 Y95.819 E.07527
G1 X105.348 Y95.066 E.07561
G1 X107.38 Y94.581 E.07543
G1 X107.841 Y94.535 E.01673
G1 X107.338 Y94.126 F9000
;TYPE:Outer wall
G1 F1800
G1 X109.451 Y93.914 E.07668
G1 X111.592 Y93.986 E.07736
G1 X113.706 Y94.343 E.07741
G1 X115.768 Y94.981 E.07792
G1 X117.719 Y95.886 E.07765
G1 X119.527 Y97.041 E.07747
G1 X121.174 Y98.432 E.07783
G1 X122.616 Y100.027 E.07765
G3 X123.884 Y101.901 I-74.296 J51.639 E.08171
G1 X124.803 Y103.72 E.07356
G1 X125.509 Y105.751 E.07765
G1 X125.937 Y107.859 E.07765
G1 X126.081 Y110.005 E.07765
G1 X125.937 Y112.15 E.07765
G1 X125.509 Y114.258 E.07765
G1 X124.803 Y116.29 E.07765
G1 X123.833 Y118.209 E.07765
G1 X122.616 Y119.982 E.07765
G1 X121.174 Y121.577 E.07765
G1 X119.531 Y122.966 E.07765
G1 X117.719 Y124.123 E.07765
G1 X115.768 Y125.028 E.07765
G1 X113.714 Y125.665 E.07765
G1 X111.593 Y126.023 E.07765
G1 X109.444 Y126.095 E.07765
G1 X107.304 Y125.879 E.07765
G1 X105.212 Y125.381 E.07765
G1 X103.205 Y124.608 E.07765
G1 X101.319 Y123.574 E.07765
G1 X99.591 Y122.302 E.07747
G1 X98.042 Y120.804 E.07783
G1 X96.709 Y119.116 E.07764
G1 X95.615 Y117.27 E.07748
G1 X94.773 Y115.285 E.07782
G1 X94.205 Y113.211 E.07765
G1 X93.918 Y111.08 E.07765
G1 X93.918 Y108.929 E.07765
G1 X94.205 Y106.798 E.07765
G1 X94.773 Y104.724 E.07765
G1 X95.613 Y102.744 E.07765
G1 X96.709 Y100.893 E.07765
G1 X98.042 Y99.206 E.07765
G1 X99.588 Y97.71 E.07765
G1 X101.319 Y96.435 E.07765
G1 X103.201 Y95.404 E.07748
G1 X105.212 Y94.628 E.07782
G1 X107.298 Y94.131 E.07743
G1 E-1.2 F2400
;WIPE_START
G1 F9000
G1 X109.288 Y93.931
;WIPE_END
G1 X106.472 Y96.506 Z.4
G1 X102.975 Y99.705 Z.4
G1 Z.2
G1 E1.2 F1800
;TYPE:Inner wall
G1 X102.975 Y97.533 E.07841
G1 X103.145 Y97.081 E.01744
G1 X103.331 Y96.932 E.00861
G1 X103.66 Y96.848 E.01228
G1 X116.303 Y96.848 E.45648
G1 X116.592 Y96.911 E.01067
G1 X116.831 Y97.096 E.01093
G1 X116.989 Y97.533 E.01677
G1 X116.989 Y100.998 E.12508
G1 X120.453 Y100.997 E.12508
G1 X120.748 Y101.064 E.0109
G1 X121.018 Y101.295 E.01285
G1 X121.077 Y101.399 E.00429
G1 X121.139 Y101.683 E.01051
G1 X121.139 Y118.326 E.60091
G1 X121.003 Y118.736 E.01559
G1 X120.748 Y118.945 E.01191
G1 X120.453 Y119.012 E.0109
G1 X116.989 Y119.012 E.12508
G1 X116.989 Y122.476 E.12508
G1 X116.831 Y122.913 E.01677
G1 X116.592 Y123.098 E.01093
G1 X116.303 Y123.162 E.01067
G1 X112.166 Y123.162 E.14938
G1 X112.027 Y123.471 E.01226
G1 X111.688 Y123.927 E.0205
G1 X111.25 Y124.288 E.0205
G1 X110.739 Y124.534 E.02049
G1 X110.206 Y124.65 E.01969
G1 X109.616 Y124.631 E.02133
G1 X109.07 Y124.476 E.02049
G1 X108.577 Y124.194 E.0205
G1 X108.165 Y123.803 E.0205
G1 X107.859 Y123.325 E.0205
G1 X107.797 Y123.162 E.00631
G1 X103.66 Y123.162 E.14938
G1 X103.331 Y123.077 E.01228
G1 X103.146 Y122.929 E.00856
G1 X102.975 Y122.415 E.01956
G1 X102.975 Y119.012 E.12288
G1 X99.51 Y119.012 E.12508
G1 X99.322 Y118.985 E.00686
G1 X99.054 Y118.838 E.01107
G1 X98.907 Y118.652 E.00855
G1 X98.825 Y118.317 E.01245
G1 X98.825 Y101.683 E.60057
G1 X98.907 Y101.358 E.01212
G1 X99.054 Y101.172 E.00855
G1 X99.37 Y100.998 E.01304
G1 X102.975 Y100.998 E.13015
G1 X102.975 Y99.745 E.04523
G1 E-1.2 F2400
;WIPE_START
G1 F9000
G1 X102.975 Y97.745
;WIPE_END
G1 X103.432 Y101.455 Z.4
G1 Z.2
G1 E1.2 F1800
;TYPE:Outer wall
G1 X103.432 Y97.533 E.14159
G1 X103.517 Y97.355 E.00715
G1 X103.66 Y97.305 E.00546
G1 X116.303 Y97.305 E.45648
G1 X116.479 Y97.387 E.00703
G1 X116.532 Y97.533 E.00559
G1 X116.532 Y101.455 E.14159
G1 X120.453 Y101.455 E.14159
G1 X120.623 Y101.53 E.0067
G1 X120.682 Y101.683 E.00593
M73 P1 R39
G1 X120.682 Y118.326 E.60091
G1 X120.594 Y118.506 E.00724
G1 X120.453 Y118.555 E.00536
G1 X116.532 Y118.555 E.14159
G1 X116.532 Y122.476 E.14159
G1 X116.434 Y122.664 E.00764
G1 X116.303 Y122.705 E.00494
G1 X111.836 Y122.705 E.16129
G1 X111.651 Y123.212 E.01949
G1 X111.385 Y123.585 E.01654
G1 X110.963 Y123.923 E.01953
G1 X110.629 Y124.09 E.01347
G1 X110.183 Y124.194 E.01654
G1 X109.708 Y124.183 E.01716
G1 X109.282 Y124.071 E.0159
G1 X108.88 Y123.852 E.01654
G1 X108.541 Y123.544 E.01654
G1 X108.287 Y123.163 E.01654
G1 X108.099 Y122.705 E.01788
G1 X103.66 Y122.705 E.16027
G1 X103.489 Y122.627 E.0068
G1 X103.432 Y122.415 E.00793
G1 X103.432 Y118.555 E.13938
G1 X99.51 Y118.555 E.14159
G1 X99.358 Y118.497 E.00588
G1 X99.282 Y118.317 E.00705
G1 X99.282 Y101.683 E.60057
G1 X99.358 Y101.513 E.00675
G1 X99.51 Y101.455 E.00588
G1 X103.392 Y101.455 E.14014
G1 E-1.2 F2400
;WIPE_START
G1 F9000
G1 X103.412 Y99.455
;WIPE_END
G1 X122.474 Y100.87 Z.4
G1 Z.4
G1 Z.2
G1 E1.2 F1800
;TYPE:Bottom surface
;WIDTH:0.506073
G1 F4800
G1 X120.593 Y98.988 E.09733
G1 X119.052 Y97.687 E.0738
G1 X117.901 Y96.952 E.04994
G1 X123.112 Y102.163 E.2696
G1 X123.798 Y103.504 E.0551
G1 X116.494 Y96.2 E.37788
G1 X115.48 Y95.729 E.04092
G1 X115.319 Y95.679 E.00617
G1 X116.144 Y96.505 E.0427
G3 X116.744 Y96.603 I.062 J1.507 E.02238
G1 X117.104 Y96.88 E.01664
G1 X117.331 Y97.513 E.02461
G1 X117.331 Y97.692 E.00655
G1 X120.294 Y100.655 E.15327
G1 X120.466 Y100.655 E.00629
G1 X120.895 Y100.751 E.01608
G1 X121.215 Y100.99 E.01463
G1 X121.392 Y101.259 E.01175
G1 X121.481 Y101.671 E.01543
G1 X121.481 Y101.842 E.00627
G1 X124.274 Y104.635 E.1445
G1 X124.623 Y105.639 E.03886
G1 X121.481 Y102.497 E.16253
G1 X121.481 Y103.152 E.02396
G1 X124.849 Y106.519 E.17421
G1 X125.016 Y107.342 E.03069
G1 X121.481 Y103.807 E.18286
G1 X121.481 Y104.462 E.02396
G1 X125.154 Y108.135 E.19001
G1 X125.201 Y108.837 E.02574
G1 X121.481 Y105.117 E.19244
G1 X121.481 Y105.772 E.02396
G1 X125.248 Y109.539 E.19487
G3 X125.265 Y110.211 I-2.491 J.401 E.02468
G1 X121.481 Y106.427 E.19577
G1 X121.481 Y107.082 E.02396
G1 X125.224 Y110.825 E.19364
G1 X125.183 Y111.439 E.02251
G1 X121.481 Y107.737 E.19152
G1 X121.481 Y108.392 E.02396
G1 X125.141 Y112.052 E.18934
G1 X125.03 Y112.596 E.02032
G1 X121.481 Y109.047 E.18361
G1 X121.481 Y109.702 E.02396
G1 X124.92 Y113.14 E.17789
G1 X124.809 Y113.685 E.02032
G1 X121.481 Y110.357 E.17216
G1 X121.481 Y111.012 E.02396
G1 X124.679 Y114.21 E.16542
G1 X124.51 Y114.696 E.01883
G1 X121.481 Y111.667 E.15669
G1 X121.481 Y112.322 E.02396
G1 X124.341 Y115.182 E.14796
G1 X124.172 Y115.668 E.01883
G1 X121.481 Y112.977 E.13922
G1 X121.481 Y113.632 E.02396
G1 X123.985 Y116.136 E.12952
G1 X123.765 Y116.571 E.01784
G1 X121.481 Y114.287 E.11814
G1 X121.481 Y114.942 E.02396
G1 X123.545 Y117.006 E.10677
G1 X123.325 Y117.441 E.01784
G1 X121.481 Y115.597 E.09539
G1 X121.481 Y116.252 E.02396
G1 X123.097 Y117.868 E.08359
G1 X122.831 Y118.256 E.01724
G1 X121.481 Y116.907 E.0698
G1 X121.481 Y117.562 E.02396
G1 X122.564 Y118.645 E.05601
G1 X122.297 Y119.033 E.01724
G1 X121.481 Y118.217 E.04221
G1 X121.481 Y118.343 E.00461
G1 X121.356 Y118.747 E.01546
G1 X122.031 Y119.422 E.0349
G3 X121.727 Y119.773 I-1.457 J-.954 E.01704
G1 X121.089 Y119.135 E.03302
G3 X120.619 Y119.32 I-.607 J-.85 E.01866
G1 X121.416 Y120.117 E.04123
G1 X121.105 Y120.461 E.01697
G1 X119.999 Y119.354 E.05723
G1 X119.344 Y119.354 E.02396
G1 X120.794 Y120.805 E.07503
G3 X120.464 Y121.13 I-1.374 J-1.064 E.017
G1 X118.689 Y119.354 E.09185
G1 X118.034 Y119.354 E.02396
G1 X120.109 Y121.43 E.10737
G1 X119.754 Y121.73 E.017
G1 X117.379 Y119.354 E.1229
G1 X117.331 Y119.354 E.00173
G1 X117.331 Y119.962 E.02224
G1 X119.399 Y122.03 E.10698
G1 X119.043 Y122.328 E.01701
G1 X117.331 Y120.617 E.08854
G1 X117.331 Y121.272 E.02396
G1 X118.643 Y122.584 E.06785
G1 X118.243 Y122.839 E.01735
G1 X117.331 Y121.927 E.04717
G1 X117.331 Y122.496 E.02081
G1 X117.309 Y122.559 E.00247
G1 X117.843 Y123.094 E.02766
G1 X117.444 Y123.349 E.01735
G1 X117.135 Y123.041 E.01595
G1 X117.105 Y123.124 E.00322
G3 X116.808 Y123.368 I-.689 J-.536 E.01421
G1 X117.009 Y123.57 E.01044
G1 X116.562 Y123.778 E.01804
G1 X116.289 Y123.504 E.01413
G1 X115.634 Y123.504 E.02396
G1 X116.115 Y123.985 E.02487
G1 X115.667 Y124.193 E.01804
G1 X114.979 Y123.504 E.03562
G1 X114.324 Y123.504 E.02396
G1 X115.189 Y124.37 E.04478
G1 X114.689 Y124.525 E.01915
G1 X113.669 Y123.504 E.0528
G1 X113.014 Y123.504 E.02396
G1 X114.189 Y124.68 E.06083
G1 X113.689 Y124.835 E.01915
G1 X112.382 Y123.527 E.06767
G3 X112.128 Y123.929 I-1.668 J-.773 E.01742
G1 X113.149 Y124.949 E.05281
G1 X112.588 Y125.044 E.02079
G1 X111.816 Y124.272 E.03994
G3 X111.453 Y124.563 I-1.382 J-1.35 E.01709
G1 X112.028 Y125.138 E.02975
G1 X111.461 Y125.227 E.02098
G1 X111.025 Y124.791 E.02257
G3 X110.521 Y124.941 I-.873 J-2.004 E.01931
G1 X110.827 Y125.248 E.01588
G1 X110.194 Y125.269 E.0232
G1 X109.918 Y124.993 E.01427
G3 X109.135 Y124.865 I.001 J-2.459 E.02913
G1 X109.56 Y125.291 E.02197
G1 X108.845 Y125.231 E.02625
G1 X107.119 Y123.504 E.08931
G1 X106.464 Y123.504 E.02397
G1 X108.117 Y125.157 E.08552
G1 X107.38 Y125.075 E.02713
G1 X105.809 Y123.504 E.08128
G1 X105.154 Y123.504 E.02397
G1 X106.52 Y124.87 E.07068
G1 X105.66 Y124.665 E.03234
G1 X104.293 Y123.299 E.07072
G1 E-1.2 F2400
;WIPE_START
G1 F9000
G1 X105.66 Y124.665
G1 X105.725 Y124.681
;WIPE_END
G1 X103.759 Y121.41 Z.4
G1 X102.837 Y119.878 Z.4
G1 Z.2
G1 E1.2 F1800
G1 F4800
G1 X102.314 Y119.354 E.02709
G1 X101.659 Y119.354 E.02396
G1 X102.632 Y120.327 E.05034
G1 X102.632 Y120.982 E.02396
G1 X101.004 Y119.354 E.08423
G1 X100.349 Y119.354 E.02396
G1 X102.837 Y121.843 E.12876
G1 E-1.2 F2400
;WIPE_START
G1 F9000
G1 X101.423 Y120.429
;WIPE_END
G1 X104.039 Y117.65 Z.4
G1 X119.845 Y100.86 Z.4
G1 Z.2
G1 E1.2 F1800
G1 F4800
G1 X117.331 Y98.347 E.13003
G1 X117.331 Y99.002 E.02396
G1 X118.984 Y100.655 E.08549
G1 X118.329 Y100.655 E.02396
G1 X117.331 Y99.657 E.0516
G1 X117.331 Y100.312 E.02396
G1 X117.88 Y100.86 E.02836
G1 E-1.2 F2400
;WIPE_START
G1 F9000
G1 X117.331 Y100.312
G1 X117.331 Y99.657
G1 X117.734 Y100.06
;WIPE_END
G1 X115.75 Y96.801 Z.4
G1 X115.695 Y96.71 Z.4
G1 Z.2
G1 E1.2 F1800
G1 F4800
G1 X114.37 Y95.385 E.06855
G1 X113.438 Y95.108 E.03557
G1 X114.834 Y96.505 E.07224
G1 X114.179 Y96.505 E.02396
G1 X112.65 Y94.976 E.07911
G1 X111.862 Y94.843 E.02923
G1 X113.524 Y96.505 E.08598
G1 X112.869 Y96.505 E.02396
G1 X111.135 Y94.771 E.08969
G1 X110.458 Y94.749 E.02481
G1 X112.214 Y96.505 E.09086
G1 X111.559 Y96.505 E.02396
G1 X109.78 Y94.726 E.09204
G2 X109.155 Y94.755 I-.199 J2.42 E.02297
G1 X110.904 Y96.505 E.09051
G1 X110.249 Y96.505 E.02396
G1 X108.557 Y94.813 E.08754
G1 X107.959 Y94.87 E.02196
G1 X109.594 Y96.505 E.08457
G1 X108.939 Y96.505 E.02396
G1 X107.37 Y94.936 E.08116
G1 X106.841 Y95.062 E.01989
G1 X108.284 Y96.505 E.07463
G1 X107.629 Y96.505 E.02396
G1 X106.312 Y95.188 E.06811
G1 X105.784 Y95.314 E.01989
G1 X106.974 Y96.505 E.06159
G1 X106.319 Y96.505 E.02396
G1 X105.275 Y95.461 E.054
G1 X104.803 Y95.643 E.01854
G1 X105.664 Y96.505 E.04457
G1 X105.009 Y96.505 E.02396
G1 X104.33 Y95.826 E.03514
G1 X103.857 Y96.008 E.01854
G1 X104.354 Y96.505 E.02571
G1 X103.699 Y96.505 E.02396
G1 X103.4 Y96.206 E.01544
G1 X102.977 Y96.438 E.01765
G1 X103.169 Y96.63 E.0099
G2 X102.875 Y96.866 I.782 J1.273 E.01383
G1 X102.841 Y96.957 E.00355
G1 X102.554 Y96.67 E.01483
G1 X102.131 Y96.902 E.01765
G1 X102.662 Y97.433 E.02746
G1 X102.632 Y97.512 E.00312
G1 X102.632 Y98.057 E.01994
G1 X101.713 Y97.138 E.04756
G1 X101.335 Y97.416 E.01714
G1 X102.632 Y98.712 E.06707
G1 X102.632 Y99.367 E.02396
G1 X100.958 Y97.694 E.08658
G1 X100.581 Y97.972 E.01714
G1 X102.632 Y100.022 E.1061
G1 X102.632 Y100.655 E.02313
G1 X102.609 Y100.655 E.00083
G1 X100.204 Y98.25 E.12443
G2 X99.859 Y98.56 I.981 J1.436 E.01702
G1 X101.954 Y100.655 E.10837
G1 X101.299 Y100.655 E.02396
G1 X99.527 Y98.882 E.09171
G1 X99.194 Y99.204 E.01695
G1 X100.644 Y100.655 E.07504
G1 X99.989 Y100.655 E.02396
G1 X98.861 Y99.526 E.05838
G2 X98.542 Y99.863 I1.092 J1.353 E.017
G1 X99.355 Y100.675 E.04205
G1 X99.223 Y100.694 E.00487
G1 X98.897 Y100.873 E.0136
G1 X98.253 Y100.229 E.03334
G1 X97.964 Y100.595 E.01706
G1 X98.594 Y101.225 E.0326
G1 X98.482 Y101.669 E.01676
G1 X98.482 Y101.767 E.0036
G1 X97.675 Y100.961 E.04174
G1 X97.386 Y101.327 E.01706
G1 X98.482 Y102.422 E.0567
G1 X98.482 Y103.077 E.02396
G1 X97.14 Y101.735 E.06944
G1 X96.896 Y102.147 E.01749
G1 X98.482 Y103.732 E.08204
G1 X98.482 Y104.387 E.02396
G1 X96.652 Y102.558 E.09465
G1 X96.409 Y102.969 E.01749
G1 X98.482 Y105.042 E.10725
G1 X98.482 Y105.697 E.02396
G1 X96.198 Y103.413 E.11818
G1 X96.003 Y103.873 E.01828
G1 X98.482 Y106.352 E.12827
G1 X98.482 Y107.007 E.02396
G1 X95.808 Y104.333 E.13836
G1 X95.613 Y104.793 E.01828
G1 X98.482 Y107.662 E.14845
G1 X98.482 Y108.317 E.02396
G1 X95.449 Y105.285 E.15691
G1 X95.308 Y105.799 E.0195
G1 X98.482 Y108.972 E.1642
G1 X98.482 Y109.627 E.02396
G1 X95.167 Y106.313 E.17149
G1 X95.026 Y106.827 E.0195
G1 X98.482 Y110.282 E.17878
G1 X98.482 Y110.937 E.02396
G1 X94.933 Y107.388 E.18362
G1 X94.855 Y107.966 E.02131
G1 X98.482 Y111.592 E.18764
G1 X98.482 Y112.247 E.02396
G1 X94.777 Y108.543 E.19166
G2 X94.718 Y109.139 I2.186 J.518 E.02197
G1 X98.482 Y112.902 E.19472
