;TIME:5948.32
;Filament used:10.18740m
;Layer height:0.240
; HEADER_BLOCK_START
; generated by Creality_Print V6.2.2.3134 on 2025-09-01 at 14:13:23
; total layer number: 100
; filament_density: 1.24
; filament_diameter: 1.75
; max_z_height: 20.04
; creality_uuid: 9de25001-7525-4380-8d83-2a35247944e9
; HEADER_BLOCK_END

; MINX = 24.12
; MINY = 17.03
; MINZ = 0.00
; MAXX = 195.96
; MAXY = 196.98
; MAXZ = 20.00

; THUMBNAIL_BLOCK_START

;
; THUMBNAIL_BLOCK_END

; THUMBNAIL_BLOCK_START

;
; THUMBNAIL_BLOCK_END

; external perimeters extrusion width = 0.42mm
; perimeters extrusion width = 0.45mm
; infill extrusion width = 0.45mm
; solid infill extrusion width = 0.42mm
; top infill extrusion width = 0.42mm
; first layer extrusion width = 0.50mm

; external perimeters extrusion width = 0.42mm
; perimeters extrusion width = 0.45mm
; infill extrusion width = 0.45mm
; solid infill extrusion width = 0.42mm
; top infill extrusion width = 0.42mm
; first layer extrusion width = 0.50mm

; external perimeters extrusion width = 0.42mm
; perimeters extrusion width = 0.45mm
; infill extrusion width = 0.45mm
; solid infill extrusion width = 0.42mm
; top infill extrusion width = 0.42mm
; first layer extrusion width = 0.50mm

; external perimeters extrusion width = 0.42mm
; perimeters extrusion width = 0.45mm
; infill extrusion width = 0.45mm
; solid infill extrusion width = 0.42mm
; top infill extrusion width = 0.42mm
; first layer extrusion width = 0.50mm

; external perimeters extrusion width = 0.42mm
; perimeters extrusion width = 0.45mm
; infill extrusion width = 0.45mm
; solid infill extrusion width = 0.42mm
; top infill extrusion width = 0.42mm
; first layer extrusion width = 0.50mm

; EXECUTABLE_BLOCK_START
M73 P0 R99
M201 X5000 Y5000 Z500 E5000
M203 X500 Y500 Z30 E100
M204 P5000 R2500 T5000 ; sets acceleration (P, T) and retract acceleration (R), mm/sec^2
M205 X10.00 Y10.00 Z0.40 E5.00 ; sets the jerk limits, mm/sec
;TYPE:Custom
M220 S100 ;Reset Feedrate 
M221 S100 ;Reset Flowrate 
 
M140 S50 ;Set final bed temp 
G28 ;Home 
 
G92 E0 ;Reset Extruder 
G1 Z2.0 F3000 ;Move Z Axis up 
M104 S190 ;Set final nozzle temp 
G1 X-2.1 Y20 Z0.28 F5000.0 ;Move to start position 
M190 S50 ;Wait for bed temp to stabilize 
M109 S190 ;Wait for nozzle temp to stabilize 
G1 X-2.1 Y145.0 Z0.28 F1500.0 E15 ;Draw the first line 
G1 X-2.4 Y145.0 Z0.28 F5000.0 ;Move to side a little 
G1 X-2.4 Y20 Z0.28 F1500.0 E30 ;Draw the second line 
G92 E0  ;Reset Extruder 
G1 E-1.0000 F1800 ;Retract a bit 
M73 P0 R98
G1 Z2.0 F3000 ;Move Z Axis up 
G1 E0.0000 F1800
G90
G21
M83 ; use relative distances for extrusion
;filament start gcode
G1 E-1.2 F2400
M106 S0
;LAYER_CHANGE
;Z:0.24
;HEIGHT:0.24
;BEFORE_LAYER_CHANGE
;0.24
G92 E0

;_SET_FAN_SPEED_CHANGING_LAYER
M204 P500
M205 X10 Y10
; printing object xyzCalibration_cube.stl id:501166592 copy 0
M204 T500
G1 X42.768 Y36.182 Z.24 F9000
G1 E1.2 F1800
;TYPE:Inner wall
;WIDTH:0.499999
G1 X24.965 Y36.182 E.75687
G1 X24.965 Y17.879 E.77812
G1 X43.268 Y17.879 E.77812
G1 X43.268 Y36.182 E.77812
G1 X42.808 Y36.182 E.01956
G1 E-1.2 F2400
;WIPE_START
G1 F9000
G1 X40.808 Y36.182
;WIPE_END
G1 X43.716 Y36.631 Z.44
G1 Z.24
G1 E1.2 F1800
;TYPE:Outer wall
G1 X24.516 Y36.631 E.81626
G1 X24.516 Y17.431 E.81626
G1 X43.716 Y17.431 E.81626
G1 X43.716 Y36.591 E.81456
G1 E-1.2 F2400
;WIPE_START
G1 F9000
G1 X41.716 Y36.595
;WIPE_END
G1 X43.133 Y18.921 Z.44
G1 Z.44
G1 Z.24
G1 E1.2 F1800
;TYPE:Bottom surface
;WIDTH:0.500051
G1 F4800
G1 X42.428 Y18.216 E.04239
G1 X41.794 Y18.216 E.02697
G1 X42.931 Y19.353 E.06839
G1 X42.931 Y19.987 E.02697
G1 X41.16 Y18.216 E.10654
G1 X40.525 Y18.216 E.02697
G1 X42.931 Y20.622 E.14468
G1 X42.931 Y21.256 E.02697
G1 X39.891 Y18.216 E.18282
G1 X39.257 Y18.216 E.02697
G1 X42.931 Y21.891 E.22097
G1 X42.931 Y22.525 E.02697
G1 X38.622 Y18.216 E.25911
G1 X37.988 Y18.216 E.02697
G1 X42.931 Y23.159 E.29725
G1 X42.931 Y23.794 E.02697
G1 X37.354 Y18.216 E.33539
G1 X36.719 Y18.216 E.02697
G1 X42.931 Y24.428 E.37354
G1 X42.931 Y25.062 E.02697
G1 X36.085 Y18.216 E.41168
G1 X35.451 Y18.216 E.02697
G1 X42.931 Y25.697 E.44982
G1 X42.931 Y26.331 E.02697
G1 X34.816 Y18.216 E.48797
G1 X34.182 Y18.216 E.02697
G1 X42.931 Y26.965 E.52611
G1 X42.931 Y27.6 E.02697
G1 X33.548 Y18.216 E.56425
G1 X32.913 Y18.216 E.02697
G1 X42.931 Y28.234 E.6024
G1 X42.931 Y28.868 E.02697
G1 X32.279 Y18.216 E.64054
G1 X31.645 Y18.216 E.02697
G1 X42.931 Y29.503 E.67868
G1 X42.931 Y30.137 E.02697
G1 X31.01 Y18.216 E.71682
G1 X30.376 Y18.216 E.02697
G1 X42.931 Y30.771 E.75497
G1 X42.931 Y31.406 E.02697
G1 X29.742 Y18.216 E.79311
G1 X29.107 Y18.216 E.02697
G1 X42.931 Y32.04 E.83125
G1 X42.931 Y32.674 E.02697
G1 X28.473 Y18.216 E.8694
G1 X27.838 Y18.216 E.02697
G1 X42.931 Y33.309 E.90754
G1 X42.931 Y33.943 E.02697
G1 X27.204 Y18.216 E.94568
G1 X26.57 Y18.216 E.02697
G1 X42.931 Y34.577 E.98383
G1 X42.931 Y35.212 E.02697
G1 X25.935 Y18.216 E1.02197
G1 X25.301 Y18.216 E.02697
G1 X42.931 Y35.846 E1.06011
G1 X42.297 Y35.846 E.02697
G1 X25.301 Y18.85 E1.02197
G1 X25.301 Y19.484 E.02697
G1 X41.663 Y35.846 E.98382
G1 X41.028 Y35.846 E.02697
G1 X25.301 Y20.119 E.94568
G1 X25.301 Y20.753 E.02697
G1 X40.394 Y35.846 E.90754
G1 X39.76 Y35.846 E.02697
G1 X25.301 Y21.387 E.86939
G1 X25.301 Y22.022 E.02697
G1 X39.125 Y35.846 E.83125
G1 X38.491 Y35.846 E.02697
G1 X25.301 Y22.656 E.79311
G1 X25.301 Y23.29 E.02697
G1 X37.857 Y35.846 E.75496
G1 X37.222 Y35.846 E.02697
G1 X25.301 Y23.925 E.71682
G1 X25.301 Y24.559 E.02697
G1 X36.588 Y35.846 E.67868
G1 X35.954 Y35.846 E.02697
G1 X25.301 Y25.193 E.64054
G1 X25.301 Y25.828 E.02697
G1 X35.319 Y35.846 E.60239
G1 X34.685 Y35.846 E.02697
G1 X25.301 Y26.462 E.56425
G1 X25.301 Y27.097 E.02697
G1 X34.051 Y35.846 E.52611
G1 X33.416 Y35.846 E.02697
G1 X25.301 Y27.731 E.48796
G1 X25.301 Y28.365 E.02697
G1 X32.782 Y35.846 E.44982
G1 X32.148 Y35.846 E.02697
G1 X25.301 Y29 E.41168
G1 X25.301 Y29.634 E.02697
G1 X31.513 Y35.846 E.37353
G1 X30.879 Y35.846 E.02697
G1 X25.301 Y30.268 E.33539
G1 X25.301 Y30.903 E.02697
G1 X30.245 Y35.846 E.29725
G1 X29.61 Y35.846 E.02697
G1 X25.301 Y31.537 E.25911
G1 X25.301 Y32.171 E.02697
G1 X28.976 Y35.846 E.22096
G1 X28.342 Y35.846 E.02697
G1 X25.301 Y32.806 E.18282
G1 X25.301 Y33.44 E.02697
G1 X27.707 Y35.846 E.14468
G1 X27.073 Y35.846 E.02697
G1 X25.301 Y34.074 E.10653
G1 X25.301 Y34.709 E.02697
G1 X26.439 Y35.846 E.06839
G1 X25.804 Y35.846 E.02697
G1 X25.099 Y35.141 E.04238
; stop printing object xyzCalibration_cube.stl id:501166592 copy 0
; printing object xyzCalibration_cube.stl id:0 copy 0
G1 E-1.2 F2400
;WIPE_START
G1 F9000
G1 X25.804 Y35.846
G1 X26.439 Y35.846
G1 X26.178 Y35.585
;WIPE_END
G1 X29.993 Y35.684 Z.44
G1 X190.52 Y39.842 Z.44
G1 Z.24
G1 E1.2 F1800
;TYPE:Inner wall
;WIDTH:0.499999
G1 X172.717 Y39.842 E.75687
G1 X172.717 Y21.539 E.77812
G1 X191.02 Y21.539 E.77812
G1 X191.02 Y39.842 E.77812
G1 X190.56 Y39.842 E.01956
G1 E-1.2 F2400
;WIPE_START
G1 F9000
G1 X188.56 Y39.842
;WIPE_END
G1 X191.468 Y40.29 Z.44
G1 Z.24
G1 E1.2 F1800
;TYPE:Outer wall
G1 X172.268 Y40.29 E.81626
G1 X172.268 Y21.09 E.81626
G1 X191.468 Y21.09 E.81626
G1 X191.468 Y40.25 E.81456
G1 E-1.2 F2400
;WIPE_START
G1 F9000
G1 X189.468 Y40.255
;WIPE_END
G1 X189.773 Y36.451 Z.44
G1 X190.885 Y22.58 Z.44
G1 Z.24
G1 E1.2 F1800
;TYPE:Bottom surface
;WIDTH:0.500051
G1 F4800
G1 X190.18 Y21.875 E.04239
G1 X189.546 Y21.875 E.02697
G1 X190.683 Y23.013 E.06839
G1 X190.683 Y23.647 E.02697
G1 X188.911 Y21.875 E.10654
G1 X188.277 Y21.875 E.02697
G1 X190.683 Y24.281 E.14468
G1 X190.683 Y24.916 E.02697
G1 X187.643 Y21.875 E.18282
G1 X187.008 Y21.875 E.02697
G1 X190.683 Y25.55 E.22097
G1 X190.683 Y26.184 E.02697
G1 X186.374 Y21.875 E.25911
G1 X185.74 Y21.875 E.02697
G1 X190.683 Y26.819 E.29725
G1 X190.683 Y27.453 E.02697
G1 X185.105 Y21.875 E.33539
G1 X184.471 Y21.875 E.02697
G1 X190.683 Y28.087 E.37354
G1 X190.683 Y28.722 E.02697
G1 X183.837 Y21.875 E.41168
G1 X183.202 Y21.875 E.02697
G1 X190.683 Y29.356 E.44982
G1 X190.683 Y29.991 E.02697
G1 X182.568 Y21.875 E.48797
G1 X181.934 Y21.875 E.02697
G1 X190.683 Y30.625 E.52611
G1 X190.683 Y31.259 E.02697
G1 X181.299 Y21.875 E.56425
G1 X180.665 Y21.875 E.02697
G1 X190.683 Y31.894 E.6024
G1 X190.683 Y32.528 E.02697
G1 X180.031 Y21.875 E.64054
G1 X179.396 Y21.875 E.02697
G1 X190.683 Y33.162 E.67868
G1 X190.683 Y33.797 E.02697
G1 X178.762 Y21.875 E.71682
G1 X178.128 Y21.875 E.02697
G1 X190.683 Y34.431 E.75497
G1 X190.683 Y35.065 E.02697
G1 X177.493 Y21.875 E.79311
G1 X176.859 Y21.875 E.02697
G1 X190.683 Y35.7 E.83125
G1 X190.683 Y36.334 E.02697
G1 X176.225 Y21.875 E.8694
G1 X175.59 Y21.875 E.02697
G1 X190.683 Y36.968 E.90754
G1 X190.683 Y37.603 E.02697
G1 X174.956 Y21.875 E.94568
G1 X174.322 Y21.875 E.02697
G1 X190.683 Y38.237 E.98383
G1 X190.683 Y38.871 E.02697
G1 X173.687 Y21.875 E1.02197
G1 X173.053 Y21.875 E.02697
G1 X190.683 Y39.506 E1.06011
G1 X190.049 Y39.506 E.02697
G1 X173.053 Y22.51 E1.02197
G1 X173.053 Y23.144 E.02697
G1 X189.415 Y39.506 E.98382
G1 X188.78 Y39.506 E.02697
G1 X173.053 Y23.778 E.94568
G1 X173.053 Y24.413 E.02697
G1 X188.146 Y39.506 E.90754
G1 X187.512 Y39.506 E.02697
G1 X173.053 Y25.047 E.86939
G1 X173.053 Y25.681 E.02697
G1 X186.877 Y39.506 E.83125
G1 X186.243 Y39.506 E.02697
G1 X173.053 Y26.316 E.79311
G1 X173.053 Y26.95 E.02697
G1 X185.608 Y39.506 E.75496
G1 X184.974 Y39.506 E.02697
G1 X173.053 Y27.584 E.71682
G1 X173.053 Y28.219 E.02697
G1 X184.34 Y39.506 E.67868
G1 X183.705 Y39.506 E.02697
G1 X173.053 Y28.853 E.64054
G1 X173.053 Y29.487 E.02697
G1 X183.071 Y39.506 E.60239
G1 X182.437 Y39.506 E.02697
G1 X173.053 Y30.122 E.56425
G1 X173.053 Y30.756 E.02697
G1 X181.802 Y39.506 E.52611
G1 X181.168 Y39.506 E.02697
G1 X173.053 Y31.39 E.48796
G1 X173.053 Y32.025 E.02697
G1 X180.534 Y39.506 E.44982
G1 X179.899 Y39.506 E.02697
G1 X173.053 Y32.659 E.41168
G1 X173.053 Y33.294 E.02697
G1 X179.265 Y39.506 E.37353
G1 X178.631 Y39.506 E.02697
G1 X173.053 Y33.928 E.33539
G1 X173.053 Y34.562 E.02697
G1 X177.996 Y39.506 E.29725
G1 X177.362 Y39.506 E.02697
G1 X173.053 Y35.197 E.25911
G1 X173.053 Y35.831 E.02697
G1 X176.728 Y39.506 E.22096
G1 X176.093 Y39.506 E.02697
G1 X173.053 Y36.465 E.18282
G1 X173.053 Y37.1 E.02697
G1 X175.459 Y39.506 E.14468
G1 X174.825 Y39.506 E.02697
G1 X173.053 Y37.734 E.10653
G1 X173.053 Y38.368 E.02697
G1 X174.19 Y39.506 E.06839
G1 X173.556 Y39.506 E.02697
G1 X172.851 Y38.801 E.04238
; stop printing object xyzCalibration_cube.stl id:0 copy 0
; printing object xyzCalibration_cube.stl id:19 copy 0
G1 E-1.2 F2400
;WIPE_START
G1 F9000
G1 X173.556 Y39.506
G1 X174.19 Y39.506
G1 X173.93 Y39.245
;WIPE_END
G1 X171.584 Y42.255 Z.44
G1 X116.41 Y113.072 Z.44
G1 Z.24
M73 P1 R98
G1 E1.2 F1800
;TYPE:Inner wall
;WIDTH:0.499999
G1 X98.607 Y113.072 E.75687
G1 X98.607 Y94.769 E.77812
G1 X116.91 Y94.769 E.77812
G1 X116.91 Y113.072 E.77812
G1 X116.45 Y113.072 E.01956
G1 E-1.2 F2400
;WIPE_START
G1 F9000
G1 X114.45 Y113.072
;WIPE_END
G1 X117.358 Y113.52 Z.44
G1 Z.24
G1 E1.2 F1800
;TYPE:Outer wall
G1 X98.158 Y113.52 E.81626
G1 X98.158 Y94.32 E.81626
G1 X117.358 Y94.32 E.81626
G1 X117.358 Y113.48 E.81456
G1 E-1.2 F2400
;WIPE_START
G1 F9000
G1 X115.358 Y113.485
;WIPE_END
G1 X115.663 Y109.681 Z.44
G1 X116.775 Y95.81 Z.44
G1 Z.24
G1 E1.2 F1800
;TYPE:Bottom surface
;WIDTH:0.500051
G1 F4800
G1 X116.07 Y95.105 E.04239
G1 X115.436 Y95.105 E.02697
G1 X116.573 Y96.243 E.06839
G1 X116.573 Y96.877 E.02697
G1 X114.802 Y95.105 E.10654
G1 X114.167 Y95.105 E.02697
G1 X116.573 Y97.511 E.14468
G1 X116.573 Y98.146 E.02697
G1 X113.533 Y95.105 E.18282
G1 X112.899 Y95.105 E.02697
G1 X116.573 Y98.78 E.22097
G1 X116.573 Y99.414 E.02697
G1 X112.264 Y95.105 E.25911
G1 X111.63 Y95.105 E.02697
G1 X116.573 Y100.049 E.29725
G1 X116.573 Y100.683 E.02697
G1 X110.996 Y95.105 E.33539
G1 X110.361 Y95.105 E.02697
G1 X116.573 Y101.317 E.37354
G1 X116.573 Y101.952 E.02697
G1 X109.727 Y95.105 E.41168
G1 X109.093 Y95.105 E.02697
G1 X116.573 Y102.586 E.44982
G1 X116.573 Y103.22 E.02697
G1 X108.458 Y95.105 E.48797
G1 X107.824 Y95.105 E.02697
G1 X116.573 Y103.855 E.52611
M73 P1 R97
G1 X116.573 Y104.489 E.02697
G1 X107.19 Y95.105 E.56425
G1 X106.555 Y95.105 E.02697
G1 X116.573 Y105.124 E.6024
G1 X116.573 Y105.758 E.02697
G1 X105.921 Y95.105 E.64054
G1 X105.287 Y95.105 E.02697
G1 X116.573 Y106.392 E.67868
G1 X116.573 Y107.027 E.02697
G1 X104.652 Y95.105 E.71682
G1 X104.018 Y95.105 E.02697
G1 X116.573 Y107.661 E.75497
G1 X116.573 Y108.295 E.02697
G1 X103.384 Y95.105 E.79311
G1 X102.749 Y95.105 E.02697
G1 X116.573 Y108.93 E.83125
G1 X116.573 Y109.564 E.02697
G1 X102.115 Y95.105 E.8694
G1 X101.481 Y95.105 E.02697
G1 X116.573 Y110.198 E.90754
G1 X116.573 Y110.833 E.02697
G1 X100.846 Y95.105 E.94568
G1 X100.212 Y95.105 E.02697
G1 X116.573 Y111.467 E.98383
G1 X116.573 Y112.101 E.02697
G1 X99.577 Y95.105 E1.02197
G1 X98.943 Y95.105 E.02697
G1 X116.573 Y112.736 E1.06011
G1 X115.939 Y112.736 E.02697
G1 X98.943 Y95.74 E1.02197
G1 X98.943 Y96.374 E.02697
G1 X115.305 Y112.736 E.98382
G1 X114.67 Y112.736 E.02697
G1 X98.943 Y97.008 E.94568
G1 X98.943 Y97.643 E.02697
G1 X114.036 Y112.736 E.90754
G1 X113.402 Y112.736 E.02697
G1 X98.943 Y98.277 E.86939
G1 X98.943 Y98.911 E.02697
G1 X112.767 Y112.736 E.83125
G1 X112.133 Y112.736 E.02697
G1 X98.943 Y99.546 E.79311
G1 X98.943 Y100.18 E.02697
G1 X111.499 Y112.736 E.75496
G1 X110.864 Y112.736 E.02697
G1 X98.943 Y100.814 E.71682
G1 X98.943 Y101.449 E.02697
G1 X110.23 Y112.736 E.67868
G1 X109.596 Y112.736 E.02697
G1 X98.943 Y102.083 E.64054
G1 X98.943 Y102.717 E.02697
G1 X108.961 Y112.736 E.60239
G1 X108.327 Y112.736 E.02697
G1 X98.943 Y103.352 E.56425
G1 X98.943 Y103.986 E.02697
G1 X107.693 Y112.736 E.52611
G1 X107.058 Y112.736 E.02697
G1 X98.943 Y104.62 E.48796
G1 X98.943 Y105.255 E.02697
G1 X106.424 Y112.736 E.44982
G1 X105.79 Y112.736 E.02697
G1 X98.943 Y105.889 E.41168
G1 X98.943 Y106.523 E.02697
G1 X105.155 Y112.736 E.37353
G1 X104.521 Y112.736 E.02697
G1 X98.943 Y107.158 E.33539
G1 X98.943 Y107.792 E.02697
G1 X103.887 Y112.736 E.29725
G1 X103.252 Y112.736 E.02697
G1 X98.943 Y108.426 E.25911
G1 X98.943 Y109.061 E.02697
G1 X102.618 Y112.736 E.22096
G1 X101.984 Y112.736 E.02697
G1 X98.943 Y109.695 E.18282
G1 X98.943 Y110.33 E.02697
G1 X101.349 Y112.736 E.14468
G1 X100.715 Y112.736 E.02697
G1 X98.943 Y110.964 E.10653
G1 X98.943 Y111.598 E.02697
G1 X100.081 Y112.736 E.06839
G1 X99.446 Y112.736 E.02697
G1 X98.741 Y112.031 E.04238
; stop printing object xyzCalibration_cube.stl id:19 copy 0
; printing object xyzCalibration_cube.stl id:3168 copy 0
G1 E-1.2 F2400
;WIPE_START
G1 F9000
G1 X99.446 Y112.736
G1 X100.081 Y112.736
G1 X99.82 Y112.475
;WIPE_END
G1 X97.95 Y115.802 Z.44
G1 X58.263 Y186.431 Z.44
G1 Z.24
G1 E1.2 F1800
;TYPE:Inner wall
;WIDTH:0.499999
G1 X40.46 Y186.431 E.75687
G1 X40.46 Y168.128 E.77812
G1 X58.763 Y168.128 E.77812
G1 X58.763 Y186.431 E.77812
G1 X58.303 Y186.431 E.01956
G1 E-1.2 F2400
;WIPE_START
G1 F9000
G1 X56.303 Y186.431
;WIPE_END
G1 X59.212 Y186.879 Z.44
G1 Z.24
G1 E1.2 F1800
;TYPE:Outer wall
G1 X40.012 Y186.879 E.81626
G1 X40.012 Y167.679 E.81626
G1 X59.212 Y167.679 E.81626
G1 X59.212 Y186.839 E.81456
G1 E-1.2 F2400
;WIPE_START
G1 F9000
G1 X57.212 Y186.843
;WIPE_END
G1 X57.517 Y183.039 Z.44
G1 X58.629 Y169.169 Z.44
G1 Z.24
G1 E1.2 F1800
;TYPE:Bottom surface
;WIDTH:0.500051
G1 F4800
G1 X57.924 Y168.464 E.04239
G1 X57.289 Y168.464 E.02697
G1 X58.427 Y169.602 E.06839
G1 X58.427 Y170.236 E.02697
G1 X56.655 Y168.464 E.10654
G1 X56.021 Y168.464 E.02697
G1 X58.427 Y170.87 E.14468
G1 X58.427 Y171.505 E.02697
G1 X55.386 Y168.464 E.18282
G1 X54.752 Y168.464 E.02697
G1 X58.427 Y172.139 E.22097
G1 X58.427 Y172.773 E.02697
G1 X54.118 Y168.464 E.25911
G1 X53.483 Y168.464 E.02697
G1 X58.427 Y173.408 E.29725
G1 X58.427 Y174.042 E.02697
G1 X52.849 Y168.464 E.33539
G1 X52.215 Y168.464 E.02697
G1 X58.427 Y174.676 E.37354
G1 X58.427 Y175.311 E.02697
G1 X51.58 Y168.464 E.41168
G1 X50.946 Y168.464 E.02697
G1 X58.427 Y175.945 E.44982
G1 X58.427 Y176.579 E.02697
G1 X50.312 Y168.464 E.48797
G1 X49.677 Y168.464 E.02697
G1 X58.427 Y177.214 E.52611
G1 X58.427 Y177.848 E.02697
